!!!!SEGMENT: pl-wtm--r-258-m--004_moniuszko-stanislaw--msza-credo.krn
!!!cenid: 18xx:2538
!!!COM: Moniuszko, Stanisław
!!!COM-rismid: pe30008351
!!!CDT: 1819/05/05-1872/06/04
!!!CNT: Polish
!!!OPR: Msza
!!!OTL: Credo
!!!OMV: 004
!!!PDT: 1870
!!!AGN: Sacred; Mass
!!!SMS-siglum: PL-Wtm
!!!SMS-shelfmark: R 258/M
!!!SMS-shelfwork: 001-004 M
!!!SMS-variant:
!!!SMS-altvar:
!!!NIFC-rismid: 1001095348
!!!URL-scan: http://repozytorium.nifc.pl/skany/pl-wtm-nut--r258m
!!!ONB-nifc: UWAGA: części Mszy: 1. Kyrie, 2. Et in terra, 3. Graduale, 4. Credo,
**kern	**kern	**dynam	**kern	**text	**dynam	**kern	**text	**dynam	**kern	**text	**dynam	**kern	**text	**dynam
*	*	*	*group1	*	*	*group1	*	*	*group1	*	*	*group1	*	*
*part5	*part5	*part5	*part4	*part4	*part4	*part3	*part3	*part3	*part2	*part2	*part2	*part1	*part1	*part1
*staff6	*staff5	*	*staff4	*staff4	*	*staff3	*staff3	*	*staff2	*staff2	*	*staff1	*staff1	*
*Iorgan	*Iorgan	*	*Iempty	*	*	*Itenor	*	*	*Ialto	*	*	*Isoprn	*	*
*I"[Organo]	*I"[Organo]	*	*I"[Basso]	*	*	*I"[Tenore]	*	*	*I"[Alto]	*	*	*I"[Soprano]	*	*
*clefF4	*clefG2	*	*clefF4	*	*	*clefG2	*	*	*clefG2	*	*	*clefG2	*	*
*k[b-e-a-]	*k[b-e-a-]	*	*k[b-e-a-]	*	*	*k[b-e-a-]	*	*	*k[b-e-a-]	*	*	*k[b-e-a-]	*	*
*E-:	*E-:	*	*E-:	*	*	*E-:	*	*	*E-:	*	*	*E-:	*	*
*	*	*	*	*	*	*ITrd7c12	*	*	*	*	*	*	*	*
*M4/4	*M4/4	*	*M4/4	*	*	*M4/4	*	*	*M4/4	*	*	*M4/4	*	*
*met(c)	*met(c)	*	*met(c)	*	*	*met(c)	*	*	*met(c)	*	*	*met(c)	*	*
*all\right	*all\right	*	*all\right	*	*	*all\right	*	*	*all\right	*	*	*all\right	*	*
*2\right	*2\right	*	*2\right	*	*	*2\right	*	*	*2\right	*	*	*2\right	*	*
=1	=1	=1	=1	=1	=1	=1	=1	=1	=1	=1	=1	=1	=1	=1
*^	*	*	*	*	*	*	*	*	*	*	*	*	*	*
!	!	!	!	!	!	!	!	!	!	!	!	!	!LO:TX:a:t=Moderato.	!	!
!	!	!	!	!	!	!	!	!LO:TX:t=P:problem:partia zapisana bez przenośnika oktawowego	!	!	!	!	!LO:TX:a:t=Credo.	!	!
1rFF	1r	(2B-< 2G< 2E-</	mf	1r	.	.	1r	.	.	1r	.	.	1r	.	.
.	.	4e- 4B-< 4G</	.	.	.	.	.	.	.	.	.	.	.	.	.
.	.	4g 4e- 4B-/)	.	.	.	.	.	.	.	.	.	.	.	.	.
=2	=2	=2	=2	=2	=2	=2	=2	=2	=2	=2	=2	=2	=2	=2	=2
!LO:TX:b:t=ped	!	!LO:TX:t=P:problem:niezrozumiały czerwony znak (segno?)	!	!	!	!LO:DY:a:color=dodgerblue	!	!	!LO:DY:a:color=dodgerblue	!	!	!LO:DY:a:color=dodgerblue	!	!	!LO:DY:a:color=dodgerblue
8E-/L	1EE-	2b- 2g 2B-/	.	2E-\	cre-	mf	2G/	cre-	mf	2e-/	Cre-	mf	2b-/	Cre-	mf
8BB-/	.	.	.	.	.	.	.	.	.	.	.	.	.	.	.
8E-/	.	.	.	.	.	.	.	.	.	.	.	.	.	.	.
8G/J	.	.	.	.	.	.	.	.	.	.	.	.	.	.	.
4B-/	.	8g/L	.	4E-\	-[do	.	4B-/	-[do	.	4e-/	-[do	.	4g/	-do	.
.	.	8e-/	.	.	.	.	.	.	.	.	.	.	.	.	.
4r	.	8g/	.	4r	.	.	4r	.	.	4r	.	.	4r	.	.
.	.	8b-/J	.	.	.	.	.	.	.	.	.	.	.	.	.
=3	=3	=3	=3	=3	=3	=3	=3	=3	=3	=3	=3	=3	=3	=3	=3
8E-/L	1EE-^	2ee- 2g 2e-/	.	2E-\	cre-	.	2B-\	cre-	.	2g/	cre-	.	2ee-\	cre-	.
8BB-/	.	.	.	.	.	.	.	.	.	.	.	.	.	.	.
8E-/	.	.	.	.	.	.	.	.	.	.	.	.	.	.	.
8G/J	.	.	.	.	.	.	.	.	.	.	.	.	.	.	.
4B-/	.	8b-L 8g/	.	4E-\	-do	.	4B-\	-do	.	4g/	-do	.	4b-\	-do	.
.	.	8e-/	.	.	.	.	.	.	.	.	.	.	.	.	.
4r	.	8g/	.	4r	.	.	4r	.	.	4r	.	.	4r	.	.
.	.	8B-/J	.	.	.	.	.	.	.	.	.	.	.	.	.
*v	*v	*	*	*	*	*	*	*	*	*	*	*	*	*	*
=4	=4	=4	=4	=4	=4	=4	=4	=4	=4	=4	=4	=4	=4	=4
*	*^	*	*	*	*	*	*	*	*	*	*	*	*	*
1E-	2g/	8e-\L	.	4E-\	cre-	.	4B-\	cre-	.	4e-/	cre-	.	4g/	cre-	.
.	.	8B-\	.	.	.	.	.	.	.	.	.	.	.	.	.
.	.	8e-\	.	8.E-\	-do	.	8.B-\	-do	.	8.e-/	-do	.	8.g/	-do	.
.	.	8d\J	.	.	.	.	.	.	.	.	.	.	.	.	.
.	.	.	.	16E-\	in	.	16B-\	in	.	16e-/	in	.	16g/	in	.
.	4a-/	8c\L	.	4E-\	u-	.	4c\	u-	.	4e-/	u-	.	4a-/	u-	.
.	.	8e-\	.	.	.	.	.	.	.	.	.	.	.	.	.
.	4f/	8A-\	.	4E-\	-num	.	4A-/	-num	.	4e-@	-num	.	4f/	-num	.
.	.	8c\J	.	.	.	.	.	.	.	.	.	.	.	.	.
=5	=5	=5	=5	=5	=5	=5	=5	=5	=5	=5	=5	=5	=5	=5	=5
1G 1E-	1b-	8ryy	.	2.E-\	de-	.	2.G/	de-	.	2.e-/	de-	.	2.b-\	de-	.
!	!LO:TX:t=P:problem:mixed beam	!	!	!	!	!	!	!	!	!	!	!	!	!	!
.	.	8B-<\L	.	.	.	.	.	.	.	.	.	.	.	.	.
.	.	8e-\	.	.	.	.	.	.	.	.	.	.	.	.	.
.	.	8g\J	.	.	.	.	.	.	.	.	.	.	.	.	.
.	.	8e-\L	.	.	.	.	.	.	.	.	.	.	.	.	.
.	.	8g\	.	.	.	.	.	.	.	.	.	.	.	.	.
.	.	8B-\	.	8G\	-um	.	8B-/	-um	.	8g/	-um	.	8b-\	-um	.
.	.	8b-\J	.	8r	.	.	8r	.	.	8r	.	.	8r	.	.
=6	=6	=6	=6	=6	=6	=6	=6	=6	=6	=6	=6	=6	=6	=6	=6
*^	*	*	*	*	*	*	*	*	*	*	*	*	*	*	*
2.G/	1GG	2b-/	8g\L	.	4..G\	pa-	.	4..d\	pa-	.	4..g/	pa-	.	4..b-\	pa-	.
.	.	.	8d\	.	.	.	.	.	.	.	.	.	.	.	.	.
.	.	.	8g\	.	.	.	.	.	.	.	.	.	.	.	.	.
.	.	.	8f\J	.	.	.	.	.	.	.	.	.	.	.	.	.
.	.	.	.	.	16G\	-trem	.	16d\	-trem	.	16g/	-trem	.	16b-\	-trem	.
.	.	4cc/	8e-\L	.	4G\	om-	.	4e-\	om-	.	4g/	om-	.	4cc\	om-	.
.	.	.	8g\	.	.	.	.	.	.	.	.	.	.	.	.	.
8d/L	.	4an/	8f#X\	.	8G\	-ni	.	8d/	-ni-	.	8f#X/	-ni-	.	8an/	-ni-	.
8c/J	.	.	8d\J	.	8G\	po]-	.	8c/	-po]-	.	8f#/	-po]-	.	8a/	-po-	.
!!LO:PB:g=original
=7	=7	=7	=7	=7	=7	=7	=7	=7	=7	=7	=7	=7	=7	=7	=7	=7
2B- 2G/	2GG\	8ddL 8g/	2ryy	.	2G\	-ten	.	2B-\	-ten	.	2g/	-ten-	.	2dd\	-ten-	.
.	.	8b-/	.	.	.	.	.	.	.	.	.	.	.	.	.	.
.	.	8g/	.	.	.	.	.	.	.	.	.	.	.	.	.	.
.	.	8d/J	.	.	.	.	.	.	.	.	.	.	.	.	.	.
2G/	4E-\	8cc/L	4ryy	.	8E-\	-[tem	.	8c\	-[tem	.	8g/	-[tem	.	8cc\	-tem	.
.	.	8g/	.	.	8r	.	.	8r	.	.	8r	.	.	8r	.	.
.	4C/	8e-/	4e-\	.	4C\	fac-	.	4e-\	fac-	.	4a-/	fac-	.	4cc\	fac-	.
!	!	!LO:TX:t=P:problem:niezrozumiały czerwony znak (segno?)	!	!	!	!	!	!	!	!	!	!	!	!	!	!
.	.	8g/J	.	.	.	.	.	.	.	.	.	.	.	.	.	.
*	*	*v	*v	*	*	*	*	*	*	*	*	*	*	*	*	*
=8	=8	=8	=8	=8	=8	=8	=8	=8	=8	=8	=8	=8	=8	=8	=8
4G/	4D\	8b-/L	.	4D\	-to-	.	4d\	-to-	.	4g/	-to-	.	4b-/	-to-	.
.	.	8d/	.	.	.	.	.	.	.	.	.	.	.	.	.
4B-/	4G\	8g/	.	4G\	-rem	.	4B-\	-rem	.	4d/	-rem	.	4g/	-rem	.
.	.	8d/J	.	.	.	.	.	.	.	.	.	.	.	.	.
2c/	4F\	8a-/L	.	4F\	cae-	.	4c\	cae-	.	4f/	cae-	.	4a-X/	cae-	.
.	.	8f/	.	.	.	.	.	.	.	.	.	.	.	.	.
.	4E-\	8a-/	.	8E-\	-li	.	8c\	-li	.	8f/	-li	.	8b-\	-li	.
.	.	8cc/J	.	8E-\	et	.	8c\	et	.	8f/	et	.	8cc\	et	.
=9	=9	=9	=9	=9	=9	=9	=9	=9	=9	=9	=9	=9	=9	=9	=9
2A-/	4E-\	8ccL 8f/	.	(4E-\	ter-	.	2A-/	ter-	.	2f/	ter-	.	2cc\	ter-	.
.	.	8a-/	.	.	.	.	.	.	.	.	.	.	.	.	.
.	8D\L	8f/	.	8D\L	.	.	.	.	.	.	.	.	.	.	.
.	8F\J	8c/J	.	8F\J)	.	.	.	.	.	.	.	.	.	.	.
4B-/	4BB-\	8d/L	.	4B-\	-rae]	.	4B-/	-rae]	.	4B-/	-rae]	.	4b-\	-rae	.
.	.	8f/	.	.	.	.	.	.	.	.	.	.	.	.	.
4ryy	4r	8B-/	.	4r	.	.	4r	.	.	4r	.	.	4r	.	.
.	.	8b-/J	.	.	.	.	.	.	.	.	.	.	.	.	.
=10	=10	=10	=10	=10	=10	=10	=10	=10	=10	=10	=10	=10	=10	=10	=10
8E-/L	1EE-	2b- 2g 2e-/	.	2E-\	cre-	.	2G/	cre-	.	2e-/	cre-	.	2b-/	Cre-	.
8BB-/	.	.	.	.	.	.	.	.	.	.	.	.	.	.	.
8E-/	.	.	.	.	.	.	.	.	.	.	.	.	.	.	.
8G/J	.	.	.	.	.	.	.	.	.	.	.	.	.	.	.
4B-/	.	8g/L	.	8E-\	-do	.	4B-/	-do	.	4g/	-do	.	4g/	-do	.
.	.	8e-/	.	8r	.	.	.	.	.	.	.	.	.	.	.
4r	.	8g/	.	4E-\	in	.	4r	.	.	4r	.	.	4r	.	.
.	.	8b-/J	.	.	.	.	.	.	.	.	.	.	.	.	.
=11	=11	=11	=11	=11	=11	=11	=11	=11	=11	=11	=11	=11	=11	=11	=11
8E-/L	1EE-	2ee- 2g 2e-/	.	2.E-\	u-	.	2.B-/	cre-	.	2.g/	cre-	.	2ee-\	cre-	.
8BB-/	.	.	.	.	.	.	.	.	.	.	.	.	.	.	.
8E-/	.	.	.	.	.	.	.	.	.	.	.	.	.	.	.
8G/J	.	.	.	.	.	.	.	.	.	.	.	.	.	.	.
4B-/	.	8b-L 8g/	.	.	.	.	.	.	.	.	.	.	4b-\	-do	.
.	.	8e-/	.	.	.	.	.	.	.	.	.	.	.	.	.
4E-/	.	8g/	.	4E-\	-num	.	4B-/	-do	.	4g/	-do	.	4ryy	.	.
.	.	8B-/J	.	.	.	.	.	.	.	.	.	.	.	.	.
*v	*v	*	*	*	*	*	*	*	*	*	*	*	*	*	*
!!LO:LB:g=original
=12	=12	=12	=12	=12	=12	=12	=12	=12	=12	=12	=12	=12	=12	=12
1D-X 1DD-X	8gL 8e-/	.	2D-X/	de-	.	2B-/	cre-	.	4e-/	cre-	.	4g/	cre-	.
.	8B-/	.	.	.	.	.	.	.	.	.	.	.	.	.
.	8e-/	.	.	.	.	.	.	.	8.e-/	-do	.	8.a-/	-do	.
.	8g/J	.	.	.	.	.	.	.	.	.	.	.	.	.
.	.	.	.	.	.	.	.	.	16e-/	in	.	16g/	in	.
.	8a-L 8f/	.	8D-/	-um,	.	4A-/	-do,	.	4f/	u-	.	4a-/	u-	.
.	8A-/	.	8r	.	.	.	.	.	.	.	.	.	.	.
.	8f 8d-X/	.	4D-/	fac-	.	4r	.	.	4f/	-num	.	4f/	-num	.
.	8A-/J	.	.	.	.	.	.	.	.	.	.	.	.	.
=13	=13	=13	=13	=13	=13	=13	=13	=13	=13	=13	=13	=13	=13	=13
*^	*^	*	*	*	*	*	*	*	*	*	*	*	*	*
*	*^	*	*	*	*	*	*	*	*	*	*	*	*	*	*	*
!LO:TX:t=P:problem:podwójny bemol wynika z błędnego wyświetlania	!	!	!	!	!	!	!	!	!	!	!	!	!	!	!	!	!
8D-X/L	2DD-\	1D-X	1b- 1g	2e-\	.	2.D-X/	-to-	.	4e-\	fa-	.	[>1g	de-	.	[1b-	de-	.
8E-/	.	.	.	.	.	.	.	.	.	.	.	.	.	.	.	.	.
8G/	.	.	.	.	.	.	.	.	8.e-\	-cto-	.	.	.	.	.	.	.
8B-/J	.	.	.	.	.	.	.	.	.	.	.	.	.	.	.	.	.
.	.	.	.	.	.	.	.	.	16e-\	-rem	.	.	.	.	.	.	.
!	!LO:TX:b:t=Ten graj:color=red	!	!	!	!	!	!	!	!	!	!	!	!	!	!	!	!
8F/L	2D-\	.	.	4.f\	.	.	.	.	4.f^\	cae-	.	.	.	.	.	.	.
8B-/J	.	.	.	.	.	.	.	.	.	.	.	.	.	.	.	.	.
4G/	.	.	.	.	.	4D-/	-rem	.	.	.	.	.	.	.	.	.	.
.	.	.	.	8e-\	.	.	.	.	8e-\	-li,	.	.	.	.	.	.	.
*	*v	*v	*	*	*	*	*	*	*	*	*	*	*	*	*	*	*
*	*	*v	*v	*	*	*	*	*	*	*	*	*	*	*	*	*
=14	=14	=14	=14	=14	=14	=14	=14	=14	=14	=14	=14	=14	=14	=14	=14
2G/	2C\	8b-/L	.	4C/	cae-	.	2e-\	ter-	.	8g/]	-um	.	8b-\]	-um	.
.	.	8e-/	.	.	.	.	.	.	.	8r	.	.	8r	.	.
.	.	8g/	.	8.C/	-li	.	.	.	.	8.g/	.	.	8.b-\	vi-	.
.	.	8b-/J	.	.	.	.	.	.	.	.	.	.	.	.	.
.	.	.	.	16G\	et	.	.	.	.	16g/	.	.	16b-\	-si-	.
4F\	4FF\	8cc/L	.	4F\	ter-	.	2e-\	-ra,	.	4an/	.	.	4cc\	-bi-	.
.	.	8e-/	.	.	.	.	.	.	.	.	.	.	.	.	.
4ryy	4AAn\	8f/	.	4AAn/	-ra	.	.	.	.	4f/	.	.	4f/	-lium	.
.	.	8c/J	.	.	.	.	.	.	.	.	.	.	.	.	.
=15	=15	=15	=15	=15	=15	=15	=15	=15	=15	=15	=15	=15	=15	=15	=15
4B-/	2BB-\	8d/L	.	2BB-/	vi-	.	2d\	vi-	.	2.b-/	.	.	2.dd\	om-	.
.	.	8f/	.	.	.	.	.	.	.	.	.	.	.	.	.
4d/	.	8b-/	.	.	.	.	.	.	.	.	.	.	.	.	.
.	.	8dd/J	.	.	.	.	.	.	.	.	.	.	.	.	.
4.c/	2C\	8dd/L	.	2C/	-si-	.	2e-\	-si-	.	.	.	.	.	.	.
.	.	8e-/	.	.	.	.	.	.	.	.	.	.	.	.	.
.	.	8a-X/	.	.	.	.	.	.	.	4a-X/	.	.	4cc\	-nium	.
8e-/	.	8cc/J	.	.	.	.	.	.	.	.	.	.	.	.	.
=16	=16	=16	=16	=16	=16	=16	=16	=16	=16	=16	=16	=16	=16	=16	=16
2en/	2C#X\	8cc/L	.	2C#X/	-bi-	.	2e\	-bi-	.	4g/	.	.	4cc\	et	.
.	.	8g/	.	.	.	.	.	.	.	.	.	.	.	.	.
.	.	8b-/	.	.	.	.	.	.	.	4g/	.	.	4b-\	in-	.
.	.	8g/J	.	.	.	.	.	.	.	.	.	.	.	.	.
4B-/	4D\	8b-/L	.	4D/	-li-	.	4f\	-li-	.	4f/	.	.	4b-/	-vi-	.
.	.	8f/J	.	.	.	.	.	.	.	.	.	.	.	.	.
4c/	4Cn\	8a-/L	.	4Cn/	-um	.	4c\	-um	.	4f/	.	.	4a-/	-si-	.
.	.	8f/J	.	.	.	.	.	.	.	.	.	.	.	.	.
!!LO:PB:g=original
=17	=17	=17	=17	=17	=17	=17	=17	=17	=17	=17	=17	=17	=17	=17	=17
*	*^	*^	*	*	*	*	*	*	*	*	*	*	*	*	*
4d/	2G\	4BBn\	8g/L	2ryy	.	4BBn/	et	.	4d\	et	.	(4f/	bi-	.	(2g/	-bi-	.
.	.	.	8f/	.	.	.	.	.	.	.	.	.	.	.	.	.	.
4c/	.	4C\	8e-/	.	.	4C/	in-	.	4c\	in-	.	4e-/)	.	.	.	.	.
.	.	.	8g/J	.	.	.	.	.	.	.	.	.	.	.	.	.	.
2E-/	2ryy	4GG\	8b-/L	4ryy	.	4GG/	-vi-	.	4.e-\	-vi-	.	4B-/	-li-	.	4b-/)	.	.
.	.	.	8B-/	.	.	.	.	.	.	.	.	.	.	.	.	.	.
.	.	4AA-\	8e-/	4c\	.	4AA-/	-si-	.	.	.	.	4c/	-um,	.	4e-/	-lium,	.
.	.	.	8a-/J	.	.	.	.	.	8c\	-si-	.	.	.	.	.	.	.
*	*v	*v	*	*	*	*	*	*	*	*	*	*	*	*	*	*	*
=18	=18	=18	=18	=18	=18	=18	=18	=18	=18	=18	=18	=18	=18	=18	=18	=18
!	!	!LO:TX:t=P:problem:mixed beam	!	!	!	!	!	!	!	!	!	!	!	!	!	!
2ryy	2BB-\	2g/	8e-\L	.	[2.BB-/	-bi-	.	(2B-/	-bi-	.	(2.e-/	cre-	.	(2g/	cre-	.
.	.	.	8B-</	.	.	.	.	.	.	.	.	.	.	.	.	.
.	.	.	8G</	.	.	.	.	.	.	.	.	.	.	.	.	.
.	.	.	8e-\J	.	.	.	.	.	.	.	.	.	.	.	.	.
4.A-/	2BB-\	2f/	8e-\L	.	.	.	.	2A-/)	-li-	.	.	.	.	2f/)	.	.
.	.	.	8c\J	.	.	.	.	.	.	.	.	.	.	.	.	.
.	.	.	4d\	.	8BB-/]	.	.	.	.	.	4d/)	.	.	.	.	.
8B-/	.	.	.	.	8BB-/	-li-	.	.	.	.	.	.	.	.	.	.
*v	*v	*	*	*	*	*	*	*	*	*	*	*	*	*	*	*
=19	=19	=19	=19	=19	=19	=19	=19	=19	=19	=19	=19	=19	=19	=19	=19
!!LO:TX:color=red:t=a
!	!LO:TX:t=P:problem:mixed beam	!	!	!	!	!	!	!	!	!	!	!	!	!	!
!	!	!LO:TX:t=P:problem:błędne wyświetlanie łuku	!	!	!	!	!	!	!	!	!	!	!	!	!
1E-	4.e-/	(>8G</L	.	4E-\	-um.	.	4G/	-um.	.	4e-/	-do	.	4e-/	-do	.
.	.	8B-</	.	.	.	.	.	.	.	.	.	.	.	.	.
.	.	8e-\J)	.	4r	.	.	4r	.	.	4r	.	.	4r	.	.
.	8gg/	8ryy	.	.	.	.	.	.	.	.	.	.	.	.	.
.	8ff/L	2ryy	.	4r	.	.	4r	.	.	4r	.	.	4r	.	.
.	8ee-/	.	.	.	.	.	.	.	.	.	.	.	.	.	.
.	8dd/	.	.	4E-\	in	.	4G/	in	.	4e-/	in	.	8b-\L	in	.
.	8cc/J	.	.	.	.	.	.	.	.	.	.	.	8cc\J	.	.
*	*v	*v	*	*	*	*	*	*	*	*	*	*	*	*	*
=20	=20	=20	=20	=20	=20	=20	=20	=20	=20	=20	=20	=20	=20	=20
*	*^	*	*	*	*	*	*	*	*	*	*	*	*	*
2G-X 2C\	8b-/L	2ryy	.	2C/	Je-	.	2G-X/	Je-	.	(2e-/	Je-	.	4.b-\	Je-	.
.	8e-/	.	.	.	.	.	.	.	.	.	.	.	.	.	.
.	8g-X/	.	.	.	.	.	.	.	.	.	.	.	.	.	.
.	8an/J	.	.	.	.	.	.	.	.	.	.	.	8an/	-sum	.
2F 2C-X\	8a-X/L	2a-	.	2C-X/	-sum	.	2F/	-sum	.	4.f/)	.	.	4.a-X/	Chris-	.
.	8e-/	.	.	.	.	.	.	.	.	.	.	.	.	.	.
.	8f/	.	.	.	.	.	.	.	.	.	.	.	.	.	.
.	8d/J	.	.	.	.	.	.	.	.	8d/	-sum	.	8a-/	-tum	.
*	*v	*v	*	*	*	*	*	*	*	*	*	*	*	*	*
=21	=21	=21	=21	=21	=21	=21	=21	=21	=21	=21	=21	=21	=21	=21
*^	*	*	*	*	*	*	*	*	*	*	*	*	*	*
2ryy	2En 2BB-\	8a-X/L	.	2BB-/	Chris-	.	2E/	chris-	.	2d-X/	Chris-	.	4.a-/	fi-	.
.	.	8d-X/	.	.	.	.	.	.	.	.	.	.	.	.	.
.	.	8B-/	.	.	.	.	.	.	.	.	.	.	.	.	.
.	.	8g/J	.	.	.	.	.	.	.	.	.	.	8g/	-lium	.
4F/	2AA-\	8g/L	.	2AA-/	-tum	.	(>4F/	-tum	.	2c/	-tum	.	8g/L	De-	.
.	.	8f/	.	.	.	.	.	.	.	.	.	.	8f/J	.	.
4r	.	8en/	.	.	.	.	4c\)	.	.	.	.	.	8en/L	-i	.
.	.	8f/J	.	.	.	.	.	.	.	.	.	.	8f/J	.	.
!!LO:LB:g=original
=22	=22	=22	=22	=22	=22	=22	=22	=22	=22	=22	=22	=22	=22	=22	=22
*	*	*^	*	*	*	*	*	*	*	*	*	*	*	*	*
2.F/	4BB-\	8g/L	4d-X\	.	4BB-/	fi-	.	(4d-X\	.	.	2f/	fi-	.	4g/	u-	.
.	.	8f/	.	.	.	.	.	.	.	.	.	.	.	.	.	.
.	4C\	8a-/	4c\	.	4C/	.	.	4c\)	.	.	.	.	.	4a-/	-ni-	.
.	.	8f/J	.	.	.	.	.	.	.	.	.	.	.	.	.	.
.	4D-X\	8b-/L	2ryy	.	4D-X/	-li-	.	4B-\	.	.	4f/	-li-	.	4b-/	-ge-	.
.	.	8f/	.	.	.	.	.	.	.	.	.	.	.	.	.	.
4c/	4C\	8en/	.	.	4C/	-um	.	4G/	.	.	4en/	-um	.	4cc\	-ni-	.
.	.	8b-/J	.	.	.	.	.	.	.	.	.	.	.	.	.	.
*	*	*v	*v	*	*	*	*	*	*	*	*	*	*	*	*	*
=23	=23	=23	=23	=23	=23	=23	=23	=23	=23	=23	=23	=23	=23	=23	=23
4c/	1F	8a-/L	.	2F\	De-	.	2A-/	.	.	2f/	De-	.	4a-/	-tum	.
.	.	8f/	.	.	.	.	.	.	.	.	.	.	.	.	.
4A-/	.	8a-/J	.	.	.	.	.	.	.	.	.	.	4r	.	.
.	.	8ccc\	.	.	.	.	.	.	.	.	.	.	.	.	.
2ryy	.	8bb-\L	.	8F\	-i	.	8c/	.	.	8a-/	-i	.	4.cc\	et	.
.	.	8aa-\	.	8r	.	.	8r	.	.	8r	.	.	.	.	.
.	.	8gg\	.	4F\	ex	.	4c/	ex	.	4a-/	ex	.	.	.	.
.	.	8ff\J	.	.	.	.	.	.	.	.	.	.	8ff\	ex	.
=24	=24	=24	=24	=24	=24	=24	=24	=24	=24	=24	=24	=24	=24	=24	=24
*	*^	*	*	*	*	*	*	*	*	*	*	*	*	*	*
!	!	!LO:TX:b:color=red:t=Ten X	!	!	!	!	!	!	!	!	!	!	!	!	!	!
8c/L	2ryy	2BB-\	4ee-\	.	4.BB-/	pa-	.	(4c\	pa-	.	4.a-/	[pa-	.	4ee-\	pa-	.
8F/	.	.	.	.	.	.	.	.	.	.	.	.	.	.	.	.
8B-/	.	.	8ddn\L	.	.	.	.	8B-\)	.	.	.	.	.	4dd\	-tre	.
8f\J	.	.	8aa-\J	.	8BB-/	-tre	.	8A-/	-tre	.	8f/	-tre	.	.	.	.
2d/	4A-X/	2BBn\	8gg\L	.	4.BBn/	na-	.	4A-/	na-	.	4.f/	na-	.	4dd\	na-	.
.	.	.	8ff\	.	.	.	.	.	.	.	.	.	.	.	.	.
.	4G/	.	8dd\	.	.	.	.	4G/	-tum	.	.	.	.	8ryy	.	.
.	.	.	8ff\J	.	8BB/	-tum	.	.	.	.	8d/	-tum]	.	8dd\	-tum	.
*	*v	*v	*	*	*	*	*	*	*	*	*	*	*	*	*	*
=25	=25	=25	=25	=25	=25	=25	=25	=25	=25	=25	=25	=25	=25	=25	=25
8r	2C\	4.ff\	.	4.C/	[an-	.	4.G/	.	.	4d/	.	.	4.ff\	an-	.
8G/	.	.	.	.	.	.	.	.	.	.	.	.	.	.	.
4.c/	.	.	.	.	.	.	.	.	.	4e-/	.	.	.	.	.
.	.	8ee-\	.	8C/	-te	.	8G/	.	.	.	.	.	8ee-\	-te	.
!	!	!	!	!	!	!	!LO:TX:t=P:problem:mixed beam	!	!	!	!	!	!	!	!
.	4CC\	8dd/L	.	4C/	om-	.	8G/L	.	.	8f/L	.	.	8dd\L	om-	.
8ryy	.	8cc\	.	.	.	.	8e-\J	.	.	8e-/J	.	.	8cc\J	.	.
8d/L	4C\	8b-\	.	8C/	-ni-	.	8d\	.	.	8g/	.	.	8b-/	-ni-	.
8c/J	.	8a-\J	.	8C/	-a	.	8c\	.	.	8e-/	.	.	8an/	-a	.
=26	=26	=26	=26	=26	=26	=26	=26	=26	=26	=26	=26	=26	=26	=26	=26
8B-/L	2D\	8g/L	.	4.D\	sae-	.	4.B-\	.	.	4.d/	.	.	4.g/	sae-	.
8G/	.	8B-/	.	.	.	.	.	.	.	.	.	.	.	.	.
8D/	.	8d/	.	.	.	.	.	.	.	.	.	.	.	.	.
8B-/J	.	8g/J	.	8D\	-cu-	.	8d\	.	.	8d/	.	.	8d/	-cu-	.
2d/	2r	8b-L 8g/	.	4D\	-la]	.	4d\	.	.	4d/	.	.	4d/	-la	.
!	!	!LO:TX:t=P:problem:nie wiem co to za znak...	!	!	!	!	!	!	!	!	!	!	!	!	!
.	.	8a- 8f/	.	.	.	.	.	.	.	.	.	.	.	.	.
.	.	8g 8en/	.	4r	.	.	4r	.	.	4r	.	.	4r	.	.
.	.	8a-J 8f/	.	.	.	.	.	.	.	.	.	.	.	.	.
!!LO:PB:g=original
=27	=27	=27	=27	=27	=27	=27	=27	=27	=27	=27	=27	=27	=27	=27	=27
*	*	*^	*	*	*	*	*	*	*	*	*	*	*	*	*
2G/	2G\	8b-L 8g/	2ryy	.	1r	.	.	1r	.	.	4g/	.	.	4b-\	De-	.
.	.	8d/	.	.	.	.	.	.	.	.	.	.	.	.	.	.
.	.	8g/	.	.	.	.	.	.	.	.	8g/	.	.	8b-\	-um	.
.	.	8b-/J	.	.	.	.	.	.	.	.	8g/	.	.	8b-\	de	.
!	!	!	!	!	!	!	!	!	!	!	!	!	!LO:DY:a	!	!	!LO:DY:a
2F/	2r	8ddL 8b-/	2f\	.	.	.	.	.	.	.	8b-/L	.	<	8dd\L	de-	<
!	!	!	!	!	!	!	!	!	!	!	!LO:ACC:color=dodgerblue	!	!	!	!	!
.	.	8cc 8a-/	.	.	.	.	.	.	.	.	8an/J	.	.	8cc\J	.	.
.	.	8b- 8g/	.	.	.	.	.	.	.	.	8g/L	.	.	8b-\L	-o,	.
.	.	8ccJ 8a-/	.	.	.	.	.	.	.	.	8a/J	.	[[	8cc\J	.	[[
*v	*v	*	*	*	*	*	*	*	*	*	*	*	*	*	*	*
=28	=28	=28	=28	=28	=28	=28	=28	=28	=28	=28	=28	=28	=28	=28	=28
!	!	!	!	!	!	!LO:DY:a	!	!	!LO:DY:a	!	!	!LO:DY:a	!	!	!LO:DY:a
4BB-/	2dd 2b-/	8f\L	.	2B-^\	.	f	2f^\	.	f	2b-^/	.	f	2dd^\	lu-	f
.	.	8d\	.	.	.	.	.	.	.	.	.	.	.	.	.
8ryy	.	8f\	.	.	.	.	.	.	.	.	.	.	.	.	.
8B-\	.	8d\J	.	.	.	.	.	.	.	.	.	.	.	.	.
8F\L	4b-/	8f\L	.	4BB-/	.	.	4d\	.	.	4f/	.	.	4b-\	-men	.
8E-\	.	8e-\	.	.	.	.	.	.	.	.	.	.	.	.	.
8D\	8ryy	8d\	.	8r	.	.	8r	.	.	8r	.	.	8r	.	.
8C\J	8ff/	8f\J	.	8B-\	.	.	8d\	.	.	8b-\	.	.	8ff\	de-	.
=29	=29	=29	=29	=29	=29	=29	=29	=29	=29	=29	=29	=29	=29	=29	=29
*^	*	*	*	*	*	*	*	*	*	*	*	*	*	*	*
4ryy	4.BB-\	2ff 2dd/	8b-\L	.	4.B-^\	.	.	4.d^\	.	.	4.b-^\	.	.	4.ff^\	-lu-	.
.	.	.	8f\	.	.	.	.	.	.	.	.	.	.	.	.	.
8ryy	.	.	8b-\	.	.	.	.	.	.	.	.	.	.	.	.	.
8d/	8D\	.	8f\J	.	8BB-/	.	.	8B-\	.	.	8f/	.	.	8dd\	-mi-	.
8B-/L	8BB-\L	8dd/	2ryy	.	4BB-/	.	.	4B-\	.	.	4f/	.	.	4dd\	-ne	.
8G/	8GG\	8b-/L	.	.	.	.	.	.	.	.	.	.	.	.	.	.
8F/	8FF\	8d/	.	.	4r	.	.	4r	.	.	4r	.	.	4r	.	.
8E-/J	8EE-\J	8f/J	.	.	.	.	.	.	.	.	.	.	.	.	.	.
=30	=30	=30	=30	=30	=30	=30	=30	=30	=30	=30	=30	=30	=30	=30	=30	=30
8D/L	4DD\	4b-/	8r	.	1r	.	.	1r	.	.	1r	.	.	4b-\	de-	.
8F/J	.	.	4f\	.	.	.	.	.	.	.	.	.	.	.	.	.
2B-/	4D\	8cc/L	.	.	.	.	.	.	.	.	.	.	.	8cc\L	-um	.
.	.	8dd/J	8f\	.	.	.	.	.	.	.	.	.	.	8dd\J	.	.
.	4C\	2ee-/	8g\L	.	.	.	.	.	.	.	.	.	.	4.ee-\	ve-	.
.	.	.	8b-\	.	.	.	.	.	.	.	.	.	.	.	.	.
4c/	4F\	.	8an\	.	.	.	.	.	.	.	.	.	.	.	.	.
.	.	.	8cc\J	.	.	.	.	.	.	.	.	.	.	8ee-\	-rum	.
=31	=31	=31	=31	=31	=31	=31	=31	=31	=31	=31	=31	=31	=31	=31	=31	=31
!	!	!	!	!	!	!	!	!	!	!LO:DY:a:color=dodgerblue	!	!	!LO:DY:a:color=dodgerblue	!	!	!
2B-/	4.BB-\	(2dd/	8b-\L	.	1r	.	.	2B-\	de	f	2f/	.	f	2dd\	de	.
.	.	.	8f\J	.	.	.	.	.	.	.	.	.	.	.	.	.
.	.	.	4d\	.	.	.	.	.	.	.	.	.	.	.	.	.
.	8B-\	.	.	.	.	.	.	.	.	.	.	.	.	.	.	.
8F/L	8F\L	4b- 4d/)	2ryy	.	.	.	.	4c\	/de-	.	4f/	.	.	4b-\	de-	.
8E-/	8E-\	.	.	.	.	.	.	.	.	.	.	.	.	.	.	.
8D/	8D\	4ff 4f/	.	.	.	.	.	4f\	-o/	.	4f/	.	.	4ff\	-o	.
8C/J	8C\J	.	.	.	.	.	.	.	.	.	.	.	.	.	.	.
!!LO:LB:g=original
=32	=32	=32	=32	=32	=32	=32	=32	=32	=32	=32	=32	=32	=32	=32	=32	=32
4BB-/	2BB-\	2ff/	8dd\L	.	(2B-\	ge-	.	(4.f\	ve-	.	[2dd\	ve-	.	2ff\	ve-	.
.	.	.	8cc\J	.	.	.	.	.	.	.	.	.	.	.	.	.
8r	.	.	4b-\	.	.	.	.	.	.	.	.	.	.	.	.	.
8e-/	.	.	.	.	.	.	.	8e-\)	.	.	.	.	.	.	.	.
8d/L	4AAn\	2ff#X/	4.dd\	.	4An\)	.	.	8d\L	-ro	.	4.dd\]	.	.	2ff#X\	-ro,	.
8c/	.	.	.	.	.	.	.	8c\J	.	.	.	.	.	.	.	.
8Bn/	4AA-X\	.	.	.	4A-X\	-ni-	.	8B\L	et	.	.	.	.	.	.	.
8c/J	.	.	8cc\	.	.	.	.	8c\J	.	.	8cc\	-ro	.	.	.	.
=33	=33	=33	=33	=33	=33	=33	=33	=33	=33	=33	=33	=33	=33	=33	=33	=33
2d/	2GG\	4.gg/	8bn\L	.	4G\	-tum	.	4.d\	ge-	.	4.bn\	ge-	.	4.gg\	ge-	.
.	.	.	8g\J	.	.	.	.	.	.	.	.	.	.	.	.	.
.	.	.	4b\	.	4r	.	.	.	.	.	.	.	.	.	.	.
.	.	8dd/	.	.	.	.	.	8G/	-[ni-	.	8b\	-[ni-	.	8dd\	-ni-	.
4r	2G\	4.dd/	8b\L	.	2G\	non	.	4G/	-tum	.	4b\	-tum	.	4dd\	-tum	.
.	.	.	8d\J	.	.	.	.	.	.	.	.	.	.	.	.	.
4Bn/	.	.	4g\	.	.	.	.	4B\	non	.	4g/	non	.	4dd\	non	.
.	.	8dd/	.	.	.	.	.	.	.	.	.	.	.	.	.	.
=34	=34	=34	=34	=34	=34	=34	=34	=34	=34	=34	=34	=34	=34	=34	=34	=34
4c/	1G	4ee-/	8r	.	1G	fac-	.	4c\	fa-	.	4g/	fa-	.	4ee-\	fa-	.
.	.	.	4g\	.	.	.	.	.	.	.	.	.	.	.	.	.
8d/L	.	8dd/L	.	.	.	.	.	8d\L	-ctum	.	4g/	-ctum	.	8dd\L	-ctum	.
8e-/J	.	8cc/J	8g\	.	.	.	.	8e-\J	.	.	.	.	.	8cc\J	.	.
8f/L	.	4.cc/	4a-\	.	.	.	.	8f\L	ge-	.	4a-/	ge-	.	4.cc\	ge-	.
8d/J	.	.	.	.	.	.	.	8d\J	.	.	.	.	.	.	.	.
4Bn/	.	.	4g\	.	.	.	.	4B\	-ni]-	.	4g/	-ni]-	.	.	.	.
.	.	8dd/	.	.	.	.	.	.	.	.	.	.	.	8dd\	-ni-	.
=35	=35	=35	=35	=35	=35	=35	=35	=35	=35	=35	=35	=35	=35	=35	=35	=35
*^	*	*	*	*	*	*	*	*	*	*	*	*	*	*	*	*
!!LO:TX:color=red:t=E
4c/	4c\	1rFF	8ee-/L	4g\	.	4C/	-tum	.	4c\	-tum	.	4g/	-tum	.	4ee-\	-tum	.
.	.	.	8e-/	.	.	.	.	.	.	.	.	.	.	.	.	.	.
4ryy	4ryy	.	8g/	4ryy	.	4r	.	.	4r	.	.	4r	.	.	4r	.	.
.	.	.	8cc/J	.	.	.	.	.	.	.	.	.	.	.	.	.	.
!	!	!	!	!	!	!	!	!	!	!	!LO:DY:a	!	!	!LO:DY:a	!	!	!LO:DY:a
2A- 2E-	2C\	.	8ee-/L	2ryy	.	2C/	con	.	2A-/	con	p	2e-/	con	p	4.ee-\	con	p
.	.	.	8e-/	.	.	.	.	.	.	.	.	.	.	.	.	.	.
.	.	.	8a-/	.	.	.	.	.	.	.	.	.	.	.	.	.	.
.	.	.	8e-/J	.	.	.	.	.	.	.	.	.	.	.	8a-/	sub-	.
*v	*v	*	*	*	*	*	*	*	*	*	*	*	*	*	*	*	*
=36	=36	=36	=36	=36	=36	=36	=36	=36	=36	=36	=36	=36	=36	=36	=36	=36
2B- 2BB-/	1r	8dd-X/L	2ryy	.	4BB-/	[sub-	.	4A-/	[sub-	.	4f/	sub-	.	4..dd-X\	-stan-	.
.	.	8f/	.	.	.	.	.	.	.	.	.	.	.	.	.	.
.	.	8a-/	.	.	8.BB-/	-stan-	.	8.A-/	-stan-	.	8.f/	-stan-	.	.	.	.
.	.	8f/J	.	.	.	.	.	.	.	.	.	.	.	.	.	.
.	.	.	.	.	16BB-/	-ti-	.	16A-/	-ti-	.	16f/	-ti-	.	16dd-\	-ti-	.
!	!	!	!LO:N:vis=2.	!	!	!	!	!	!	!	!	!	!	!	!	!
2B- 2E-/	.	8d-X/L	2d-\	.	4E-\	-a-	.	4B-/	-a-	.	4f/	-a-	.	4.dd-\	-a-	.
.	.	8f/	.	.	.	.	.	.	.	.	.	.	.	.	.	.
.	.	8g/	.	.	4E-\	-lem]	.	4B-/	-lem]	.	4g/	-lem	.	.	.	.
.	.	8e-/J	.	.	.	.	.	.	.	.	.	.	.	8ee-\	-lem	.
!!LO:PB:g=original
=37	=37	=37	=37	=37	=37	=37	=37	=37	=37	=37	=37	=37	=37	=37	=37	=37
2A- 2AA-/	1r	8d-X/L	4d-\	.	4AA-/	.	.	4B-/	.	.	4g/	pa-	.	4dd-X\	pa-	.
.	.	8e-/	.	.	.	.	.	.	.	.	.	.	.	.	.	.
.	.	8a-/	4c\	.	8AA-/	.	.	8A-/	.	.	8a-/	-tris,	.	8cc\	-tris	.
.	.	8cc/J	.	.	8r	.	.	8r	.	.	8r	.	.	8r	.	.
2A-/	.	8cc/L	2f\	.	2A-\	.	.	2c\	.	.	2f/	con	.	4.cc\	con	.
.	.	8c/	.	.	.	.	.	.	.	.	.	.	.	.	.	.
.	.	8cc/	.	.	.	.	.	.	.	.	.	.	.	.	.	.
.	.	8f/J	.	.	.	.	.	.	.	.	.	.	.	8f/	sub-	.
=38	=38	=38	=38	=38	=38	=38	=38	=38	=38	=38	=38	=38	=38	=38	=38	=38
4A-^</	1rFF	[2b-/	8d-X\L	.	4A-\@	.	.	4d-X\	.	.	4f/	sub-	.	4..b-\	-stan-	.
.	.	.	8f\	.	.	.	.	.	.	.	.	.	.	.	.	.
8.G/L	.	.	8d-\	.	8.G\	.	.	8.d-\	.	.	8.f/	-stan-	.	.	.	.
.	.	.	8f\J	.	.	.	.	.	.	.	.	.	.	.	.	.
16F/Jk	.	.	.	.	16F\@	.	.	16d-\	.	.	16f/	-ti-	.	16b-\	-ti-	.
2c 2C/	.	8b-/L]	2g\	.	4C/	.	.	4c\	.	.	4f/	-a-	.	4.b-\	-a-	.
.	.	8f/	.	.	.	.	.	.	.	.	.	.	.	.	.	.
.	.	8en/	.	.	4C/	.	.	4c\	.	.	4en/	-lem	.	.	.	.
.	.	8cc/J	.	.	.	.	.	.	.	.	.	.	.	8cc\	-lem	.
=39	=39	=39	=39	=39	=39	=39	=39	=39	=39	=39	=39	=39	=39	=39	=39	=39
8FL	1rFF	4a-/	4f\	.	4.F\	.	.	4.c\	.	.	4.f/	[pa-	.	4.a-/	pa-	.
8A-	.	.	.	.	.	.	.	.	.	.	.	.	.	.	.	.
8cJ	.	8r	4ryy	.	.	.	.	.	.	.	.	.	.	.	.	.
!	!	!	!	!	!LO:HP:a:t=cres-cen-do:ext2=cd	!	!LO:HP:a:t=cres-cen-do:ext2=cd	!	!	!LO:HP:a:t=cres-cen-do:ext2=cd	!	!	!LO:HP:a:t=cres-cen-do:ext2=cd	!	!	!
8r	.	8a- 8f/	.	.	8E-\	.	<	8c\	.	<	8f/	-tris	<	8a-/	-tris	.
.	.	.	.	.	.	.	.	.	.	.	.	.	.	.	.	.
!	!	!	!	!	!LO:N:vis=4..	!	!	!	!	!	!	!	!	!	!	!LO:HP:a:t=cres-cen-do:ext2=cd
8E-L	.	8ccL 8a-/	2ryy	.	4.E-\	.	.	4.e-\	.	.	8a-/L	per	.	8cc\L	per	<
8B-	.	8b- 8g/	.	.	.	.	.	.	.	.	8g/J	.	.	8b-\J	.	.
8e-J	.	8a- 8f/	.	.	.	.	.	.	.	.	8f/L	quem	.	8a-\L	quem	.
!	!	!	!	!	!	!	!	!LO:ACC:color=red	!	!	!	!	!	!	!	!
8r	.	8b-J 8g/	.	.	8E-\	.	.	8dnX\	.	.	8g/J	.	.	8b-\J	.	.
=40	=40	=40	=40	=40	=40	=40	=40	=40	=40	=40	=40	=40	=40	=40	=40	=40
*	*^	*	*	*	*	*	*	*	*	*	*	*	*	*	*	*
[2c 2A-\	1rFF	2rGGyy	4.cc/	8a-\L	.	4.A-\	.	.	4.c\	.	.	(4a-/	om-	.	(4.cc\	om-	.
.	.	.	.	8e-\	.	.	.	.	.	.	.	.	.	.	.	.	.
.	.	.	.	8g\	.	.	.	.	.	.	.	8g/)	.	.	.	.	.
.	.	.	8ee-/	8f#X\J	.	8A-\	.	.	8c\	.	.	8f#X/	.	.	8ee-\)	.	.
8c/L]	.	2G\	8ee-/L	2g\	.	4G\	.	.	8c\L	.	.	4g/	-ni-	.	8ee-\L	-ni-	.
8Bn/	.	.	8ddn/	.	.	.	.	.	8B\J	.	.	.	.	.	8ddn\J	.	.
8An/	.	.	8cc/	.	.	4G\	.	.	8A/L	.	.	4g/	-a]	.	8cc\L	-a	.
8B/J	.	.	8dd/J	.	.	.	.	.	8B/J	.	.	.	.	.	8dd\J	.	.
*v	*v	*v	*	*	*	*	*	*	*	*	*	*	*	*	*	*	*
=41	=41	=41	=41	=41	=41	=41	=41	=41	=41	=41	=41	=41	=41	=41	=41
2c\	2ee-/	8g\L	.	2c\	.	.	2c\	.	.	2g/	.	.	2ee-\	fac-	<
.	.	(>8g\	.	.	.	.	.	.	.	.	.	.	.	.	.
.	.	8cc\	.	.	.	.	.	.	.	.	.	.	.	.	.
.	.	8ee-\J)	.	.	.	.	.	.	.	.	.	.	.	.	.
2c 2B-X/	2een/	8r	.	2B-\	.	.	2c\	.	.	2g/	.	.	2een\	-ta	.
.	.	8g\L	.	.	.	.	.	.	.	.	.	.	.	.	.
.	.	8cc\	.	.	.	.	.	.	.	.	.	.	.	.	.
.	.	8dd\J	.	.	.	.	.	.	.	.	.	.	.	.	[
!!LO:LB:g=original
=42	=42	=42	=42	=42	=42	=42	=42	=42	=42	=42	=42	=42	=42	=42	=42
*^	*	*^	*	*	*	*	*	*	*	*	*	*	*	*	*
!	!	!	!	!	!	!	!	!	!	!	!	!	!	!	!	!	!LO:HP:t=cres.
2c 2An/	1r	2ff/	8rf	2reyy	.	2An\	.	.	2c\	.	.	2cc\	.	.	2ff\	sunt,	<
.	.	.	8f\L	.	.	.	.	.	.	.	.	.	.	.	.	.	.
.	.	.	8cc\	.	.	.	.	.	.	.	.	.	.	.	.	.	.
.	.	.	8ff\J	.	.	.	.	.	.	.	.	.	.	.	.	.	.
2d 2c 2A-X/	.	2ff#X/	8rb	2f#X\	.	2A-X\	.	.	2d\	.	.	2cc\	.	.	2ff#X\	qui	.
.	.	.	8cc\L	.	.	.	.	.	.	.	.	.	.	.	.	.	.
.	.	.	8dd\	.	.	.	.	.	.	.	.	.	.	.	.	.	.
.	.	.	8cc\J	.	f	.	.	.	.	.	.	.	.	.	.	.	.
*	*	*v	*v	*v	*	*	*	*	*	*	*	*	*	*	*	*	*
=43	=43	=43	=43	=43	=43	=43	=43	=43	=43	=43	=43	=43	=43	=43	=43
!	!	!	!	!	!	!LO:DY:a	!	!	!LO:DY:a	!	!	!LO:DY:a	!	!	!LO:DY:a
8GG/L	1GG	4.gg 4.dd 4.bn 4.g/	.	2G\	.	f	2d\	.	ff	2bn\	.	ff	2gg\	pro-	ff
8D/	.	.	.	.	.	.	.	.	.	.	.	.	.	.	.
8G/J	.	.	.	.	.	.	.	.	.	.	.	.	.	.	.
8r	.	8d 8Bn/	.	.	.	.	.	.	.	.	.	.	.	.	.
4G/	.	8gL 8d 8B/	.	4G\	.	.	4d\	.	.	4b/	.	.	4dd\	-pter	.
.	.	8b 8g 8d/	.	.	.	.	.	.	.	.	.	.	.	.	.
4G/	.	8dd 8b 8g/	.	4G\	.	.	4B\	.	.	4g/	.	.	4dd\	nos	.
.	.	8ddJ 8d/	.	.	.	.	.	.	.	.	.	.	.	.	.
=44	=44	=44	=44	=44	=44	=44	=44	=44	=44	=44	=44	=44	=44	=44	=44
8AnL 8AAn/	1AA	(4.dd 4.cc 4.a- 4.f#X 4.d/	.	4.An\	.	.	4.c\	.	.	4.f#X/	.	.	4.dd\	ho-	.
8D/	.	.	.	.	.	.	.	.	.	.	.	.	.	.	.
8A/	.	.	.	.	.	.	.	.	.	.	.	.	.	.	.
8c/J	.	8ee- 8e-/	.	8A\	.	.	8c\	.	.	8f#/	.	.	8dd\	-mi-	.
4c 4A/	.	8ddL 8f# 8d/)	.	4A\	.	.	4c\	.	.	4f#/	.	.	4dd\	-nes,	.
.	.	8a-/	.	.	.	.	.	.	.	.	.	.	.	.	.
4c 4A/	.	8dd 8d/	.	4A\	.	.	4c\	.	.	4f#/	.	.	8dd\L	qui	.
.	.	8ee-J 8e-/	.	.	.	.	.	.	.	.	.	.	8ee-\J	.	.
=45	=45	=45	=45	=45	=45	=45	=45	=45	=45	=45	=45	=45	=45	=45	=45
*	*	*^	*	*	*	*	*	*	*	*	*	*	*	*	*
8AA-/L	1AA-X	4.ff 4.cc 4.a-X 4.f/	2ryy	.	2A-X\	.	.	2c\	.	.	2fn/	.	.	2ff\	pro-	.
16C/L	.	.	.	.	.	.	.	.	.	.	.	.	.	.	.	.
16F/JJ	.	.	.	.	.	.	.	.	.	.	.	.	.	.	.	.
8A-/L	.	.	.	.	.	.	.	.	.	.	.	.	.	.	.	.
8F/J	.	8c 8A-X/	.	.	.	.	.	.	.	.	.	.	.	.	.	.
8C/L	.	8fL 8c 8A-/	4ryy	.	4A-\	.	.	4c\	.	.	4f/	.	.	4cc\	-pter	.
8AA-/J	.	8a- 8f 8c/	.	.	.	.	.	.	.	.	.	.	.	.	.	.
8FF/L	.	8cc/	4a- 4f\	.	4A-\	.	.	8c\L	.	.	4f/	.	.	8cc\L	nos	.
8F/J	.	8dd/J	.	.	.	.	.	8B-\J	.	.	.	.	.	8dd\J	.	.
*	*	*v	*v	*	*	*	*	*	*	*	*	*	*	*	*	*
=46	=46	=46	=46	=46	=46	=46	=46	=46	=46	=46	=46	=46	=46	=46	=46
*	*^	*	*	*	*	*	*	*	*	*	*	*	*	*	*
8GG/L	2GG\	2rGGyy	4.ee- 4.b- 4.g 4.e-/	.	4.G\	.	.	4.B-\	.	.	4.e-/	.	.	4.ee-\	ho-	.
8BB-/	.	.	.	.	.	.	.	.	.	.	.	.	.	.	.	.
8E-/	.	.	.	.	.	.	.	.	.	.	.	.	.	.	.	.
8B-J 8G/	.	.	8ff 8f/	.	8G\	.	.	8B-\	.	.	8f/	.	.	8ff\	-mi-	.
2c/	4A-\	4AA-\	8ee-L 8e-/	.	4A-\	.	.	4c\	.	.	8e-/	.	.	8ee-\	-nes	.
.	.	.	8cc/	.	.	.	.	.	.	.	8r	.	.	8r	.	.
!	!	!	!	!	!	!	!LO:DY:a	!	!	!LO:DY:a	!	!	!LO:DY:a	!	!	!LO:DY:a
.	4G\	4GG\	8g/	.	4G\	.	p	4r@	.	p	4e-/	.	p	4cc\	et	p
.	.	.	8cc/J	.	.	.	.	.	.	.	.	.	.	.	.	.
*	*v	*v	*	*	*	*	*	*	*	*	*	*	*	*	*	*
!!LO:PB:g=original
=47	=47	=47	=47	=47	=47	=47	=47	=47	=47	=47	=47	=47	=47	=47	=47
*	*	*^	*	*	*	*	*	*	*	*	*	*	*	*	*
*	*	*	*^	*	*	*	*	*	*	*	*	*	*	*	*	*
*	*	*	*	*	*	*^	*	*	*	*	*	*	*	*	*	*	*
2F#X/	2FF#X\	(2an/	8a\L	4ryy	.	2F#X\	2ryy	pro-	.	4r	.	.	(2c/	pro-	.	(2an/	pro-	.
.	.	.	8c\	.	.	.	.	.	.	.	.	.	.	.	.	.	.	.
.	.	.	8e-\	4e-/	.	.	.	.	.	4e-^\	qui	.	.	.	.	.	.	.
.	.	.	8An\J	.	.	.	.	.	.	.	.	.	.	.	.	.	.	.
!	!	!LO:TX:t=P:problem:mixed beam	!	!	!	!	!	!	!	!	!	!	!	!	!	!	!	!
2D/	2DD\	4f#X/	8d\L	2ryy	.	2D\	4ryy	-pter	.	8d\L	pro-	.	2d/)	-pter	.	4f#X/)	.	.
.	.	.	8c\	.	.	.	.	.	.	8c\J	.	.	.	.	.	.	.	.
.	.	4dd/)	8B-</	.	.	.	4D	.	.	8B-/L	-pter	.	.	.	.	4dd\	-pter	.
!	!	!	!	!	!	!	!	!	!	!LO:ACC:color=dodgerblue	!	!	!	!	!	!	!	!
.	.	.	8A</J	.	.	.	.	.	.	8A/J	.	.	.	.	.	.	.	.
*	*	*	*	*	*	*v	*v	*	*	*	*	*	*	*	*	*	*	*
=48	=48	=48	=48	=48	=48	=48	=48	=48	=48	=48	=48	=48	=48	=48	=48	=48	=48
2GG/	2ryy	4r	8A-</L	1ryy	.	2G\	nos-	.	(>4c\	.	.	2d/	.	.	4r	.	.
.	.	.	8d</J	.	.	.	.	.	.	.	.	.	.	.	.	.	.
!	!	!	!LO:TX:t=P:problem:mixed beam	!	!	!	!	!	!	!	!	!	!	!	!	!	!
.	.	4dd/	8B-/L	.	.	.	.	.	4B-/)	.	.	.	.	.	4dd^\	nos-	.
.	.	.	8g\J	.	.	.	.	.	.	.	.	.	.	.	.	.	.
4G/	4G\	8cc/L	8g\L	.	.	4G\	-tram	.	4G/	.	.	4g/	.	.	8cc\L	-tram	.
.	.	8b-/	8d\J	.	.	.	.	.	.	.	.	.	.	.	8b-\J	.	.
8An/L	4C#X\	8an/	4en\	.	.	4C#X/	sa-	.	8A/L	.	.	4en/	.	.	8an/L	sa-	.
8B-/J	.	8g/J	.	.	.	.	.	.	8B-/J	.	.	.	.	.	8g/J	.	.
*v	*v	*	*	*	*	*	*	*	*	*	*	*	*	*	*	*	*
=49	=49	=49	=49	=49	=49	=49	=49	=49	=49	=49	=49	=49	=49	=49	=49	=49
2.D\	2b-/	2g\	8rD	.	2D\	-lu-	.	(2.d\	.	.	(2g/	.	.	(>2b-/	-lu-	.
.	.	.	8d\L	.	.	.	.	.	.	.	.	.	.	.	.	.
.	.	.	8B-\	.	.	.	.	.	.	.	.	.	.	.	.	.
.	.	.	8d\J	.	.	.	.	.	.	.	.	.	.	.	.	.
.	2an 2f#X/	8r	2ryy	.	4D\	-tem	.	.	.	.	2f#X/)	.	.	2an/)	.	.
.	.	8d\L	.	.	.	.	.	.	.	.	.	.	.	.	.	.
4r	.	8c\	.	.	4r	.	.	4c\)	.	.	.	.	.	.	.	.
.	.	8d\J	.	.	.	.	.	.	.	.	.	.	.	.	.	.
*	*v	*v	*v	*	*	*	*	*	*	*	*	*	*	*	*	*
=50	=50	=50	=50	=50	=50	=50	=50	=50	=50	=50	=50	=50	=50	=50
*	*	*	*	*	*	*ITrd0c0	*	*	*	*	*	*	*	*
*^	*	*	*	*	*	*	*	*	*	*	*	*	*	*
!!LO:TX:color=red:t=J
4r	1rFF	8gL 8B-/	.	4r	.	.	4b-\	.	.	4g/	.	.	4g/	-tem	.
.	.	8d/	.	.	.	.	.	.	.	.	.	.	.	.	.
!	!	!	!	!	!	!LO:DY:a:color=dodgerblue	!	!	!	!	!	!	!	!	!
4G/	.	8g/	.	4G\	des-	mf	4r	.	.	4r	.	.	4r	.	.
.	.	8b-/J	.	.	.	.	.	.	.	.	.	.	.	.	.
8F/L	.	8dd/L	.	8F\L	-cen-	.	4r	.	.	4r	.	.	4r	.	.
8E-/	.	8g/	.	8E-\J	.	.	.	.	.	.	.	.	.	.	.
!	!	!	!	!	!	!	!	!	!LO:DY:a:color=dodgerblue	!	!	!LO:DY:a:color=dodgerblue	!	!	!LO:DY:a:color=dodgerblue
8D/	.	8b-/	.	8D\	-dit	.	4d/	des-	mf	4d/	des-	mf	4d/	des-	mf
8C/J	.	8d/J	.	8C\	de-	.	.	.	.	.	.	.	.	.	.
=51	=51	=51	=51	=51	=51	=51	=51	=51	=51	=51	=51	=51	=51	=51	=51
*	*^	*^	*	*	*	*	*	*	*	*	*	*	*	*	*
(2.G/	2BB-/	2rFF	4g/	8g\L	.	(2BB-/	-cae-	.	2g/	-cen-	.	2d/	-cen-	.	4g/	-cen-	.
.	.	.	.	8d\	.	.	.	.	.	.	.	.	.	.	.	.	.
.	.	.	8.an/L	8an\	.	.	.	.	.	.	.	.	.	.	8.an/	-dit	.
.	.	.	.	8d\J	.	.	.	.	.	.	.	.	.	.	.	.	.
.	.	.	16b-/Jk	.	.	.	.	.	.	.	.	.	.	.	16b-/	de	.
.	2AAn/	4rDD	4.cc/	8e-\L	.	2AAn/)	.	.	4g/	-dit	.	4e-/	-dit	.	2cc\	cae-	.
.	.	.	.	8c\J	.	.	.	.	.	.	.	.	.	.	.	.	.
4F#X/)	.	4DD\	.	4d\	.	.	.	.	4f#X/	de	.	4d/	de	.	.	.	.
.	.	.	8cc/	.	.	.	.	.	.	.	.	.	.	.	.	.	.
*	*v	*v	*	*	*	*	*	*	*	*	*	*	*	*	*	*	*
!!LO:LB:g=original
=52	=52	=52	=52	=52	=52	=52	=52	=52	=52	=52	=52	=52	=52	=52	=52	=52
4.G/	4.GG\	(4cc/	8an\L	.	4GG/	li	.	4g/	cae-	.	4d/	cae-	.	4cc\	.	.
.	.	.	8d\	.	.	.	.	.	.	.	.	.	.	.	.	.
.	.	8b-/)	8g\	.	8r	.	.	4g/	-li	.	4d/	-li	.	4b-\	-li	.
8B-/	8r	8r	8d\J	.	8B-\	des-	.	.	.	.	.	.	.	.	.	.
8An/L	2r	2r	8.e-\L	.	8An\L	-cen-	.	4r	.	.	4r	.	.	4r	.	.
8G/	.	.	.	.	8G\J	.	.	.	.	.	.	.	.	.	.	.
.	.	.	16f\k	.	.	.	.	.	.	.	.	.	.	.	.	.
8F/	.	.	8g\	.	8F\	-dit	.	4f/	des-	.	4f/	des-	.	4f/	des-	.
8E-/J	.	.	8a\J	.	8E-\	de	.	.	.	.	.	.	.	.	.	.
=53	=53	=53	=53	=53	=53	=53	=53	=53	=53	=53	=53	=53	=53	=53	=53	=53
*	*^	*	*	*	*	*	*	*	*	*	*	*	*	*	*	*
2.B-/	2D/	2rFF	4b-/	8b-\L	.	(2D\	cae-	.	2b-\	-cen-	.	2f/	-cen-	.	4b-\	-cen-	.
.	.	.	.	8f\	.	.	.	.	.	.	.	.	.	.	.	.	.
.	.	.	8.cc/L	8cc\	.	.	.	.	.	.	.	.	.	.	8.cc\	-dit	.
.	.	.	.	8f\J	.	.	.	.	.	.	.	.	.	.	.	.	.
.	.	.	16dd/Jk	.	.	.	.	.	.	.	.	.	.	.	16dd\	de	.
.	2C/	4rFF	4.ee-/	8g\L	.	2C\)	.	.	4b-\	-dit	.	4g/	-dit	.	[2ee-\	coe-	.
.	.	.	.	8e-\J	.	.	.	.	.	.	.	.	.	.	.	.	.
4An/	.	4FF\	.	4f\	.	.	.	.	4an\	de	.	4f/	de	.	.	.	.
.	.	.	8ee-/	.	.	.	.	.	.	.	.	.	.	.	.	.	.
*	*v	*v	*	*	*	*	*	*	*	*	*	*	*	*	*	*	*
=54	=54	=54	=54	=54	=54	=54	=54	=54	=54	=54	=54	=54	=54	=54	=54	=54
1B-	4BB-\	4ee-/	8cc\L	.	4BB-/	-li	.	4b-\	coe-	.	4f/	coe-	.	4ee-\]	.	.
.	.	.	8f\J	.	.	.	.	.	.	.	.	.	.	.	.	.
.	4r	8dd/L	8b-\L	.	4r	.	.	4b-\	-li	.	4f/	-li	.	8dd\	-li,	.
.	.	8ff/J	8f\J	.	.	.	.	.	.	.	.	.	.	8ff\	qui	.
.	2r	8ee-/L	8g\L	.	2r	.	.	2r	.	.	2r	.	.	8ee-\L	pro-	.
.	.	8dd/	8f\	.	.	.	.	.	.	.	.	.	.	8dd\J	.	.
.	.	8cc/	8e-\	.	.	.	.	.	.	.	.	.	.	8cc\	-pter	.
.	.	8b-/J	8d\J	.	.	.	.	.	.	.	.	.	.	8b-/	nos,	.
=55	=55	=55	=55	=55	=55	=55	=55	=55	=55	=55	=55	=55	=55	=55	=55	=55
4.c/	1r	4b-/	8e-\L	.	1r	.	.	1r	.	.	1r	.	.	4b-/	pro-	.
.	.	.	8d\	.	.	.	.	.	.	.	.	.	.	.	.	.
.	.	8an/L	8f\	.	.	.	.	.	.	.	.	.	.	8an/	-pter	.
8An/	.	8cc/J	8e-\J	.	.	.	.	.	.	.	.	.	.	8cc\	nos	.
2F#X/	.	8dd/L	8d\L	.	.	.	.	.	.	.	.	.	.	(8dd\L	ho-	.
.	.	8cc/	8e-\	.	.	.	.	.	.	.	.	.	.	8cc\J	.	.
.	.	8b-/	8d\	.	.	.	.	.	.	.	.	.	.	8b-/)	.	.
.	.	8a/J	8c\J	.	.	.	.	.	.	.	.	.	.	8a/	-mi-	.
*v	*v	*	*	*	*	*	*	*	*	*	*	*	*	*	*	*
=56	=56	=56	=56	=56	=56	=56	=56	=56	=56	=56	=56	=56	=56	=56	=56
2G/	4b-/	8B-\L	.	1r	.	.	1r	.	.	4r	.	.	4b-/	-nes	.
.	.	8d\	.	.	.	.	.	.	.	.	.	.	.	.	.
.	8ryy	8b-\	.	.	.	.	.	.	.	8r	.	.	8r	.	.
.	8g/	8g\J	.	.	.	.	.	.	.	8g/	et	.	8g/	et	.
2C#X/	8f#XL 8B-<X/	2ryy	.	.	.	.	.	.	.	8f#X/L	pro-	.	8f#X/L	pro-	.
.	8fn 8G</	.	.	.	.	.	.	.	.	8fn/J	.	.	8fn/J	.	.
.	8en 8B-</	.	.	.	.	.	.	.	.	8en/L	-pter	.	8en/L	-pter	.
.	8e-XJ 8G</	.	.	.	.	.	.	.	.	8e-X/J	.	.	8e-X/J	.	.
!!LO:PB:g=original
=57	=57	=57	=57	=57	=57	=57	=57	=57	=57	=57	=57	=57	=57	=57	=57
*^	*	*	*	*	*	*	*	*	*	*	*	*	*	*	*
1D	1r	4d	8B-L	.	1r	.	.	1r	.	.	4d/	no-	.	4d/	no-	.
.	.	.	8GJ	.	.	.	.	.	.	.	.	.	.	.	.	.
.	.	8g/L	8B-L	.	.	.	.	.	.	.	8.B-/	-[stram	.	8.g/	-stram	.
.	.	8b-/J	8dJ	.	.	.	.	.	.	.	.	.	.	.	.	.
.	.	.	.	.	.	.	.	.	.	.	16d/	sa-	.	16b-/	sa-	.
.	.	8b-L 8g/	2ryy	.	.	.	.	.	.	.	2d/	-lu-	.	2dd\	-lu-	.
.	.	8d/	.	.	.	.	.	.	.	.	.	.	.	.	.	.
!	!	!LO:SIC:v:s=an	!	!	!	!	!	!	!	!	!	!	!	!	!	!
.	.	8a- 8f#X/	.	.	.	.	.	.	.	.	.	.	.	.	.	.
.	.	8d/J	.	.	.	.	.	.	.	.	.	.	.	.	.	.
*	*	*v	*v	*	*	*	*	*	*	*	*	*	*	*	*	*
=58	=58	=58	=58	=58	=58	=58	=58	=58	=58	=58	=58	=58	=58	=58	=58
!LO:TX:b:t=ped.	!	!	!	!	!	!	!	!	!LO:DY:a	!	!	!	!	!	!
8C/L	8CC\L	2cc 2g 2e-/	.	(2c\	de-	.	(2cc\	des-	p	2e-/	-tem	.	2cc\	-tem	.
8D/	8DD\	.	.	.	.	.	.	.	.	.	.	.	.	.	.
8E-/	8EE-\	.	.	.	.	.	.	.	.	.	.	.	.	.	.
8F/J	8FF\J	.	.	.	.	.	.	.	.	.	.	.	.	.	.
!	!	!	!	!	!	!	!	!	!	!	!	!LO:DY:a	!	!	!LO:DY:a
8G/L	8GG\L	2b- 2g 2d/	.	2B-\)	.	.	2b-\)	.	.	2b-\	des-	p	2b-\	des-	p
8F#X/	8FF#X\	.	.	.	.	.	.	.	.	.	.	.	.	.	.
8G/	8GG\	.	.	.	.	.	.	.	.	.	.	.	.	.	.
8BB-/J	8BB-\J	.	.	.	.	.	.	.	.	.	.	.	.	.	.
=59	=59	=59	=59	=59	=59	=59	=59	=59	=59	=59	=59	=59	=59	=59	=59
*	*	*^	*	*	*	*	*	*	*	*	*	*	*	*	*
!	!	!LO:ACC:n=1:color=dodgerblue	!	!	!	!	!	!	!	!	!	!	!	!	!	!
8C/L	8C\L	2an 2f#X/	4.e-\	.	(2An\	-[scen-	.	(2an/	-cen-	.	2an/	-cen-	.	(2an/	-cen-	.
8BBn/	8BBn\	.	.	.	.	.	.	.	.	.	.	.	.	.	.	.
8C/	8C\	.	.	.	.	.	.	.	.	.	.	.	.	.	.	.
8D/J	8D\J	.	16d\LL	.	.	.	.	.	.	.	.	.	.	.	.	.
.	.	.	16c\JJ	.	.	.	.	.	.	.	.	.	.	.	.	.
8E-/L	8E-\L	2g/	2B-\	.	2G\)	.	.	2g/)	.	.	2g/	.	.	2g/)	.	.
8D/	8D\	.	.	.	.	.	.	.	.	.	.	.	.	.	.	.
8E-/	8E-\	.	.	.	.	.	.	.	.	.	.	.	.	.	.	.
8G/J	8G\J	.	.	.	.	.	.	.	.	.	.	.	.	.	.	.
*	*	*v	*v	*	*	*	*	*	*	*	*	*	*	*	*	*
=60	=60	=60	=60	=60	=60	=60	=60	=60	=60	=60	=60	=60	=60	=60	=60
8B-/L	8B-\	2f 2d/	.	2F\	-dit	.	2f/	-dit	.	2f/	-dit	.	2f/	-dit	.
8F/	8r	.	.	.	.	.	.	.	.	.	.	.	.	.	.
8D/	8r	.	.	.	.	.	.	.	.	.	.	.	.	.	.
8BB-/J	8BB-\	.	.	.	.	.	.	.	.	.	.	.	.	.	.
8C/L	8C\L	2e- 2G/	.	2E-\	de	.	2e-/	de-	.	2e-/	de	.	2e-/	de	.
8BBn/	8BB\	.	.	.	.	.	.	.	.	.	.	.	.	.	.
8C/	8C\	.	.	.	.	.	.	.	.	.	.	.	.	.	.
8C#X/J	8C#\J	.	.	.	.	.	.	.	.	.	.	.	.	.	.
=61	=61	=61	=61	=61	=61	=61	=61	=61	=61	=61	=61	=61	=61	=61	=61
8D/L	8D\L	2d 2B- 2G/	.	1D	coe/-	.	1d	-coe-	.	1d	coe/-	.	1d	coe-	.
8BB-/	8BB-\	.	.	.	.	.	.	.	.	.	.	.	.	.	.
8AAn/	8AAn\	.	.	.	.	.	.	.	.	.	.	.	.	.	.
8GG/J	8GG\J	.	.	.	.	.	.	.	.	.	.	.	.	.	.
4DD/	2ryy	4d 4An< 4G</	.	.	.	.	.	.	.	.	.	.	.	.	.
4D 4DD\	.	4d 4A< 4F#<X/	.	.	.	.	.	.	.	.	.	.	.	.	.
*v	*v	*	*	*	*	*	*	*	*	*	*	*	*	*	*
=62	=62	=62	=62	=62	=62	=62	=62	=62	=62	=62	=62	=62	=62	=62
1D 1BB- 1GG	1B-< 1G<;	.	1GG;	-lis.	.	1d;	-lis	.	1G;	-lis.	.	1B-;	-lis,	.
!!LO:LB:g=original
=63||	=63||	=63||	=63||	=63||	=63||	=63||	=63||	=63||	=63||	=63||	=63||	=63||	=63||	=63||
*k[b-e-]	*k[b-e-]	*	*k[b-e-]	*	*	*k[b-e-]	*	*	*k[b-e-]	*	*	*k[b-e-]	*	*
*M3/4	*M3/4	*	*M3/4	*	*	*M3/4	*	*	*M3/4	*	*	*M3/4	*	*
!	!	!	!	!	!	!	!	!	!LO:TX:a:t=Solo:color=dodgerblue	!	!	!LO:TX:a:t=Larghetto.	!	!
!LO:TX:t=P:problem:kolejność znaków AAn BB- E-	!LO:TX:t=P:problem:kolejność znaków an b- ee-	!	!LO:TX:t=P:problem:kolejność znaków An BB- E-	!	!	!LO:TX:t=P:problem:kolejność znaków an b- ee-	!	!	!LO:TX:t=P:problem:kolejność znaków an b- ee-	!	!	!LO:TX:t=P:problem:kolejność znaków an b- ee-	!	!
2.r	(2d/	pp	2.r	.	.	2.r	.	.	(2d/	et	.	2.r	.	.
.	4f/	.	.	.	.	.	.	.	4f/)	.	.	.	.	.
=64	=64	=64	=64	=64	=64	=64	=64	=64	=64	=64	=64	=64	=64	=64
2.r	2g/	.	2.r	.	.	2.r	.	.	2g/	in-	.	2.r	.	.
.	4b-/	.	.	.	.	.	.	.	4b-/	-car-	.	.	.	.
=65	=65	=65	=65	=65	=65	=65	=65	=65	=65	=65	=65	=65	=65	=65
2.r	4.f/	.	2.r	.	.	2.r	.	.	(4.f/	-na-	.	2.r	.	.
.	8d/L	.	.	.	.	.	.	.	8d/)	.	.	.	.	.
.	8B-/	.	.	.	.	.	.	.	8B-/L	-tus	.	.	.	.
.	8c/J	.	.	.	.	.	.	.	8c/J	.	.	.	.	.
=66	=66	=66	=66	=66	=66	=66	=66	=66	=66	=66	=66	=66	=66	=66
2.r	2.d/)	.	2.r	.	.	2.r	.	.	2d/	est	.	2.r	.	.
.	.	.	.	.	.	.	.	.	4r	.	.	.	.	.
=67	=67	=67	=67	=67	=67	=67	=67	=67	=67	=67	=67	=67	=67	=67
*	*^	*	*	*	*	*	*	*	*	*	*	*	*	*
!	!	!	!	!	!	!	!	!	!	!	!	!	!LO:TX:a:t=Solo:color=dodgerblue	!	!
2.r	((2g/	(2e-\	.	2.r	.	.	2.r	.	.	2.e-/	.	.	(2g/	et	.
.	4b-/)	4g\)	.	.	.	.	.	.	.	.	.	.	4b-/)	.	.
=68	=68	=68	=68	=68	=68	=68	=68	=68	=68	=68	=68	=68	=68	=68	=68
2.r	2cc/	2a-X\	.	2.r	.	.	2.r	.	.	2a-X/	.	.	2cc\	in-	.
.	4ee-/	4g\	.	.	.	.	.	.	.	4g/	.	.	4ee-\	-car-	.
=69	=69	=69	=69	=69	=69	=69	=69	=69	=69	=69	=69	=69	=69	=69	=69
!	!	!	!	!LO:TX:a:t=Solo:color=dodgerblue	!	!	!	!	!	!	!	!	!	!	!
2.r	4.dd/	4f#X\	.	2.r	.	.	2.r	.	.	4f#X/	.	.	(4.dd\	-na-	.
.	.	4g\	.	.	.	.	.	.	.	4g/	.	.	.	.	.
.	8b-/L	.	.	.	.	.	.	.	.	.	.	.	8b-/)	.	.
.	8g/	8B-\L	.	.	.	.	.	.	.	8B-/L	.	.	8g/L	-tus	.
.	8a/J	8c\J	.	.	.	.	.	.	.	8c/J	.	.	8an/J	.	.
*	*	*	*	*clefF4	*	*	*	*	*	*	*	*	*	*	*
=70	=70	=70	=70	=70	=70	=70	=70	=70	=70	=70	=70	=70	=70	=70	=70
*^	*	*	*	*	*	*	*	*	*	*	*	*	*	*	*
!	!	!	!LO:TX:t=P:problem:błędne wyświetlanie łuku	!	!LO:TX:t=P:problem:partia basu zapisana na linii tenoru w t.70-71	!	!	!	!	!	!	!	!	!	!	!
4.G\	2.r	2b-/)	(>8d\L	.	4.G\	in-	.	2.r	.	.	(8d/L	in	.	2b-/	est	.
.	.	.	8e-\J	.	.	.	.	.	.	.	8e-/J	.	.	.	.	.
.	.	.	4d\)	.	.	.	.	.	.	.	4d/)	.	.	.	.	.
8D/L	.	.	.	.	8D\	.	.	.	.	.	.	.	.	.	.	.
8BB-/	.	4r	4d\	.	8BB-/L	-car-	.	.	.	.	4d/	.	.	4r	.	.
8C/J	.	.	.	.	8C/J	.	.	.	.	.	.	.	.	.	.	.
=71	=71	=71	=71	=71	=71	=71	=71	=71	=71	=71	=71	=71	=71	=71	=71	=71
2D\	2.r	4a/	2f\	.	2D\	-na-	.	2.r	.	.	2f/	.	.	4a/	.	.
.	.	4.ff/	.	.	.	.	.	.	.	.	.	.	.	4.ff\	.	.
4F\	.	.	4a\	.	4F\	-tus.	.	.	.	.	4a/	.	.	.	.	.
.	.	8dd/	.	.	.	.	.	.	.	.	.	.	.	8dd\	.	.
*	*	*v	*v	*	*	*	*	*	*	*	*	*	*	*	*	*
!!LO:PB:g=original
=72	=72	=72	=72	=72	=72	=72	=72	=72	=72	=72	=72	=72	=72	=72	=72
2G\	2.r	4dd 4b-\	.	2G\	in-	.	2.r	.	.	(4b-/	ri-	.	(4dd\	ri-	.
.	.	8ccL 8a/	.	.	.	.	.	.	.	8a/L	.	.	8cc\L)	.	.
.	.	8b- 8g/	.	.	.	.	.	.	.	8g/J)	.	.	8b-\J	.	.
4B-\	.	8a 8f/	.	4B-\	-car-	.	.	.	.	8f/L	-a	.	8a/L	-a	.
.	.	8gJ 8en/	.	.	.	.	.	.	.	8en/J	.	.	8g/J	.	.
=73	=73	=73	=73	=73	=73	=73	=73	=73	=73	=73	=73	=73	=73	=73	=73
*	*	*^	*	*	*	*	*	*	*	*	*	*	*	*	*
4.A\	2.rFF	8f/L	2d\	.	4.A\	-na-	.	2.r	.	.	2d/	vir-	.	(8f/L	vir-	.
.	.	8g/J	.	.	.	.	.	.	.	.	.	.	.	8g/J	.	.
.	.	4.f/	.	.	.	.	.	.	.	.	.	.	.	4.f/)	.	.
8F\L	.	.	.	.	8F\	.	.	.	.	.	.	.	.	.	.	.
8D\	.	.	4A\	.	8D\L	-tus	.	.	.	.	4A/	-gi-	.	.	.	.
8En\J	.	8g/	.	.	8En\J	.	.	.	.	.	.	.	.	8g/	-gi-	.
=74	=74	=74	=74	=74	=74	=74	=74	=74	=74	=74	=74	=74	=74	=74	=74	=74
!	!	!	!	!	!	!	!	!LO:TX:a:t=Solo:color=dodgerblue	!	!	!	!	!	!	!	!
4F\	2.rFF	2.a/	4d\	.	4F\	est,	.	2.r	.	.	4d/	-ne	.	2a/	-ne	.
4En\	.	.	8c#X\L	.	4En\	ex	.	.	.	.	8c#X/L	ex	.	.	.	.
.	.	.	8d\	.	.	.	.	.	.	.	8d/J	.	.	.	.	.
4D\	.	.	8en\	.	4D\	Ma-	.	.	.	.	8en/L	Ma-	.	4r	.	.
.	.	.	8f\J	.	.	.	.	.	.	.	8f/J	.	.	.	.	.
=75	=75	=75	=75	=75	=75	=75	=75	=75	=75	=75	=75	=75	=75	=75	=75	=75
*	*^	*	*	*	*	*	*	*	*	*	*	*	*	*	*	*
2A/	2.C\	2.rFF	2.a/	4en\	.	2.C/	-ri-	.	(2a/	et	.	4en/	-ri-	.	2a/	ex	.
.	.	.	.	4g\	.	.	.	.	.	.	.	4g/	-a,	.	.	.	.
4c/	.	.	.	4f\	.	.	.	.	4cc\)	.	.	4f/	Ma-	.	4a/	Ma-	.
=76	=76	=76	=76	=76	=76	=76	=76	=76	=76	=76	=76	=76	=76	=76	=76	=76	=76
2d/	2.BB-\	2.rFF	4b-/	2.f\	.	2.BB-/	-a	.	2dd\	in-	.	2f/	-ri-	.	(4b-\	-ri-	.
.	.	.	4cc/	.	.	.	.	.	.	.	.	.	.	.	4cc\)	.	.
4G/	.	.	4dd/	.	.	.	.	.	4ff\	-car-	.	4G/	-a	.	4dd\	-a	.
=77	=77	=77	=77	=77	=77	=77	=77	=77	=77	=77	=77	=77	=77	=77	=77	=77	=77
2G/	4.C\	2.rFF	2cc/	4.en\	.	4.C/	.	.	(4.een\	-na-	.	2G/	vir-	.	2cc\	vir-	.
.	8D\	.	.	8d\L	.	8D/	.	.	8dd\)	.	.	.	.	.	.	.	.
4ryy	4En\	.	4g/	8c\	.	4En\	.	.	8cc\L	-tus.	.	4c/	-gi-	.	4g/	-gi-	.
.	.	.	.	8B-\J	.	.	.	.	8b-\J	.	.	.	.	.	.	.	.
*	*v	*v	*	*	*	*	*	*	*	*	*	*	*	*	*	*	*
=78	=78	=78	=78	=78	=78	=78	=78	=78	=78	=78	=78	=78	=78	=78	=78	=78
2.F\	2.r	2.a/	4A\	.	2F\	.	.	(4a\	est	.	4c/	-ne	.	2a/	-ne,	.
.	.	.	4c\	.	.	.	.	4cc\)	.	.	4r	.	.	.	.	.
.	.	.	4e-X\	.	4r	.	.	4ee-X\	et	.	4r	.	.	4r	.	.
=79	=79	=79	=79	=79	=79	=79	=79	=79	=79	=79	=79	=79	=79	=79	=79	=79
(2d\	2.r	(2b-/	2f\	.	2.r	.	.	2dd\	cru-	.	2f/	cru-	.	2b-/	cru-	.
4e-\	.	4a/	4g-X\	.	.	.	.	4ee-\	-[ci-	.	4g-X/	-[ci-	.	4a/	-ci-	.
*	*	*v	*v	*	*	*	*	*	*	*	*	*	*	*	*	*
=80	=80	=80	=80	=80	=80	=80	=80	=80	=80	=80	=80	=80	=80	=80	=80
2d\	2.r	2b- 2f/	.	2.r	.	.	2dd\	-fi-	.	2f/	-fi-	.	2b-/	-fi-	.
4e-\	.	4a 4g-X/	.	.	.	.	4ee-\	-xus	.	4g-X/	-xus	.	4a/	-xus	.
=81	=81	=81	=81	=81	=81	=81	=81	=81	=81	=81	=81	=81	=81	=81	=81
4.d\	2.rFF	4.b- 4.f/	.	2.r	.	.	4.dd\	e-	.	4.f/	e-	.	4.b-/	e-	.
8c\L	.	8f#XL 8e-/	.	.	.	.	8cc\	-ti-	.	8e-/	-ti-	.	8f#X/	-ti-	.
8Bn\	.	8g 8d/	.	.	.	.	8bn\	-am	.	8d/	-am	.	8g/	-am	.
8B-X\J	.	8enJ 8d-X/	.	.	.	.	8b-X\	pro]	.	8d-X/	pro]	.	8en/	pro	.
!!LO:LB:g=original
=82	=82	=82	=82	=82	=82	=82	=82	=82	=82	=82	=82	=82	=82	=82	=82
2A\	2.r	2f 2c/)	.	2.r	.	.	2a/	.	.	2c/	no-	.	2f/	no-	.
4B-\)	.	4en 4d-X/	.	.	.	.	4b-/	.	.	4d-X/	-bis	.	8en/	-bis	.
.	.	.	.	.	.	.	.	.	.	.	.	.	8r	.	.
=83	=83	=83	=83	=83	=83	=83	=83	=83	=83	=83	=83	=83	=83	=83	=83
2A\	2.r	(>2f 2c/	.	2A\	.	.	2cc\	.	.	2f/	cru-	.	2.r@	.	.
4B-\	.	4en 4d-X/	.	4B-\	.	.	4dd-X\	.	.	4en/	-ci-	.	.	.	.
=84	=84	=84	=84	=84	=84	=84	=84	=84	=84	=84	=84	=84	=84	=84	=84
*	*	*^	*	*	*	*	*	*	*	*	*	*	*	*	*
2A\	2.r	2f/	2.c\	.	2A\	.	.	2cc\	.	.	2f/	-fi-	.	2.r@	.	.
4A-X\	.	4f#X/	.	.	4A-X\	.	.	4cc\	.	.	4f#X/	-xus	.	.	.	.
*	*	*v	*v	*	*	*	*	*	*	*	*	*	*	*	*	*
=85	=85	=85	=85	=85	=85	=85	=85	=85	=85	=85	=85	=85	=85	=85	=85
4.G\	2.r	4.g 4.Bn</	.	4.G\	.	.	4.bn\	.	.	4.g/	e-	.	2.r@	.	.
8G-X\L	.	8enL 8B-X</	.	8G-X\	.	.	8b-X\	.	.	8en/	-ti-	.	.	.	.
8F\	.	8f 8A</	.	8F\	.	.	8an/	.	.	8f/	-am	.	.	.	.
8BBn\J	.	8dJ 8A-X</	.	8BBn/	.	.	8a-X/	.	.	8d/	pro	.	.	.	.
=86	=86	=86	=86	=86	=86	=86	=86	=86	=86	=86	=86	=86	=86	=86	=86
*	*^	*^	*	*	*	*	*	*	*	*	*	*	*	*	*
2.G/	2C\	2.rFF	2e-X/	2.ryy	.	2C/	.	.	2g/	.	.	2e-X/	no-	.	2.ryy	.	.
.	4D\	.	4d/)	.	.	4D/	.	.	4g/	.	.	4d/	-bis,	.	.	.	.
=87	=87	=87	=87	=87	=87	=87	=87	=87	=87	=87	=87	=87	=87	=87	=87	=87	=87
2.G/	2.E-X\	2.rFF	4r	2.c#X\	.	2.E-^\	.	.	2.g^/	.	.	2.c#X^/	pas-	.	4r	.	.
.	.	.	4b-/	.	.	.	.	.	.	.	.	.	.	.	(4b-^/	pas-	.
.	.	.	8a/L	.	.	.	.	.	.	.	.	.	.	.	8a/L	.	.
.	.	.	8g/J	.	.	.	.	.	.	.	.	.	.	.	8g/J)	.	.
*	*	*	*v	*v	*	*	*	*	*	*	*	*	*	*	*	*	*
=88	=88	=88	=88	=88	=88	=88	=88	=88	=88	=88	=88	=88	=88	=88	=88	=88
4A/	8D\	2.rFF	2f#X 2d/	.	2D\	.	.	2a/	.	.	2d/	-sus,	.	2f#X/	-sus.	.
.	(8AA/L	.	.	.	.	.	.	.	.	.	.	.	.	.	.	.
4ryy	8D/	.	.	.	.	.	.	.	.	.	.	.	.	.	.	.
.	8F#X/	.	.	.	.	.	.	.	.	.	.	.	.	.	.	.
4ryy	8A/	.	4r	.	4r	.	.	4r	.	.	4r	.	.	4r	.	.
.	8d/J)	.	.	.	.	.	.	.	.	.	.	.	.	.	.	.
=89	=89	=89	=89	=89	=89	=89	=89	=89	=89	=89	=89	=89	=89	=89	=89	=89
*	*	*	*^	*	*	*	*	*	*	*	*	*	*	*	*	*
!	!LO:TX:b:color=red:t=Bo X [?]	!	!	!	!	!	!	!	!	!	!	!	!	!	!	!	!
!	!LO:TX:t=P:problem:błędne wyświetlanie łuku	!	!	!	!	!	!	!	!	!	!	!	!	!	!	!	!
(2e-/	(>2C\	2.rFF	4r	2.f#X\	.	(2C^/	.	.	2.a^/	.	.	2.f#X^/	pas-	.	4r	.	.
.	.	.	(<4ee-/	.	.	.	.	.	.	.	.	.	.	.	(4ee-^\	pas-	.
4d/)	4D\)	.	8dd/L	.	.	4D/)	.	.	.	.	.	.	.	.	8dd\L	.	.
.	.	.	8cc/J)	.	.	.	.	.	.	.	.	.	.	.	8cc\J)	.	.
=90	=90	=90	=90	=90	=90	=90	=90	=90	=90	=90	=90	=90	=90	=90	=90	=90	=90
2d/	8GG/L	2.rFF	2cc/	2g\	.	2GG/	.	.	2dd\	.	.	2g/	-sus	.	2cc\	-sus	.
.	8BB-/	.	.	.	.	.	.	.	.	.	.	.	.	.	.	.	.
.	8D/	.	.	.	.	.	.	.	.	.	.	.	.	.	.	.	.
.	8G/	.	.	.	.	.	.	.	.	.	.	.	.	.	.	.	.
4ryy	8B-/	.	8b-/L	4r	.	4D/	.	.	4d/	.	.	4d/	sub	.	8b-\L	sub	.
.	8A/J	.	8a/J	.	.	.	.	.	.	.	.	.	.	.	8a\J	.	.
*	*v	*v	*	*	*	*	*	*	*	*	*	*	*	*	*	*	*
*	*	*v	*v	*	*	*	*	*	*	*	*	*	*	*	*	*
!!LO:PB:g=original
=91	=91	=91	=91	=91	=91	=91	=91	=91	=91	=91	=91	=91	=91	=91	=91
!	!	!	!	!	!	!	!	!	!LO:DY:a	!	!	!LO:DY:a	!	!	!LO:DY:a
2G/	2.r	2g/	.	2G\	[Pon-	<	2g/	[Pon-	<	2g/	[Pon-	<	2g/	Pon-	<
4D/	.	4d/	.	4D\	-ti-	.	4d/	-ti-	.	4d/	-ti-	.	4d/	ti-	.
=92	=92	=92	=92	=92	=92	=92	=92	=92	=92	=92	=92	=92	=92	=92	=92
2B-/	2.r	2b-/	.	2B-\	-o	.	2b-/	-o	.	2b-/	-o	.	2b-/	-o	.
8G/L	.	4g/	.	8G\L	Pi-	.	4g/	Pi-	[[	4g/	Pi-	[[	4g/	Pi-	[[
!LO:TX:b:t=ped.	!	!	!	!	!	!	!	!	!	!	!	!	!	!	!
8D/J	.	.	.	8D\J	.	[	.	.	.	.	.	.	.	.	.
*v	*v	*	*	*	*	*	*	*	*	*	*	*	*	*	*
=93	=93	=93	=93	=93	=93	=93	=93	=93	=93	=93	=93	=93	=93	=93
!LO:TX:color=green:t=CB	!	!	!	!	!	!	!	!LO:DY:a	!	!	!LO:DY:a	!	!	!LO:DY:a
2.A 2.F#X 2.BB-\	2.dd 2.f#X 2.d/	.	2.BB-/	-la-	>]	2.dd\	-la-	>]	2.f#X/	-la-	>]	2.dd\	-la-	>]
=94	=94	=94	=94	=94	=94	=94	=94	=94	=94	=94	=94	=94	=94	=94
*^	*	*	*	*	*	*	*	*	*	*	*	*	*	*
4G/	4E-\	4b- 4g/	.	4E-\	-to	.	4b-\	-to	.	4g/	-to	.	4b-\	-to	.
4r	4ryy	4r	.	4r	.	.	4r	.	.	4r	.	.	4r	.	.
!	!	!	!	!	!	!LO:DY:a	!	!	!LO:DY:a	!	!	!LO:DY:a	!	!	!LO:DY:a
4r	4ryy	4r	.	4r	.	pp	4r	.	pp	4r	.	pp	4r	.	pp
=95	=95	=95	=95	=95	=95	=95	=95	=95	=95	=95	=95	=95	=95	=95	=95
*	*	*^	*	*	*	*	*	*	*	*	*	*	*	*	*
[2G\	2ryy	2.g/	(>2G</	.	2G\	et	.	2g/	et	.	2g/	et	.	2g/	et	.
4G/_	4D\	.	4B-</	.	4D\	se-	.	4b-\	se-	.	4g/	se-	.	4g/	se-	.
=96	=96	=96	=96	=96	=96	=96	=96	=96	=96	=96	=96	=96	=96	=96	=96	=96
2.G/_	2E-\	2g/	2c</	.	2E-\	-pul-	.	2cc\	-pul-	.	2g/	-pul-	.	2g/	-pul-	.
.	4C\	4ryy	4e-\)	.	4C/	-tus	.	4ee-\	-tus	.	4g/	-tus	.	4g/	-tus	.
=97	=97	=97	=97	=97	=97	=97	=97	=97	=97	=97	=97	=97	=97	=97	=97	=97
2.G/]	2.GG\	2.b- 2.g;/	2.d\	.	2.GG;/	est,	.	2.dd;\	est,	.	2.g;\	est,	.	2.b-;\	est,	.
*v	*v	*	*	*	*	*	*	*	*	*	*	*	*	*	*	*
*	*v	*v	*	*	*	*	*	*	*	*	*	*	*	*	*
=98||	=98||	=98||	=98||	=98||	=98||	=98||	=98||	=98||	=98||	=98||	=98||	=98||	=98||	=98||
*k[b-e-a-]	*k[b-e-a-]	*	*k[b-e-a-]	*	*	*k[b-e-a-]	*	*	*k[b-e-a-]	*	*	*k[b-e-a-]	*	*
*M4/4	*M4/4	*	*M4/4	*	*	*M4/4	*	*	*M4/4	*	*	*M4/4	*	*
*met(c)	*met(c)	*	*met(c)	*	*	*met(c)	*	*	*met(c)	*	*	*met(c)	*	*
*^	*^	*	*	*	*	*	*	*	*	*	*	*	*	*
!	!	!	!	!	!	!	!	!	!	!	!	!	!	!LO:TX:a:t=Allegro.	!	!
!	!	!	!	!	!LO:TX:a:t=tutti:color=dodgerblue	!	!	!LO:TX:a:t=tutti:color=dodgerblue	!	!	!LO:TX:a:t=tutti:color=dodgerblue	!	!	!LO:TX:a:t=tutti:color=dodgerblue	!	!
!	!	!	!	!	!	!	!LO:DY:b:color=dodgerblue	!	!	!LO:DY:b:color=dodgerblue	!	!	!LO:DY:b:color=dodgerblue	!	!	!LO:DY:b:color=dodgerblue
4B-/	1r	2dd 2b- 2f/	2ryy	.	4B-\	et	f	4ff\	et	f	4b-\	et	f	4dd\	et	f
4A-X/	.	.	.	.	8.A-\	re-	.	8.ff\	re-	.	8.b-\	re-	.	8.dd\	re-	.
.	.	.	.	.	16A-\	-su-	.	16ff\	-su-	.	16b-\	-su-	.	16dd\	-su-	.
4G/	.	4ee- 4b-/	2e-\	.	4G\	-re-	.	4ee-\	-re-	.	4b-\	-re-	.	4ee-\	-re-	.
4A-/	.	4cc 4a-/	.	.	4A-\	-xit]	.	4ee-\	-xit]	.	4a-/	-xit]	.	4cc\	-xit	.
*	*	*v	*v	*	*	*	*	*	*	*	*	*	*	*	*	*
!!LO:LB:g=original
=99	=99	=99	=99	=99	=99	=99	=99	=99	=99	=99	=99	=99	=99	=99	=99
4B-/	1r	4b- 4f 4d/	.	4B-\	.	.	4dd\	.	.	4f/	.	.	4b-\	ter-	.
4E-/	.	8.gL 8.e-/	.	8.E-\	.	.	8.ee-\	.	.	8.e-/	.	.	8.g/	-ti-	.
.	.	16e-/Jk	.	16E-\	.	.	16ee-\	.	.	16e-/	.	.	16e-/	-a	.
4A-/	.	4cc 4a- 4e-/	.	4A-\	.	.	4ee-\	.	.	4a-/	.	.	4cc\	di-	.
4B-/	.	4b- 4f 4d/	.	16B-\	.	.	16dd\	.	.	16f/	.	.	16b-\	-e	.
.	.	.	.	16r	.	.	16r	.	.	16r	.	.	16r	.	.
.	.	.	.	8B-\	.	.	8b-\	.	.	8b-/	.	.	8b-\	se-	.
=100	=100	=100	=100	=100	=100	=100	=100	=100	=100	=100	=100	=100	=100	=100	=100
*	*^	*	*	*	*	*	*	*	*	*	*	*	*	*	*
!	!LO:TX:b:t=ped	!	!	!	!	!	!	!	!	!	!	!	!	!	!	!
2e- 2B- 2G/	2E-\	2rFFFyy	2gg 2ee- 2b- 2g\	.	2e-^\	.	.	2gg^\	.	.	2b-^/	.	.	2gg^\	-cun-	.
4e- 4B-/	4G\	4GG\	4ee- 4b-\	.	4G\	.	.	4ee-\	.	.	4b-/	.	.	4ee-\	-dum	.
4e- 4A-/	4AA-\	4rDDDyy	4cc 4a-/	.	4A-\	.	.	4ee-\	.	.	4a-/	.	.	4cc\	scrip-	.
*	*v	*v	*	*	*	*	*	*	*	*	*	*	*	*	*	*
=101	=101	=101	=101	=101	=101	=101	=101	=101	=101	=101	=101	=101	=101	=101	=101
*	*	*^	*	*	*	*	*	*	*	*	*	*	*	*	*
2e-/	1B- 1BB-	1b-	2g\	.	1B-	.	.	(2ee-\	.	.	(2g/	.	.	1b-	-tu-	.
2d/	.	.	2f\	.	.	.	.	2dd\)	.	.	2f/)	.	.	.	.	.
*	*	*v	*v	*	*	*	*	*	*	*	*	*	*	*	*	*
=102	=102	=102	=102	=102	=102	=102	=102	=102	=102	=102	=102	=102	=102	=102	=102
4E-/	4E-\	4e-/	.	4E-\	ras	.	4ee-\	.	.	4e-/	.	.	4e-/	-ras	.
4E-/	4E-\	8g/L	.	(4E-\	et	.	4r	.	.	4r	.	.	4r	.	.
.	.	8a-/J	.	.	.	.	.	.	.	.	.	.	.	.	.
4D/	4D\	4b-/	.	4D\)	.	.	2r	.	.	2r	.	.	2r	.	.
4C/	4C\	8cc/L	.	4C\	as-	.	.	.	.	.	.	.	.	.	.
.	.	8dd/J	.	.	.	.	.	.	.	.	.	.	.	.	.
=103	=103	=103	=103	=103	=103	=103	=103	=103	=103	=103	=103	=103	=103	=103	=103
4BBn/	4BBn\	8dd/L	.	(4BBn/	-cen-	.	1ryy	.	.	1r	.	.	1r	.	.
.	.	8ff/J	.	.	.	.	.	.	.	.	.	.	.	.	.
4C/	4C\	2ee-/	.	4C/)	.	.	.	.	.	.	.	.	.	.	.
4GG/	4GG\	.	.	4GG/	-dit	.	.	.	.	.	.	.	.	.	.
4AA-/	4AA-\	8dd/L	.	4AA-/	de-	.	.	.	.	.	.	.	.	.	.
.	.	8cc\J	.	.	.	.	.	.	.	.	.	.	.	.	.
=104	=104	=104	=104	=104	=104	=104	=104	=104	=104	=104	=104	=104	=104	=104	=104
*	*	*^	*	*	*	*	*	*	*	*	*	*	*	*	*
4BB-/	4BB-\	4.b-/	4r	.	4BB-/	-coe-	.	1r	.	.	4r	.	.	1r	.	.
4E-/	4E-\	.	4g\	.	4E-\	-lum,	.	.	.	.	(4g/	se-	.	.	.	.
.	.	8cc/	.	.	.	.	.	.	.	.	.	.	.	.	.	.
4F/	4F\	4dd/	4f\	.	4F\	se-	.	.	.	.	4f/)	det	.	.	.	.
8G\L	4ryy	8ee-/L	4e-\	.	8G\L	det	.	.	.	.	4e-/	ad-	.	.	.	.
8A-\J	.	8ff/J	.	.	8A-\J	.	.	.	.	.	.	.	.	.	.	.
*	*	*v	*v	*	*	*	*	*	*	*	*	*	*	*	*	*
=105	=105	=105	=105	=105	=105	=105	=105	=105	=105	=105	=105	=105	=105	=105	=105
!	!	!	!	!	!	!	!	!	!	!LO:TX:t=P:problem:t.105 zapisany na pięciolinii sopranu	!	!	!	!	!
4d/	4B-\	8gg/L	.	(4B-\	ad	.	1r	.	.	4d/	-dex-	.	1r	.	.
.	.	8b-/J	.	.	.	.	.	.	.	.	.	.	.	.	.
4ryy	4e-\ 4G\	2gg/	.	4G\)	.	.	.	.	.	8e-/	-te-	.	.	.	.
.	.	.	.	.	.	.	.	.	.	8e-/	-ram	.	.	.	.
4c/	4A-\	.	.	4A-\	dex-	.	.	.	.	(4c/	pa	.	.	.	.
4f/	4An\	8ff/L	.	8An\	-te-	.	.	.	.	4f/)	.	.	.	.	.
.	.	8ee-/J	.	8A\	-ram	.	.	.	.	.	.	.	.	.	.
!!LO:PB:g=original
=106	=106	=106	=106	=106	=106	=106	=106	=106	=106	=106	=106	=106	=106	=106	=106
*	*	*^	*	*	*	*	*	*	*	*	*	*	*	*	*
4B-/	4B-\	4ryy	2ryy	.	4B-\	pa-	.	1r	.	.	4d/	.	.	4r	.	.
4BB-/	4BB-\	8b-L 8d/	.	.	4BB-/	-tris,	.	.	.	.	8d/L	.	.	4b-/	et	.
.	.	8ccJ 8e-/	.	.	.	.	.	.	.	.	8e-/J	.	.	.	.	.
4F/	4F\	4dd 4a-X 4f/	4ryy	.	4F\	i-	.	.	.	.	4f/	.	.	4a-X/	i-	.
4e-/	8G\L	8ee-/L	4g\	.	8G\L	-te-	.	.	.	.	4e-/	.	.	4g/	-te-	.
.	8A-X\J	8ff/J	.	.	8A-X\J	.	.	.	.	.	.	.	.	.	.	.
*	*	*v	*v	*	*	*	*	*	*	*	*	*	*	*	*	*
=107	=107	=107	=107	=107	=107	=107	=107	=107	=107	=107	=107	=107	=107	=107	=107
*^	*	*	*	*	*	*	*	*	*	*	*	*	*	*	*
(4d/	4ryy	4B-\	4ff/	.	4B-\	-[rum	.	4r	.	.	4d/	.	.	4f/	-rum	.
8f>\L)	4c/	4A-\	2ccc 2cc/	.	4A-\	ven-	.	4cc\	ven-	.	4r	.	.	4cc\	ven-	.
8e->\J	.	.	.	.	.	.	.	.	.	.	.	.	.	.	.	.
(4d/	4ryy	(4B-\	.	.	4B-\	-tu-	.	4dd\	-[tu-	.	2r	.	.	4b-\	-tu-	.
8e->L) 8c>\)	4ryy	4BB-\	8bb-L 8b-/	.	8c\L	-rus	.	8ee-\L	-rus	.	.	.	.	4a-/	-rus	.
8f>J 8d>\	.	.	8aa-J 8a-/	.	8d\J	.	.	8ff\J	.	.	.	.	.	.	.	.
*v	*v	*	*	*	*	*	*	*	*	*	*	*	*	*	*	*
=108	=108	=108	=108	=108	=108	=108	=108	=108	=108	=108	=108	=108	=108	=108	=108
4e->\	4E-\	4gg 4g/	.	4e-\	est	.	4ee-\	est	.	4r	.	.	4g/	est	.
4e- 4B- 4G/	4E-\	4gg 4ee- 4b- 4g\	.	4E-\	ven-	.	4ee-\	ven-	.	4b-/	ven-	.	4gg\	ven-	.
4d 4B- 4F/	4D\	4ff 4b- 4f\	.	4D\	-tu-	.	4ff\	-tu-	.	4b-/	-[tu-	.	4ff\	-tu-	.
4B- 4G/	4E-\	4ee- 4b- 4g\	.	4E-\	-rus	.	4b-/	-rus	.	4g/	-rus	.	4ee-\	-rus	.
=109	=109	=109	=109	=109	=109	=109	=109	=109	=109	=109	=109	=109	=109	=109	=109
*	*	*^	*	*	*	*	*	*	*	*	*	*	*	*	*
2B-/	4F\	[2dd/	4f\	.	4F\	est	.	4b-/	est	.	4f/	est	.	4.dd\	est	.
.	4G\	.	4en\	.	4B-\	cum	.	4g/	cum	.	4en/	cum	.	.	.	.
.	.	.	.	.	.	.	.	.	.	.	.	.	.	8dd\	cum	.
2An/	4F\	4.dd/]	4.f\	.	4.F\	glo-	.	4.an/	glo-	.	4.f/	glo-	.	4.dd\	glo-	.
.	4FF\	.	.	.	.	.	.	.	.	.	.	.	.	.	.	.
.	.	8cc/	8e-X\	.	8F\	-ri]-	.	8a/	-ri]-	.	8e-X/	-ri]-	.	8cc\	-ri-	.
=110	=110	=110	=110	=110	=110	=110	=110	=110	=110	=110	=110	=110	=110	=110	=110	=110
4B-/	4BB-\	4b-/	4d\	.	8BB-/	-a	.	8b-/	-a	.	8d/	-a	.	8b-\	-a	.
.	.	.	.	.	8ryy	.	.	8r	.	.	8r	.	.	8r	.	.
4d 4B-/	4r	16cc/LL	4ryy	.	4B-\	.	.	4dd^\	et	.	4r	.	.	4b-\	et	.
.	.	16b-/	.	.	.	.	.	.	.	.	.	.	.	.	.	.
.	.	16an/	.	.	.	.	.	.	.	.	.	.	.	.	.	.
.	.	16b-/JJ	.	.	.	.	.	.	.	.	.	.	.	.	.	.
4c 4An/	2r	4cc/	2ryy	.	4An\	.	.	4cc\	i-	.	2r	.	.	4cc\	i-	.
4B- 4G/	.	4dd/	.	.	4G\	.	.	4b-\	-te-	.	.	.	.	4dd\	-te-	.
=111	=111	=111	=111	=111	=111	=111	=111	=111	=111	=111	=111	=111	=111	=111	=111	=111
*	*^	*	*	*	*	*	*	*	*	*	*	*	*	*	*	*
8An/L	(4F#X\	1rFF	4r	4ryy	.	4F#X\	.	.	4an/	-rum	.	1r	.	.	2.dd^\	-rum	.
8c/J	.	.	.	.	.	.	.	.	.	.	.	.	.	.	.	.	.
4B-/	4G\)	.	2dd/	(4d\	.	4G\	.	.	4b-/	ven-	.	.	.	.	.	.	.
4F# 4D/	2ryy	.	.	4f\)	.	4D\	.	.	4f/	-tu-	.	.	.	.	.	.	.
4G 4E-/	.	.	8cc/L	4c\	.	4E-\	.	.	4g/	-rus	.	.	.	.	8b-\L	ven-	.
.	.	.	8b-/J	.	.	.	.	.	.	.	.	.	.	.	8a-\J	.	.
*	*v	*v	*	*	*	*	*	*	*	*	*	*	*	*	*	*	*
!!LO:LB:g=original
=112	=112	=112	=112	=112	=112	=112	=112	=112	=112	=112	=112	=112	=112	=112	=112	=112
(4An (4F/	1r	4an/	4c\	.	8F\	.	.	8an/	est	.	1r	.	.	8an/	-tu-	.
.	.	.	.	.	8r	.	.	8r	.	.	.	.	.	8r	.	.
4f> 4d>/))	.	16ee-/LL	4ryy	.	4d^\	.	.	4ff^\	ven-	.	.	.	.	4dd\	-rus	.
.	.	16dd/	.	.	.	.	.	.	.	.	.	.	.	.	.	.
.	.	16cc/	.	.	.	.	.	.	.	.	.	.	.	.	.	.
.	.	16dd/JJ	.	.	.	.	.	.	.	.	.	.	.	.	.	.
4e-> 4c>/	.	4ee-\	2ryy	.	4c\	.	.	4ee-\	-tu-	.	.	.	.	4ee-\	est	.
4d\ 4B-\	.	4ff\	.	.	4B-\	.	.	4dd\	-rus	.	.	.	.	4ff\	cum	.
=113	=113	=113	=113	=113	=113	=113	=113	=113	=113	=113	=113	=113	=113	=113	=113	=113
4c 4An\	1rFF	4rgg	4rg	.	4An\	.	.	4cc\	est	.	1r	.	.	2.ff^\	glo-	.
8dL 8B-\	.	2ff/	2f\	.	8B-\L	.	.	8dd\L	cum	.	.	.	.	.	.	.
8cJ 8A\	.	.	.	.	8A\J	.	.	8cc\J	.	.	.	.	.	.	.	.
4B- 4G\	.	.	.	.	4G\	.	.	4b-\	glo-	.	.	.	.	.	.	.
4c\	.	8ee-/L	4e-\	.	4c\	.	.	4ee-\	-ri-	.	.	.	.	8ee-\L	ri-	.
.	.	8dd/J	.	.	.	.	.	.	.	.	.	.	.	8dd\J	.	.
*	*	*v	*v	*	*	*	*	*	*	*	*	*	*	*	*	*
=114	=114	=114	=114	=114	=114	=114	=114	=114	=114	=114	=114	=114	=114	=114	=114
4An\	1r	4cc\	.	4An\	.	.	8ff\	-a,	.	1r	.	.	4cc\	-a	.
.	.	.	.	.	.	.	8r	.	.	.	.	.	.	.	.
4f>\	.	8f/L	.	4r	.	.	4ff^\	ven-	.	.	.	.	4r	.	.
.	.	8g/J	.	.	.	.	.	.	.	.	.	.	.	.	.
4e->\	.	8an/L	.	2r	.	.	4ee-\	-tu-	.	.	.	.	2r	.	.
.	.	8b-/	.	.	.	.	.	.	.	.	.	.	.	.	.
4d>\	.	8cc/	.	.	.	.	4dd\	-rus	.	.	.	.	.	.	.
.	.	8dd/J	.	.	.	.	.	.	.	.	.	.	.	.	.
=115	=115	=115	=115	=115	=115	=115	=115	=115	=115	=115	=115	=115	=115	=115	=115
4c>\	1r	8ee-/L	.	1r	.	.	4cc\	est	.	4r	.	.	1r	.	.
.	.	8ff/J	.	.	.	.	.	.	.	.	.	.	.	.	.
(4g> 4B->\	.	2gg/	.	.	.	.	4b-\	cum	.	4g^/	cum	.	.	.	.
4c> 4A->\)	.	.	.	.	.	.	4an/	glo-	.	4f/	glo-	.	.	.	.
[4f> 4F\	.	8ff/L	.	.	.	.	4cc/	-ri-	.	4e-/	-ri-	.	.	.	.
.	.	8ee-/J	.	.	.	.	.	.	.	.	.	.	.	.	.
=116	=116	=116	=116	=116	=116	=116	=116	=116	=116	=116	=116	=116	=116	=116	=116
*	*	*^	*	*	*	*	*	*	*	*	*	*	*	*	*
4f>] 4B-\	1r	4dd/	4ryy	.	4r	.	.	4b-/	-a	.	4d/	-a	.	4r	.	.
4d 4B-/	.	16cc/LL	2f\	.	4B-\	ven-	.	4dd\	ven-	.	4f/	ven-	.	4b-\	ven-	.
.	.	16b-/	.	.	.	.	.	.	.	.	.	.	.	.	.	.
.	.	16an/	.	.	.	.	.	.	.	.	.	.	.	.	.	.
.	.	16b-/JJ	.	.	.	.	.	.	.	.	.	.	.	.	.	.
4c 4An/	.	4cc/	.	.	4An\	-[tu-	.	4cc\	-[tu-	.	4f/	-[tu-	.	4cc\	-tu-	.
4B- 4A-X/	.	4dd/	4f\	.	4A-X\	-rus	.	4b-\	-rus	.	4f/	-rus	.	4dd\	-rus	.
=117	=117	=117	=117	=117	=117	=117	=117	=117	=117	=117	=117	=117	=117	=117	=117	=117
*	*^	*	*	*	*	*	*	*	*	*	*	*	*	*	*	*
4B- 4G/	2ryy	1rFF	4ee-/	4e-\	.	4G\	est	.	4b-\	est	.	4.e-/	est	.	4.ee-\	est	.
8cL 8A-/	.	.	8ccL 8e-/	4ryy	.	4A-\	cum	.	4cc\	cum	.	.	.	.	.	.	.
8cJ 8A-/	.	.	8ccJ 8e-/	.	.	.	.	.	.	.	.	8e-/	cum	.	8cc\	cum	.
4B-/	4G\	.	4.ee- [>4.b- 4.e-/	2ryy	.	4G\	glo-	.	4.b-\	glo-	.	4.b-/	glo-	.	4.ee-\	glo-	.
8ryy	4F\	.	.	.	.	4F\	-ri-	.	.	.	.	.	.	.	.	.	.
8d/	.	.	8ff 8b-] 8a-/	.	.	.	.	.	8dd\	-ri-	.	8a-/	-ri-	.	8ff\	-ri-	.
*	*v	*v	*	*	*	*	*	*	*	*	*	*	*	*	*	*	*
*	*	*v	*v	*	*	*	*	*	*	*	*	*	*	*	*	*
!!LO:PB:g=original
=118	=118	=118	=118	=118	=118	=118	=118	=118	=118	=118	=118	=118	=118	=118	=118
!!LO:TX:color=red:t=O
8e- 8E-	4r	8gg 8b- 8g/	.	8E-\	-a	.	8ee-\	-a	.	8g/	-a	.	8gg\	-a	.
8ryy	.	8r	ff	8r	.	.	8r	.	.	8r	.	.	8r	.	.
8.e-L 8.E-/	2E-\	8.ee-L 8.b- 8.g/	.	8.E-\	.	.	8.b-\	.	.	8.g/	.	.	8.ee-\	ju-	.
16e-Jk 16E-/	.	16ee-Jk 16b- 16g/	.	16E-\	.	.	16b-\	.	.	16g/	.	.	16ee-\	-di-	.
4e- 4E-/	.	4ee- 4b- 4g/	.	4E-\	.	.	4b-\	.	.	4g/	.	.	4ee-\	-ca-	.
4e- 4E-/	4ryy	4ee- 4b- 4g/	.	4E-\	.	.	4ee-\	.	.	4g/	.	.	4ee-\	-re	.
=119	=119	=119	=119	=119	=119	=119	=119	=119	=119	=119	=119	=119	=119	=119	=119
*	*	*^	*	*	*	*	*	*	*	*	*	*	*	*	*
2d-X/	2D-X\	2ff/	8a-\L	.	1d-X	.	.	(2ff\	.	.	(2a-/	.	.	(2ff\	vi-	.
.	.	.	8f\	.	.	.	.	.	.	.	.	.	.	.	.	.
.	.	.	8a-\	.	.	.	.	.	.	.	.	.	.	.	.	.
.	.	.	8dd\J	.	.	.	.	.	.	.	.	.	.	.	.	.
2e- 2B-/	2BB-\	2gg/	8ee-L 8g\	.	.	.	.	2ee-\)	.	.	2b-/)	.	.	2gg\)	.	.
.	.	.	8b-\	.	.	.	.	.	.	.	.	.	.	.	.	.
.	.	.	8ee-\	.	.	.	.	.	.	.	.	.	.	.	.	.
.	.	.	8b-\J	.	.	.	.	.	.	.	.	.	.	.	.	.
*	*	*v	*v	*	*	*	*	*	*	*	*	*	*	*	*	*
=120	=120	=120	=120	=120	=120	=120	=120	=120	=120	=120	=120	=120	=120	=120	=120
8e- 8c 8A-/	8AA-\	8aa- 8ee- 8a-\	.	8c\	.	.	8ee-\	.	.	8a-/	.	.	8aa-\	-vos,	.
8r	8r	8r	.	8r	.	.	8r	.	.	8r	.	.	8r	.	.
8.A-/	4r	8.a-L 8.e- 8.c/	.	8.A-\	.	.	8cc\	.	.	8.e-/	.	.	8.a-/	ju-	.
.	.	.	.	.	.	.	16ryy	.	.	.	.	.	.	.	.
16A-/	.	16a-Jk 16e- 16c/	.	16A-\	.	.	16cc\	.	.	16e-/	.	.	16a-/	-di-	.
4A-/	2r	4a- 4e- 4c/	.	4A-\	.	.	4cc\	.	.	4e-/	.	.	4a-/	-ca-	.
4A-/	.	4a- 4e- 4c/	.	4A-\	.	.	4cc\	.	.	4e-/	.	.	4a-/	-re	.
=121	=121	=121	=121	=121	=121	=121	=121	=121	=121	=121	=121	=121	=121	=121	=121
*	*	*^	*	*	*	*	*	*	*	*	*	*	*	*	*
2B- 2G-X/	1r	2b-/	8g-X\L	.	2G-X\	.	.	2dd-X^\	.	.	2g-X^>/	.	.	2b-^\	mor-	.
.	.	.	8d\	.	.	.	.	.	.	.	.	.	.	.	.	.
.	.	.	8g-\	.	.	.	.	.	.	.	.	.	.	.	.	.
.	.	.	8b-\J	.	.	.	.	.	.	.	.	.	.	.	.	.
!	!	!	!LO:SIC:v:s=8a-\L	!	!	!	!	!	!	!	!	!	!	!	!	!
2A- 2E-/	.	2cc/	8g-\L	.	2E-\	.	.	2a-/	.	.	2g-^>/	.	.	2cc^\	-tu-	.
.	.	.	8e-\	.	.	.	.	.	.	.	.	.	.	.	.	.
.	.	.	8a-\	.	.	.	.	.	.	.	.	.	.	.	.	.
.	.	.	8g-\J	.	.	.	.	.	.	.	.	.	.	.	.	.
*	*	*v	*v	*	*	*	*	*	*	*	*	*	*	*	*	*
=122	=122	=122	=122	=122	=122	=122	=122	=122	=122	=122	=122	=122	=122	=122	=122
8A- 8D-X/	4r	8dd-X 8f/	.	8D-X\	.	.	8a-\	.	.	8f/	.	.	8dd-X\	-os,	.
8r	.	8r	.	8r	.	.	8r	.	.	8r	.	.	8r	.	.
8.d-XL 8.A- 8.F 8.D-/	2D-\	8.dd-L 8.a- 8.f/	.	8.d-X\	.	.	8.ff\	.	.	8.a-/	.	.	8.dd-\	ju-	.
16d-Jk 16A- 16F 16D-/	.	16dd-Jk 16a- 16f/	.	16d-\	.	.	16ff\	.	.	16a-/	.	.	16dd-\	-di-	.
4d- 4A- 4F 4D-/	.	4dd- 4a- 4f/	.	4d-\	.	.	4ff\	.	.	4a-/	.	.	4dd-\	-ca-	.
4d- 4A- 4F/	4D-\	4dd- 4a- 4f/	.	4d-\	.	.	4ff\	.	.	4a-/	.	.	4dd-\	-re	.
=123	=123	=123	=123	=123	=123	=123	=123	=123	=123	=123	=123	=123	=123	=123	=123
*	*	*^	*	*	*	*	*	*	*	*	*	*	*	*	*
*	*	*	*^	*	*	*	*	*	*	*	*	*	*	*	*	*
2c-X 2A-/	2C-X\	2ee-/	8e-\L	2e-\	.	(2c-X\	.	.	(2ee-\	.	.	1a-	vi-	.	(2ee-\	vi-	.
.	.	.	8a-\	.	.	.	.	.	.	.	.	.	.	.	.	.	.
.	.	.	8cc-X\	.	.	.	.	.	.	.	.	.	.	.	.	.	.
.	.	.	8b-\J	.	.	.	.	.	.	.	.	.	.	.	.	.	.
2d-X 2A-/	2AA-\	2ff/	8cc-X\L	2f\	.	2A-\)	.	.	2dd-X\)	.	.	.	.	.	2ff\)	.	.
.	.	.	8a-\	.	.	.	.	.	.	.	.	.	.	.	.	.	.
.	.	.	8dd\	.	.	.	.	.	.	.	.	.	.	.	.	.	.
.	.	.	8cc-\J	.	.	.	.	.	.	.	.	.	.	.	.	.	.
*	*	*v	*v	*v	*	*	*	*	*	*	*	*	*	*	*	*	*
!!LO:LB:g=original
=124	=124	=124	=124	=124	=124	=124	=124	=124	=124	=124	=124	=124	=124	=124	=124
8d-X 8G-X/	8GG-X\	8gg-X 8b- 8g-X/	.	8G-X\	.	.	8b-/	.	.	8g-X/	-vos,	.	8gg-X\	-vos,	.
8r	8r	8r	.	8r	.	.	8r	.	.	8r	.	.	8r	.	.
8G-X/L	8G-X\L	8g-L 8d 8B-/	.	8G-\	.	.	8b-/	.	.	8B-/	[ju-	.	8g-X/	ju-	.
8F/J	8F\J	8g-J 8d 8B-/	.	8F\	.	.	8b-/	.	.	8B-/	-di-	.	8g-/	-di-	.
4E-/	4E-\	4g- 4e- 4B-/	.	4E-\	.	.	4b-/	.	.	4B-/	-ca-	.	4g-/	-ca-	.
4D-X/	4D-\	4g- 4e-/	.	4D-X\	.	.	4b-/	.	.	4g-/	-re	.	4g-/	-re	.
=125	=125	=125	=125	=125	=125	=125	=125	=125	=125	=125	=125	=125	=125	=125	=125
*	*^	*^	*	*	*	*	*	*	*	*	*	*	*	*	*
1A-	4C\	4C/	2ee-/	8g-X\L	.	(4C/	.	.	2a-/	.	.	2g-X/	mor-	.	2ee-\	mor-	.
.	.	.	.	8e-\	.	.	.	.	.	.	.	.	.	.	.	.	.
.	4AA-/	4AA-\	.	8a-\	.	4AA-/)	.	.	.	.	.	.	.	.	.	.	.
.	.	.	.	8g-\J	.	.	.	.	.	.	.	.	.	.	.	.	.
.	4D-X/	4D-X\	2dd-X/	8f\L	.	(4D-X/	.	.	2a-/	.	.	2f/	-tu-	.	2dd-X\	-tu-	.
.	.	.	.	8a-\	.	.	.	.	.	.	.	.	.	.	.	.	.
.	4F/	4F\	.	8d-X\	.	4F/)	.	.	.	.	.	.	.	.	.	.	.
.	.	.	.	8f\J	.	.	.	.	.	.	.	.	.	.	.	.	.
*	*v	*v	*	*	*	*	*	*	*	*	*	*	*	*	*	*	*
*	*	*v	*v	*	*	*	*	*	*	*	*	*	*	*	*	*
=126	=126	=126	=126	=126	=126	=126	=126	=126	=126	=126	=126	=126	=126	=126	=126
4A-/	4A-\	8ccL 8e-/	.	4A-\	.	.	4a-/	.	.	4e-/	-or	.	4cc\	-or	.
.	.	8a-/	.	.	.	.	.	.	.	.	.	.	.	.	.
4ryy	4r	8e-/	.	4r	.	.	4r	.	.	4r	.	.	4r	.	.
.	.	8d-X/J	.	.	.	.	.	.	.	.	.	.	.	.	.
!	!	!	!	!	!	!LO:DY:a	!	!	!LO:DY:a	!	!	!LO:DY:a	!	!	!LO:DY:a
8c/L	2r	2ryy	.	2r	.	f	2r	.	f	2r	.	f	2r	.	f
8A-/	.	.	.	.	.	.	.	.	.	.	.	.	.	.	.
8E-/	.	.	.	.	.	.	.	.	.	.	.	.	.	.	.
8C/J	.	.	.	.	.	.	.	.	.	.	.	.	.	.	.
=127	=127	=127	=127	=127	=127	=127	=127	=127	=127	=127	=127	=127	=127	=127	=127
4AA-/	1AA-	8a- 8e- 8c/	.	2.AA-/	.	.	2.e-/	.	.	2.c/	cu-	.	2.a-/	cu-	.
.	.	4a- 4e- 4c/	.	.	.	.	.	.	.	.	.	.	.	.	.
4C/	.	.	.	.	.	.	.	.	.	.	.	.	.	.	.
.	.	4a- 4e- 4c/	.	.	.	.	.	.	.	.	.	.	.	.	.
4E-/	.	.	.	.	.	.	.	.	.	.	.	.	.	.	.
.	.	4a- 4e- 4c/	.	.	.	.	.	.	.	.	.	.	.	.	.
4A-/	.	.	.	4AA-/	.	.	4e-/	.	.	4c/	-jus	.	4a-/	-jus	.
.	.	8a- 8e- 8c/	.	.	.	.	.	.	.	.	.	.	.	.	.
=128	=128	=128	=128	=128	=128	=128	=128	=128	=128	=128	=128	=128	=128	=128	=128
4AAn/	1AA	8g 8en 8c#X/	.	2AAn/	.	.	2en/	.	.	2c#X/	re-	.	2gn/	re-	.
*	*	*rep	*	*	*	*	*	*	*	*	*	*	*	*	*
!	!	!LO:TX:t=P:problem:do t. 133 powtórki akordów zapisane samymi caudami	!	!	!	!	!	!	!	!	!	!	!	!	!
.	.	4g 4e 4c#/	.	.	.	.	.	.	.	.	.	.	.	.	.
*	*	*Xrep	*	*	*	*	*	*	*	*	*	*	*	*	*
4C#X/	.	.	.	.	.	.	.	.	.	.	.	.	.	.	.
*	*	*rep	*	*	*	*	*	*	*	*	*	*	*	*	*
.	.	4g 4e 4c#/	.	.	.	.	.	.	.	.	.	.	.	.	.
*	*	*Xrep	*	*	*	*	*	*	*	*	*	*	*	*	*
*	*	*rep	*	*	*	*	*	*	*	*	*	*	*	*	*
4En/	.	.	.	4AA/	.	.	4e/	.	.	4c#/	-gni	.	4g/	-gni	.
.	.	4g 4e 4c#/	.	.	.	.	.	.	.	.	.	.	.	.	.
*	*	*Xrep	*	*	*	*	*	*	*	*	*	*	*	*	*
*	*	*rep	*	*	*	*	*	*	*	*	*	*	*	*	*
4An/	.	.	.	4AA/	.	.	4e/	.	.	4c#/	non	.	4g/	non	.
.	.	8g 8e 8c#/	.	.	.	.	.	.	.	.	.	.	.	.	.
*	*	*Xrep	*	*	*	*	*	*	*	*	*	*	*	*	*
=129	=129	=129	=129	=129	=129	=129	=129	=129	=129	=129	=129	=129	=129	=129	=129
4AA#X/	1AA#	8f#X 8en 8c#X/	.	2.AA#X/	.	.	2.en/	.	.	2.c#X/	e-	.	2.f#X/	e-	.
*	*	*rep	*	*	*	*	*	*	*	*	*	*	*	*	*
.	.	4f# 4e 4c#/	.	.	.	.	.	.	.	.	.	.	.	.	.
4C#X/	.	.	.	.	.	.	.	.	.	.	.	.	.	.	.
*	*	*Xrep	*	*	*	*	*	*	*	*	*	*	*	*	*
*	*	*rep	*	*	*	*	*	*	*	*	*	*	*	*	*
.	.	4f# 4e 4c#/	.	.	.	.	.	.	.	.	.	.	.	.	.
4F#X/	.	.	.	.	.	.	.	.	.	.	.	.	.	.	.
*	*	*Xrep	*	*	*	*	*	*	*	*	*	*	*	*	*
*	*	*rep	*	*	*	*	*	*	*	*	*	*	*	*	*
.	.	4f# 4e 4c#/	.	.	.	.	.	.	.	.	.	.	.	.	.
4A#X/	.	.	.	4AA#/	.	.	4e/	.	.	4c#/	-rit]	.	4f#/	-rit	.
*	*	*Xrep	*	*	*	*	*	*	*	*	*	*	*	*	*
*	*	*rep	*	*	*	*	*	*	*	*	*	*	*	*	*
.	.	8f# 8e 8c#/	.	.	.	.	.	.	.	.	.	.	.	.	.
*	*	*Xrep	*	*	*	*	*	*	*	*	*	*	*	*	*
=130	=130	=130	=130	=130	=130	=130	=130	=130	=130	=130	=130	=130	=130	=130	=130
4BBn/	1BB	8f#X 8d#X 8Bn/	.	2BBn/	.	.	(4d#X/	.	.	2Bn/	.	.	2f#X/	fi-	.
*	*	*rep	*	*	*	*	*	*	*	*	*	*	*	*	*
.	.	4f# 4d# 4B/	.	.	.	.	.	.	.	.	.	.	.	.	.
4D#X/	.	.	.	.	.	.	4f#X/)	.	.	.	.	.	.	.	.
*	*	*Xrep	*	*	*	*	*	*	*	*	*	*	*	*	*
*	*	*rep	*	*	*	*	*	*	*	*	*	*	*	*	*
.	.	4f# 4d# 4B/	.	.	.	.	.	.	.	.	.	.	.	.	.
*	*	*Xrep	*	*	*	*	*	*	*	*	*	*	*	*	*
4F#X/	.	.	.	4BB/	.	.	4bn/	.	.	4B/	.	.	4bn/	-nis	.
.	.	4bn 4f# 4d#/	.	.	.	.	.	.	.	.	.	.	.	.	.
4Bn/	.	.	.	4r	.	.	4r	.	.	4r	.	.	4r	.	.
.	.	8b 8f# 8d#/	.	.	.	.	.	.	.	.	.	.	.	.	.
!!LO:PB:g=original
=131	=131	=131	=131	=131	=131	=131	=131	=131	=131	=131	=131	=131	=131	=131	=131
4En/	1EEn	8bn 8g#X 8en/	.	2.En\	.	.	2.een\	.	.	2.g#X/	.	.	2.bn\	cu-	.
*	*	*rep	*	*	*	*	*	*	*	*	*	*	*	*	*
.	.	4b 4g# 4e/	.	.	.	.	.	.	.	.	.	.	.	.	.
*	*	*Xrep	*	*	*	*	*	*	*	*	*	*	*	*	*
*	*	*rep	*	*	*	*	*	*	*	*	*	*	*	*	*
4G#X/	.	.	.	.	.	.	.	.	.	.	.	.	.	.	.
.	.	4b 4g# 4e/	.	.	.	.	.	.	.	.	.	.	.	.	.
*	*	*Xrep	*	*	*	*	*	*	*	*	*	*	*	*	*
*	*	*rep	*	*	*	*	*	*	*	*	*	*	*	*	*
4Bn/	.	.	.	.	.	.	.	.	.	.	.	.	.	.	.
.	.	4b 4g# 4e/	.	.	.	.	.	.	.	.	.	.	.	.	.
*	*	*Xrep	*	*	*	*	*	*	*	*	*	*	*	*	*
*	*	*rep	*	*	*	*	*	*	*	*	*	*	*	*	*
4E/	.	.	.	4E\	.	.	4ee\	.	.	4g#/	.	.	4b\	-jus	.
.	.	8b 8g# 8e/	.	.	.	.	.	.	.	.	.	.	.	.	.
*	*	*Xrep	*	*	*	*	*	*	*	*	*	*	*	*	*
=132	=132	=132	=132	=132	=132	=132	=132	=132	=132	=132	=132	=132	=132	=132	=132
4C#X/	1C#	8a#X 8f#X 8en/	.	2C#X/	.	.	2een\	.	.	2f#X/	.	.	2a#X/	re-	.
*	*	*rep	*	*	*	*	*	*	*	*	*	*	*	*	*
.	.	4a# 4f# 4e/	.	.	.	.	.	.	.	.	.	.	.	.	.
*	*	*Xrep	*	*	*	*	*	*	*	*	*	*	*	*	*
*	*	*rep	*	*	*	*	*	*	*	*	*	*	*	*	*
4F#X/	.	.	.	.	.	.	.	.	.	.	.	.	.	.	.
.	.	4a# 4f# 4e/	.	.	.	.	.	.	.	.	.	.	.	.	.
*	*	*Xrep	*	*	*	*	*	*	*	*	*	*	*	*	*
*	*	*rep	*	*	*	*	*	*	*	*	*	*	*	*	*
4A#X/	.	.	.	4C#/	.	.	4ee\	.	.	4f#/	.	.	4a#/	-gni	.
.	.	4a# 4f# 4e/	.	.	.	.	.	.	.	.	.	.	.	.	.
*	*	*Xrep	*	*	*	*	*	*	*	*	*	*	*	*	*
*	*	*rep	*	*	*	*	*	*	*	*	*	*	*	*	*
4c#X/	.	.	.	4C#/	.	.	4ee\	.	.	4f#/	.	.	4a#/	non	.
.	.	8a# 8f# 8e/	.	.	.	.	.	.	.	.	.	.	.	.	.
*	*	*Xrep	*	*	*	*	*	*	*	*	*	*	*	*	*
=133	=133	=133	=133	=133	=133	=133	=133	=133	=133	=133	=133	=133	=133	=133	=133
4D/	2.D\	8an 8f#X/	.	2.D/	.	.	2.ddn\	.	.	2.f#X/	.	.	2.an/	e-	.
*	*	*rep	*	*	*	*	*	*	*	*	*	*	*	*	*
.	.	4a 4f#/	.	.	.	.	.	.	.	.	.	.	.	.	.
*	*	*Xrep	*	*	*	*	*	*	*	*	*	*	*	*	*
*	*	*rep	*	*	*	*	*	*	*	*	*	*	*	*	*
4F#X/	.	.	.	.	.	.	.	.	.	.	.	.	.	.	.
.	.	4a 4f#/	.	.	.	.	.	.	.	.	.	.	.	.	.
*	*	*Xrep	*	*	*	*	*	*	*	*	*	*	*	*	*
*	*	*rep	*	*	*	*	*	*	*	*	*	*	*	*	*
4An/	.	.	.	.	.	.	.	.	.	.	.	.	.	.	.
.	.	4a 4f#/	.	.	.	.	.	.	.	.	.	.	.	.	.
*	*	*Xrep	*	*	*	*	*	*	*	*	*	*	*	*	*
*	*	*rep	*	*	*	*	*	*	*	*	*	*	*	*	*
4D-X/	4D-\	.	.	4D-X/	.	.	4dd-X\	.	.	4f#/	.	.	4a/	-rit	.
.	.	8a 8f#/	.	.	.	.	.	.	.	.	.	.	.	.	.
*	*	*Xrep	*	*	*	*	*	*	*	*	*	*	*	*	*
*v	*v	*	*	*	*	*	*	*	*	*	*	*	*	*	*
=134	=134	=134	=134	=134	=134	=134	=134	=134	=134	=134	=134	=134	=134	=134
*	*^	*	*	*	*	*	*	*	*	*	*	*	*	*
1C	8an 8g-X 8e-X/	2ryy	.	2C/	.	.	2cc@\	.	.	(4g-X/	.	.	2an/	fi-	.
.	4a 4g- 4e-/	.	.	.	.	.	.	.	.	.	.	.	.	.	.
.	.	.	.	.	.	.	.	.	.	4e-/)	.	.	.	.	.
.	[8a [8g- [8e-/	.	.	.	.	.	.	.	.	.	.	.	.	.	.
!	!	!	!	!	!	!	!LO:ACC:color=dodgerblue	!	!	!	!	!	!	!	!
.	8a-X]L 8g-] 8e-/]	4ryy	.	4c\	.	.	4ee-X\	.	.	4a-X/	.	.	4a-X/	-nis,	.
.	8a-J 8g- 8e-/	.	.	.	.	.	.	.	.	.	.	.	.	.	.
!	!	!	!	!	!	!LO:DY:a	!	!	!LO:DY:a	!	!	!LO:DY:a	!	!	!LO:DY:a
.	16b-/LL	8r	.	4r	.	ff	4r	.	ff	4r	.	ff	4r	.	ff
.	16cc/	.	.	.	.	.	.	.	.	.	.	.	.	.	.
.	16dd-X/	8a-\	.	.	.	.	.	.	.	.	.	.	.	.	.
.	16ee-/JJ	.	.	.	.	.	.	.	.	.	.	.	.	.	.
=135	=135	=135	=135	=135	=135	=135	=135	=135	=135	=135	=135	=135	=135	=135	=135
*^	*	*	*	*	*	*	*	*	*	*	*	*	*	*	*
4d-X 4A- 4F/	1D-X	8ff/L	4a- 4f\	.	2.d-X\	.	.	2.ff\	.	.	2.a-X/	.	.	2.ff\	cu-	.
.	.	8dd/	.	.	.	.	.	.	.	.	.	.	.	.	.	.
4F/	.	8a-/	4d-X\	.	.	.	.	.	.	.	.	.	.	.	.	.
.	.	8f/J	.	.	.	.	.	.	.	.	.	.	.	.	.	.
4A- 4F/	.	8d-/L	4ryy	.	.	.	.	.	.	.	.	.	.	.	.	.
.	.	8f/	.	.	.	.	.	.	.	.	.	.	.	.	.	.
4d-/	.	8a-/	4f\	.	4d-\	.	.	4dd-X\	.	.	4a-/	.	.	4ff\	-jus	.
.	.	8dd/J	.	.	.	.	.	.	.	.	.	.	.	.	.	.
=136	=136	=136	=136	=136	=136	=136	=136	=136	=136	=136	=136	=136	=136	=136	=136	=136
4D-X/	1D-	8ff/L	4g\	.	2d-X\	.	.	2b-\	.	.	2g/	.	.	2ff\	re-	.
.	.	8b-/	.	.	.	.	.	.	.	.	.	.	.	.	.	.
4E-/	.	8g/	4g\	.	.	.	.	.	.	.	.	.	.	.	.	.
.	.	8b-/J	.	.	.	.	.	.	.	.	.	.	.	.	.	.
4B-/	.	8ee-/L	4e-\	.	4D-X\	.	.	4ee-\	.	.	4g/	.	.	4ee-\	-gni	.
.	.	8g/	.	.	.	.	.	.	.	.	.	.	.	.	.	.
4E-/	.	8b-/	4g\	.	4d-\	.	.	4ee-\	.	.	4b-/	.	.	4ee-\	non	.
.	.	8ee-/J	.	.	.	.	.	.	.	.	.	.	.	.	.	.
*	*	*v	*v	*	*	*	*	*	*	*	*	*	*	*	*	*
=137	=137	=137	=137	=137	=137	=137	=137	=137	=137	=137	=137	=137	=137	=137	=137
4e- 4c 4A- 4E-/	2.C\	8aa-L 8a-/	.	2.c\	.	.	2.ee-\	.	.	2.a-/	.	.	2.aa-\	e-	.
.	.	8ee-/	.	.	.	.	.	.	.	.	.	.	.	.	.
8E-/L	.	8cc/	.	.	.	.	.	.	.	.	.	.	.	.	.
8A-/J	.	8a-/J	.	.	.	.	.	.	.	.	.	.	.	.	.
4c 4A-/	.	8e-/L	.	.	.	.	.	.	.	.	.	.	.	.	.
.	.	8a-/	.	.	.	.	.	.	.	.	.	.	.	.	.
!	!	!	!	!	!	!	!LO:ACC:color=red	!	!	!	!	!	!	!	!
!	!	!	!	!	!	!	!LO:SIC:v:s=4cc\	!	!	!	!	!	!	!	!
4c 4A- 4E-/	4AA-\	8cc/	.	4A-\	.	.	4cc-\	.	.	4a-/	.	.	4ee-\	-rit	.
.	.	8ee-/J	.	.	.	.	.	.	.	.	.	.	.	.	.
=138	=138	=138	=138	=138	=138	=138	=138	=138	=138	=138	=138	=138	=138	=138	=138
*	*	*^	*	*	*	*	*	*	*	*	*	*	*	*	*
2c 2A- 2F/	2FF\	2ee-/	8a-\L	.	2F\	.	.	2cc\	.	.	2a-/	.	.	2.ee-\	fi-	.
.	.	.	8e-\	.	.	.	.	.	.	.	.	.	.	.	.	.
.	.	.	8a-\	.	.	.	.	.	.	.	.	.	.	.	.	.
.	.	.	8ee-\J	.	.	.	.	.	.	.	.	.	.	.	.	.
2B- 2G/	2GG\	4.ee-/	8ee-\L	.	2G\	.	.	2ee-\	.	.	2b-/	.	.	.	.	.
.	.	.	8b-\J	.	.	.	.	.	.	.	.	.	.	.	.	.
.	.	.	4e-\	.	.	.	.	.	.	.	.	.	.	4dd-X\	-nis	.
.	.	8dd-X/	.	.	.	.	.	.	.	.	.	.	.	.	.	.
!!LO:LB:g=original
=139	=139	=139	=139	=139	=139	=139	=139	=139	=139	=139	=139	=139	=139	=139	=139	=139
4c 4A-/	1AA-	2cc/	8ccL 8f\	.	1A-	.	.	1ee-	.	.	1a-	.	.	1cc	non	.
.	.	.	8a-\	.	.	.	.	.	.	.	.	.	.	.	.	.
4r	.	.	8e-\	.	.	.	.	.	.	.	.	.	.	.	.	.
.	.	.	8c\J	.	.	.	.	.	.	.	.	.	.	.	.	.
8A-/L	.	2cc 2a-/	2e-\	.	.	.	.	.	.	.	.	.	.	.	.	.
8E-/	.	.	.	.	.	.	.	.	.	.	.	.	.	.	.	.
8A-/	.	.	.	.	.	.	.	.	.	.	.	.	.	.	.	.
8c/J	.	.	.	.	.	.	.	.	.	.	.	.	.	.	.	.
=140	=140	=140	=140	=140	=140	=140	=140	=140	=140	=140	=140	=140	=140	=140	=140	=140
2c 2A- 2E-/	2C\	2ee-/	8e-\L	.	2c\	.	.	2cc\	.	.	2a-/	.	.	2ee-\	e-	.
.	.	.	8a-\	.	.	.	.	.	.	.	.	.	.	.	.	.
.	.	.	8cc\	.	.	.	.	.	.	.	.	.	.	.	.	.
.	.	.	8b-\J	.	.	.	.	.	.	.	.	.	.	.	.	.
!	!	!LO:TX:t=P:problem:mixed beam	!	!	!	!	!	!	!	!	!	!	!	!	!	!
!	!	!	!LO:N:vis=2	!	!	!	!	!	!	!	!	!	!	!	!	!
2ryy	2C\	2a-/	8a-\L	.	2c\	.	.	2ee-\	.	.	2a-/	.	.	2a-/	-rit	.
.	.	.	8e-\	.	.	.	.	.	.	.	.	.	.	.	.	.
.	.	.	8c</	.	.	.	.	.	.	.	.	.	.	.	.	.
.	.	.	8A-</J	.	.	.	.	.	.	.	.	.	.	.	.	.
*	*	*v	*v	*	*	*	*	*	*	*	*	*	*	*	*	*
=141	=141	=141	=141	=141	=141	=141	=141	=141	=141	=141	=141	=141	=141	=141	=141
*	*^	*	*	*	*	*	*	*	*	*	*	*	*	*	*
!	!	!	!	!	!	!	!	!LO:ACC:color=red	!	!	!	!	!	!	!	!
[2d/	8F\L	1BB-	2ff 2dd 2a- 2f\	.	1B-	.	.	1dd-X	.	.	1a-	.	.	(1ff	fi-	.
.	8A-\	.	.	.	.	.	.	.	.	.	.	.	.	.	.	.
.	8B-\	.	.	.	.	.	.	.	.	.	.	.	.	.	.	.
.	8d\J	.	.	.	.	.	.	.	.	.	.	.	.	.	.	.
2d/]	2B-\	.	(8f\L	.	.	.	.	.	.	.	.	.	.	.	.	.
.	.	.	8a-\	.	.	.	.	.	.	.	.	.	.	.	.	.
.	.	.	8b-\	.	.	.	.	.	.	.	.	.	.	.	.	.
.	.	.	8dd\J)	.	.	.	.	.	.	.	.	.	.	.	.	.
*	*v	*v	*	*	*	*	*	*	*	*	*	*	*	*	*	*
=142	=142	=142	=142	=142	=142	=142	=142	=142	=142	=142	=142	=142	=142	=142	=142
*	*	*^	*	*	*	*	*	*	*	*	*	*	*	*	*
*	*	*	*^	*	*	*	*	*	*	*	*	*	*	*	*	*
2B-/	1E-	1ee-	8g\L	4reyy	.	1E-	.	.	1b-	.	.	1g	.	.	1ee-)	.	.
.	.	.	8cc\	.	.	.	.	.	.	.	.	.	.	.	.	.	.
.	.	.	8b-\	[4b-/	.	.	.	.	.	.	.	.	.	.	.	.	.
.	.	.	[8g\J	.	.	.	.	.	.	.	.	.	.	.	.	.	.
8e-/L	.	.	2b-] 2g\]	2rgyy	.	.	.	.	.	.	.	.	.	.	.	.	.
8d/	.	.	.	.	.	.	.	.	.	.	.	.	.	.	.	.	.
8B-/	.	.	.	.	.	.	.	.	.	.	.	.	.	.	.	.	.
8e-/J	.	.	.	.	.	.	.	.	.	.	.	.	.	.	.	.	.
*	*	*	*v	*v	*	*	*	*	*	*	*	*	*	*	*	*	*
=143	=143	=143	=143	=143	=143	=143	=143	=143	=143	=143	=143	=143	=143	=143	=143	=143
4c/	4AA-\	4a-/	4a-\	.	4A-\	.	.	4a-/	.	.	4a-/	.	.	4a-/	-nis.	.
4A-/	4A-\	4r	4a-\	p	4r	.	.	4r	.	.	4r	.	.	4r	.	.
4G/	4G\	2r	4g\	.	2r	.	.	2r	.	.	2r	.	.	2r	.	.
4F/	4F\	.	4f\	.	.	.	.	.	.	.	.	.	.	.	.	.
=144	=144	=144	=144	=144	=144	=144	=144	=144	=144	=144	=144	=144	=144	=144	=144	=144
4En/	4EnX\	1r	4en\	.	1r	.	.	1r	.	.	1r	.	.	1r	.	.
4F/	4F\	.	4f\	.	.	.	.	.	.	.	.	.	.	.	.	.
4C/	4C\	.	4c\	.	.	.	.	.	.	.	.	.	.	.	.	.
4ryy	4D-X\	.	4f	.	.	.	.	.	.	.	.	.	.	.	.	.
=145	=145	=145	=145	=145	=145	=145	=145	=145	=145	=145	=145	=145	=145	=145	=145	=145
!LO:TX:t=P:problem:błędne wyświetlanie łuku	!	!	!	!	!	!	!	!	!	!	!	!	!	!	!	!
N(<1f>	1Dn	1ryy	4r	.	1r	.	.	1r	.	.	1r	.	.	1r	.	.
.	.	.	4cc/	.	.	.	.	.	.	.	.	.	.	.	.	.
.	.	.	4b-/	.	.	.	.	.	.	.	.	.	.	.	.	.
.	.	.	(<4a-/	.	.	.	.	.	.	.	.	.	.	.	.	.
=146	=146	=146	=146	=146	=146	=146	=146	=146	=146	=146	=146	=146	=146	=146	=146	=146
1e-N)	2E-	4r	2g\)	.	1r	.	.	1r	.	.	1r	.	.	1r	.	.
.	.	4gg/	.	.	.	.	.	.	.	.	.	.	.	.	.	.
.	4F	4ff/	4a-\	.	.	.	.	.	.	.	.	.	.	.	.	.
.	4G	4ee-/	4b-\	.	.	.	.	.	.	.	.	.	.	.	.	.
=147	=147	=147	=147	=147	=147	=147	=147	=147	=147	=147	=147	=147	=147	=147	=147	=147
4c/	1A-	4ee-/	1a-	.	1r	.	.	1r	.	.	1r	.	.	1r	.	.
!	!	!LO:TX:a:t=ra-	!	!	!	!	!	!	!	!	!	!	!	!	!	!
4Bn/	.	4ddn/	.	.	.	.	.	.	.	.	.	.	.	.	.	.
4d/	.	4ff/	.	.	.	.	.	.	.	.	.	.	.	.	.	.
4c/	.	4ee-/	.	.	.	.	.	.	.	.	.	.	.	.	.	.
*	*	*v	*v	*	*	*	*	*	*	*	*	*	*	*	*	*
=148	=148	=148	=148	=148	=148	=148	=148	=148	=148	=148	=148	=148	=148	=148	=148
!	!	!LO:TX:t=-len-	!	!	!	!	!	!	!	!	!	!	!	!	!
2f/	2A-\	4dd 4b-/	.	1r	.	.	1r	.	.	1r	.	.	1r	.	.
.	.	4cc 4a-/	.	.	.	.	.	.	.	.	.	.	.	.	.
4d-X/	4En\	4b- 4g/	.	.	.	.	.	.	.	.	.	.	.	.	.
4c/	4F\	4a- 4f/	.	.	.	.	.	.	.	.	.	.	.	.	.
!!LO:PB:g=original
=149	=149	=149	=149	=149	=149	=149	=149	=149	=149	=149	=149	=149	=149	=149	=149
*	*	*^	*	*	*	*	*	*	*	*	*	*	*	*	*
!LO:TX:a:t=ped.	!	!	!	!	!	!	!	!	!	!	!	!	!	!	!	!
2B-/	[1BB-	4g/	2.e-\	.	1r	.	.	1r	.	.	1r	.	.	1r	.	.
!	!	!LO:TX:t=-tan-	!	!	!	!	!	!	!	!	!	!	!	!	!	!
.	.	4a-/	.	.	.	.	.	.	.	.	.	.	.	.	.	.
4G/	.	[2b-/	.	.	.	.	.	.	.	.	.	.	.	.	.	.
4F/	.	.	4d\	.	.	.	.	.	.	.	.	.	.	.	.	.
=150	=150	=150	=150	=150	=150	=150	=150	=150	=150	=150	=150	=150	=150	=150	=150	=150
!	!	!LO:TX:t=do.	!	!	!	!	!	!	!	!	!	!	!	!	!	!
2E-/	1BB-]	1b-]	2c\	.	1r	.	.	1r	.	.	1r	.	.	1r	.	.
!	!	!LO:TX:a:t=tempo primitivo.	!	!	!	!	!	!	!	!	!	!	!	!	!	!
!	!	!	!	!	!	!	!	!	!	!	!	!	!	!LO:TX:a:t=tempo primitivo.	!	!
2F/	.	.	2a- 2d\	.	.	.	.	.	.	.	.	.	.	.	.	.
*	*	*v	*v	*	*	*	*	*	*	*	*	*	*	*	*	*
=151||	=151||	=151||	=151||	=151||	=151||	=151||	=151||	=151||	=151||	=151||	=151||	=151||	=151||	=151||	=151||
*	*	*	*	*	*	*	*	*	*	*	*	*	*	*	*
!	!	!	!	!	!	!LO:DY:a	!	!	!LO:DY:a	!	!	!LO:DY:a	!	!	!LO:DY:a
8E-/L	1EE-	2b- 2g 2B-/	.	2E-\	.	p	2b-\	.	p	2g/	.	p	2b-/	Cre-	p
8BB-/	.	.	.	.	.	.	.	.	.	.	.	.	.	.	.
8E-/	.	.	.	.	.	.	.	.	.	.	.	.	.	.	.
8G/J	.	.	.	.	.	.	.	.	.	.	.	.	.	.	.
4B-/	.	8g/L	.	4E-\	.	.	4b-\	.	.	4e-/	.	.	4g/	-do	.
.	.	8e-/	.	.	.	.	.	.	.	.	.	.	.	.	.
4r	.	8g/	.	4r	.	.	4r	.	.	4r	.	.	4r	.	.
.	.	8b-/J	.	.	.	.	.	.	.	.	.	.	.	.	.
=152	=152	=152	=152	=152	=152	=152	=152	=152	=152	=152	=152	=152	=152	=152	=152
8E-/L	1EE-	2ee- 2g 2e-/	.	2E-\	.	.	2b-\	.	.	2g/	.	.	2ee-\	cre-	.
8BB-/	.	.	.	.	.	.	.	.	.	.	.	.	.	.	.
8E-/	.	.	.	.	.	.	.	.	.	.	.	.	.	.	.
8G/J	.	.	.	.	.	.	.	.	.	.	.	.	.	.	.
4B-/	.	8b-L 8g/	.	4E-\	.	.	4ee-\	.	.	4g/	.	.	4b-\	-do	.
.	.	8e-/	.	.	.	.	.	.	.	.	.	.	.	.	.
4r	.	8g/	.	4E-\	.	.	4b-\	.	.	4e-/	.	.	4g/	in	.
.	.	8B-/J	.	.	.	.	.	.	.	.	.	.	.	.	.
*v	*v	*	*	*	*	*	*	*	*	*	*	*	*	*	*
=153	=153	=153	=153	=153	=153	=153	=153	=153	=153	=153	=153	=153	=153	=153
*	*^	*	*	*	*	*	*	*	*	*	*	*	*	*
1E-	2g/	8d\L	.	4E-\	.	.	4b-\	.	.	4e-/	.	.	4g/	spi-	.
.	.	8B-\	.	.	.	.	.	.	.	.	.	.	.	.	.
.	.	8e-\	.	8E-\	.	.	8b-\	.	.	8e-/L	.	.	8g/	-ri-	.
.	.	8d\J	.	8E-\	.	.	8b-\	.	.	8e-/J	.	.	8g/	-tum	.
.	4a-/	8c\L	.	4E-\	.	.	4cc\	.	.	4e-/	.	.	4a-/	san-	.
.	.	8e-\	.	.	.	.	.	.	.	.	.	.	.	.	.
.	4f/	8A-\	.	4E-\	.	.	4a-/	.	.	4f/@	.	.	4f/	-ctum	.
.	.	8c\J	.	.	.	.	.	.	.	.	.	.	.	.	.
=154	=154	=154	=154	=154	=154	=154	=154	=154	=154	=154	=154	=154	=154	=154	=154
1G 1E-	1b-	8ryy	.	2E-\	.	.	4.g/	.	.	4.e-/	.	.	4.b-/	Do-	.
!	!LO:TX:t=P:problem:mixed beam	!	!	!	!	!	!	!	!	!	!	!	!	!	!
.	.	8B-</L	.	.	.	.	.	.	.	.	.	.	.	.	.
.	.	8e-\	.	.	.	.	.	.	.	.	.	.	.	.	.
.	.	8f\J	.	.	.	.	8b-/	.	.	8e-/	.	.	8g/	-mi-	.
.	.	8e-\L	.	4E-\	.	.	4ee-\	.	.	4g/	.	.	4b-/	-ne	.
.	.	8g\	.	.	.	.	.	.	.	.	.	.	.	.	.
.	.	8B-\	.	4ryy	.	.	4r	.	.	4r	.	.	4r	.	.
.	.	8b-\J	.	.	.	.	.	.	.	.	.	.	.	.	.
!!LO:LB:g=original
=155	=155	=155	=155	=155	=155	=155	=155	=155	=155	=155	=155	=155	=155	=155	=155
*^	*	*	*	*	*	*	*	*	*	*	*	*	*	*	*
!	!	!	!	!	!	!	!LO:DY:t=piu f:color=dodgerblue	!	!	!LO:DY:t=piu f:color=dodgerblue	!	!	!LO:DY:t=piu f:color=dodgerblue	!	!	!LO:DY:t=piu f:color=dodgerblue
2.G/	[1GG	2b-/	8g\L	.	4G\	.	f	4dd\	.	f	4g/	.	f	4b-\	et	f
.	.	.	8d\	.	.	.	.	.	.	.	.	.	.	.	.	.
.	.	.	8g\	.	4G\	.	.	4dd\	.	.	4g/	.	.	4b-\	vi-	.
.	.	.	8f\J	.	.	.	.	.	.	.	.	.	.	.	.	.
.	.	4cc/	8e-\L	.	4G\	.	.	4ee-\	.	.	4g/	.	.	4cc\	-vi-	.
.	.	.	8g\	.	.	.	.	.	.	.	.	.	.	.	.	.
8d/L	.	4an/	8f#X\	.	4G\	.	.	8dd\L	.	.	4f#X/	.	.	4an/	-fi-	.
8c/J	.	.	8d\J	.	.	.	.	8cc\J	.	.	.	.	.	.	.	.
=156	=156	=156	=156	=156	=156	=156	=156	=156	=156	=156	=156	=156	=156	=156	=156	=156
4B-/	4GG\]	4dd/	8b-\L	.	2G\	.	.	(4b-\	.	.	4g/	.	.	2dd\	-can-	.
.	.	.	8d\	.	.	.	.	.	.	.	.	.	.	.	.	.
2B-/	4G\	2dd/	8b-\	.	.	.	.	4dd\)	.	.	4b-/	.	.	.	.	.
.	.	.	8g\J	.	.	.	.	.	.	.	.	.	.	.	.	.
!	!	!LO:TX:t=P:problem:mixed beam	!	!	!	!	!	!	!	!	!	!	!	!	!	!
.	4F#X\	.	8an\L	.	4F#X\	.	.	8dd\	.	.	4an/	.	.	8dd\	-tem	.
.	.	.	8d\	.	.	.	.	8r	.	.	.	.	.	8r	.	.
8Fn/L	4Fn\	4dd/	8a-XJ 8f\	.	8Fn\	.	.	8b-\	.	.	8a-X/	.	.	8dd\	qui	.
8B-/J	.	.	8ryy	.	8F\	.	.	8b-\	.	.	8a-/	.	.	8dd\	ex	.
=157	=157	=157	=157	=157	=157	=157	=157	=157	=157	=157	=157	=157	=157	=157	=157	=157
2B-/	4E-\	4ee-/	8g\L	.	4E-\	.	.	4b-\	.	.	4g/	.	.	4ee-\	pa-	.
.	.	.	8e-\	.	.	.	.	.	.	.	.	.	.	.	.	.
.	8F\L	8dd/L	8a-\	.	8F\	.	.	8b-\	.	.	8a-/	.	.	8dd\	-tre	.
.	8G\J	8ee-/J	8b-\J	.	8G\	.	.	8b-\	.	.	8b-/	.	.	8ee-\	fi-	.
4A-/	4A-\	4ff/	8b-\L	.	4A-\	.	.	4a-/	.	.	4b-/	.	.	4ff\	-lio-	.
.	.	.	16cc\L	.	.	.	.	.	.	.	.	.	.	.	.	.
.	.	.	16b-\JJ	.	.	.	.	.	.	.	.	.	.	.	.	.
4c/	4F\	4cc/	8a-\L	.	8F\	.	.	8cc\	.	.	8a-/	.	.	8cc\	-que	.
.	.	.	8f\J	.	8F\	.	.	8ee-@\	.	.	8a-/	.	.	8cc\	pro-	.
=158	=158	=158	=158	=158	=158	=158	=158	=158	=158	=158	=158	=158	=158	=158	=158	=158
!	!	!	!	!	!	!	!LO:HP:color=dodgerblue	!	!	!LO:HP:color=dodgerblue	!	!	!LO:HP:color=dodgerblue	!	!	!LO:HP:color=dodgerblue
!	!	!	!	!	!	!	!	!LO:S:color=dodgerblue	!	!	!	!	!	!	!	!
[2B-/	2B-\	2ee-/	8g\L	.	2B-\	.	>	(>4ee-\	.	>	(2g/	.	>	(2ee-\	-ce-	>
.	.	.	8b-\	.	.	.	.	.	.	.	.	.	.	.	.	.
.	.	.	8e-\	.	.	.	.	4g/	.	.	.	.	.	.	.	.
.	.	.	8g\J	.	.	.	.	.	.	.	.	.	.	.	.	.
2B-/]	2BB-\	2dd/	8f\L	.	2BB-/	.	]]	2a-/)	.	]]	2f/)	.	]]	2dd\)	.	]]
.	.	.	8g\	.	.	.	.	.	.	.	.	.	.	.	.	.
.	.	.	8b-\	.	.	.	.	.	.	.	.	.	.	.	.	.
.	.	.	16a-\L	.	.	.	.	.	.	.	.	.	.	.	.	.
.	.	.	16f\JJ	.	.	.	.	.	.	.	.	.	.	.	.	.
=159	=159	=159	=159	=159	=159	=159	=159	=159	=159	=159	=159	=159	=159	=159	=159	=159
4B-/	4E-\	4ee-/	8g\L	.	4E-\	.	.	4g/	.	.	4e-/	.	.	4ee-\	-dit,	.
.	.	.	8b-\J	.	.	.	.	.	.	.	.	.	.	.	.	.
4r	4ryy	4gg/	8e-\L	.	4r	.	.	4r@	.	.	4r@	.	.	4r	.	.
.	.	.	8g\J	.	.	.	.	.	.	.	.	.	.	.	.	.
!	!	!	!	!	!LO:TX:a:t=Solo:color=dodgerblue	!	!LO:DY:a	!LO:TX:a:t=Solo:color=dodgerblue	!	!	!LO:TX:a:t=Solo:color=dodgerblue	!	!	!LO:TX:a:t=Solo:color=dodgerblue	!	!LO:DY:a
2r	2ryy	8ff/L	8f\L	.	4E-\	.	p	4b-\	.	.	4e-/	.	.	4g/	si-	p
.	.	8ee-/	8e-\	.	.	.	.	.	.	.	.	.	.	.	.	.
.	.	8dd/	8d\	.	4E-\	.	.	4ee-\	.	.	4g/	.	.	4b-/	-mul	.
.	.	8cc/J	8c\J	.	.	.	.	.	.	.	.	.	.	.	.	.
=160	=160	=160	=160	=160	=160	=160	=160	=160	=160	=160	=160	=160	=160	=160	=160	=160
*	*^	*	*	*	*	*	*	*	*	*	*	*	*	*	*	*
4.B-/	2C\	1rFF	4.b-/	8re	.	4.C/	.	.	4.ee-\	.	.	4.g-X/	.	.	4.b-/	a-	.
.	.	.	.	8e-\	.	.	.	.	.	.	.	.	.	.	.	.	.
.	.	.	.	4g-X\	.	.	.	.	.	.	.	.	.	.	.	.	.
8An/	.	.	8an/	.	.	8C/	.	.	8ee-\	.	.	8g-/	.	.	8an/	-do-	.
4B-/	2D\	.	4.b-/	8r	.	2D\	.	.	2b-\	.	.	2f/	.	.	(4.b-/	-ra-	.
.	.	.	.	8f\	.	.	.	.	.	.	.	.	.	.	.	.	.
8F/L	.	.	.	4B-\	.	.	.	.	.	.	.	.	.	.	.	.	.
8A-X/J	.	.	8a-X/	.	.	.	.	.	.	.	.	.	.	.	8a-X/)	.	.
*	*v	*v	*	*	*	*	*	*	*	*	*	*	*	*	*	*	*
!!LO:PB:g=original
=161	=161	=161	=161	=161	=161	=161	=161	=161	=161	=161	=161	=161	=161	=161	=161	=161
!	!	!LO:TX:t=P:problem:mixed beam	!	!	!	!	!	!	!	!	!	!	!	!	!	!
1E-	1r	4.g/	8G\L	.	4E-\	.	.	4b-\	.	.	4e-/	.	.	4g/	-tur	.
.	.	.	8B-\	.	.	.	.	.	.	.	.	.	.	.	.	.
.	.	.	8e-\	.	4r	.	.	4r	.	.	4r	.	.	4r	.	.
.	.	8gg/	8g\J	.	.	.	.	.	.	.	.	.	.	.	.	.
.	.	8ff/L	8f\L	.	4E-\	.	.	4b-\	.	.	4e-/	.	.	4g/	et	.
.	.	8ee-/	8e-\	.	.	.	.	.	.	.	.	.	.	.	.	.
.	.	8dd/	8d\	.	4E-\	.	.	4ee-\	.	.	4g/	.	.	8g/L	glo-	.
.	.	8cc/J	8c\J	.	.	.	.	.	.	.	.	.	.	8cc/J	.	.
=162	=162	=162	=162	=162	=162	=162	=162	=162	=162	=162	=162	=162	=162	=162	=162	=162
*	*^	*	*	*	*	*	*	*	*	*	*	*	*	*	*	*
4.c/	2D\	1rFF	4.cc/	8r	.	4.D\	.	.	4.ff\	.	.	4.a-/	.	.	4.cc\	-ri-	.
.	.	.	.	8f\	.	.	.	.	.	.	.	.	.	.	.	.	.
.	.	.	.	4a-\	.	.	.	.	.	.	.	.	.	.	.	.	.
8Bn/	.	.	8bn/	.	.	8D\	.	.	8ff\	.	.	8a-/	.	.	8bn\	-fi-	.
4c/	2En\	.	4.cc/	8r	.	2En\	.	.	2cc\	.	.	2g/	.	.	(4.cc\	-ca-	.
.	.	.	.	8g\	.	.	.	.	.	.	.	.	.	.	.	.	.
8G/L	.	.	.	4c\	.	.	.	.	.	.	.	.	.	.	.	.	.
8B-X/J	.	.	8b-X/	.	.	.	.	.	.	.	.	.	.	.	8b-X\)	.	.
=163	=163	=163	=163	=163	=163	=163	=163	=163	=163	=163	=163	=163	=163	=163	=163	=163	=163
!LO:TX:t=P:problem:błędne wyświetlanie łuku	!	!	!	!	!	!	!	!	!	!	!	!	!	!	!	!	!
N(>8A-X/L	1F	1rFF	4a-/	4r	.	4F\	.	.	4cc\	.	.	8f/	.	.	4a-/	-tur	.
8c/J	.	.	.	.	.	.	.	.	.	.	.	8r	.	.	.	.	.
8f>\L	.	.	4cc/	4ryy	.	4r	.	.	4r	.	.	(4cc^\	qui	.	4r	.	.
8c>\JN)	.	.	.	.	.	.	.	.	.	.	.	.	.	.	.	.	.
4F/	.	.	8b-/L	2ryy	.	4.F\	qui	.	2r	.	.	8b-/L	.	.	2r	.	.
.	.	.	8a-/	.	.	.	.	.	.	.	.	8a-/J)	.	.	.	.	.
8G/L	.	.	8g/	.	.	.	.	.	.	.	.	8g/L	lo-	.	.	.	.
8A-/J	.	.	8f/J	.	.	8F\	lo-	.	.	.	.	8f/J	.	.	.	.	.
=164	=164	=164	=164	=164	=164	=164	=164	=164	=164	=164	=164	=164	=164	=164	=164	=164	=164
*	*^	*	*	*	*	*	*	*	*	*	*	*	*	*	*	*	*
8r	4BB-\	4BB-/	1rFF	(>8.f/L	4ryy	.	4BB-/	-cu-	.	4r	.	.	8.e-/	-cu-	.	4r	.	.
8F/	.	.	.	.	.	.	.	.	.	.	.	.	.	.	.	.	.	.
.	.	.	.	16d/Jk	.	.	.	.	.	.	.	.	16d/	-tus	.	.	.	.
!LO:N:vis=1	!	!	!	!	!	!	!	!	!	!	!	!	!	!	!	!	!	!
2A-/	4BBn\	4BBn/	.	4ff/)	8r	.	4BBn/	-tus	.	(4ff^\	qui	.	4d/	est	.	(4ff^\	qui	.
.	.	.	.	.	8f\	.	.	.	.	.	.	.	.	.	.	.	.	.
!	!	!	!	!LO:TX:t=P:problem:błędne wyświetlanie łuku	!	!	!	!	!	!	!	!	!LO:TX:t=P:problem:beam.color=dodgerblue	!	!	!	!	!
.	4C\	4C/	.	(8ee-L 8e-/	4ryy	.	4C/	qui	.	8ee-\L	.	.	8e-@/L	qui	.	8ee-\L	.	.
.	.	.	.	8ddJ 8f 8d/	.	.	.	.	.	8dd\J)	.	.	8f@/J	.	.	8dd\J)	.	.
4ryy	4D\	4D/	.	8ccL 8f/	8c</L)	.	4D/	lo-	.	8cc\L	lo	.	8f/L	lo-	.	8cc\L	lo-	.
.	.	.	.	8b-/J	8B-</J	.	.	.	.	8b-\J	.	.	8b-/J	.	.	8b-\J	.	.
*	*v	*v	*	*	*	*	*	*	*	*	*	*	*	*	*	*	*	*
*	*	*	*v	*v	*	*	*	*	*	*	*	*	*	*	*	*	*
=165	=165	=165	=165	=165	=165	=165	=165	=165	=165	=165	=165	=165	=165	=165	=165	=165
8rB	4E-\	1ryy	4.gg/ 4.b-/ 4.g/	.	4.E-\	-[cu-	.	4.gg 4.ee-^\	.	.	4.b-/	-[cu-	.	4.gg^\	-cu-	.
8G/L	.	.	.	.	.	.	.	.	.	.	.	.	.	.	.	.
8B-/	4r	.	.	.	.	.	.	.	.	.	.	.	.	.	.	.
8e-/J	.	.	8ee-/ 8b-/ 8g/	.	8E-\	-tus	.	8b-\	.	.	8g/	-tus	.	8ee-\	tus	.
8rB	4AA-\	.	4.ee-/ 4.cc/ 4.a-/	.	2A- 2AA-/	est	.	(4.cc\	.	.	2a-/	est	.	(4.ee-\	est	.
8A-/L	.	.	.	.	.	.	.	.	.	.	.	.	.	.	.	.
8c/	4r	.	.	.	.	.	.	.	.	.	.	.	.	.	.	.
8e-/J	.	.	8cc/ 8a-/	.	.	.	.	8ee-\)	.	.	.	.	.	8cc\)	.	.
*	*v	*v	*	*	*	*	*	*	*	*	*	*	*	*	*	*
=166	=166	=166	=166	=166	=166	=166	=166	=166	=166	=166	=166	=166	=166	=166	=166
*	*	*^	*	*^	*	*	*	*	*	*	*	*	*	*	*
8r	4BB-\	4.ee- 4.g 4.e-/	2ryy	.	4.B- 4.BB-/	4.ryy	per	.	4.ee-\	.	.	4.g/	per	.	4.ee-^\	per	.
8B-/L	.	.	.	.	.	.	.	.	.	.	.	.	.	.	.	.	.
8E-/	4r	.	.	.	.	.	.	.	.	.	.	.	.	.	.	.	.
8G/J	.	8b- 8e-/	.	.	8BB-/	8BB-\	Pro-	.	8g/	.	.	8e-/	Pro-	.	8b-\	Pro-	.
2F/	4BB-\	4.b-/	8d\L	.	2BB-/	2BB-\	-phe]-	.	2f/	.	.	2d/	-phe]-	.	(4.b-\	-phe-	.
.	.	.	8f\J	.	.	.	.	.	.	.	.	.	.	.	.	.	.
.	4r	.	8B-\L	.	.	.	.	.	.	.	.	.	.	.	.	.	.
!	!LO:TX:t=P:problem:niezrozumiałe oznaczenie	!	!	!	!	!	!	!	!	!	!	!	!	!	!	!	!
.	.	8a-/	8d\J	.	.	.	.	.	.	.	.	.	.	.	8a-/)	.	.
*	*	*v	*v	*	*	*	*	*	*	*	*	*	*	*	*	*	*
*	*	*	*	*v	*v	*	*	*	*	*	*	*	*	*	*	*
!!LO:LB:g=original
=167	=167	=167	=167	=167	=167	=167	=167	=167	=167	=167	=167	=167	=167	=167	=167
!!LO:TX:color=red:t=U
!	!	!	!LO:DY:t=piu f:color=dodgerblue	!	!	!	!	!	!	!	!	!	!	!	!
8E-/L	1EE-	4ryy	f	4E-\	-tas	.	4e-/	tus	.	4e-/	-tas	.	4g/	-tas,	.
8G/	.	.	.	.	.	.	.	.	.	.	.	.	.	.	.
8B-/	.	8ryy	.	4r	.	.	4r	.	.	4r	.	.	4r	.	.
8e-/J	.	8gg 8g/	.	.	.	.	.	.	.	.	.	.	.	.	.
8B-/L	.	8ffL 8f/	.	4r	.	.	4r	.	.	4r	.	.	4r	.	.
8G/	.	8ee- 8e-/	.	.	.	.	.	.	.	.	.	.	.	.	.
!	!	!	!	!LO:TX:a:t=tutt:color=dodgerblue	!	!LO:DY:a:color=dodgerblue	!LO:TX:a:t=tutti:color=dodgerblue	!	!LO:DY:a:color=dodgerblue	!LO:TX:a:t=tutti:color=dodgerblue	!	!LO:DY:a:color=dodgerblue	!LO:TX:a:t=tutti:color=dodgerblue	!	!LO:DY:a:color=dodgerblue
8B-/	.	8dd 8d/	.	4E-\	et	p	4ee-\	et	p	8e-/L	et	p	8g/L	et	p
8E-/J	.	8ccJ 8c/	.	.	.	.	.	.	.	8g/J	.	.	8b-/J	.	.
=168	=168	=168	=168	=168	=168	=168	=168	=168	=168	=168	=168	=168	=168	=168	=168
*	*	*^	*	*	*	*	*	*	*	*	*	*	*	*	*
2E-/	2C 2CC\	4.b- 4.B-/	8g-X\L	.	4.C/	[u-	.	4.ee-\	[u-	.	4.g-X/	[u-	.	4.b-/	u-	.
.	.	.	8e-\	.	.	.	.	.	.	.	.	.	.	.	.	.
.	.	.	8g-\	.	.	.	.	.	.	.	.	.	.	.	.	.
.	.	8an 8An/	8e-\J	.	8C/	-nam	.	8ee-\	-nam	.	8g-/	-nam	.	8an/	-nam	.
2F/	2D 2DD\	4.b- 4.B-/	8f\L	.	2D\	Sanc-	.	2b-/	Sanc-	.	2f/	Sanc-	.	(4.b-/	Sanc-	.
.	.	.	8B-\	.	.	.	.	.	.	.	.	.	.	.	.	.
.	.	.	8f\	.	.	.	.	.	.	.	.	.	.	.	.	.
.	.	8a-X/	8B-\J	.	.	.	.	.	.	.	.	.	.	8a-X/)	.	.
*	*	*v	*v	*	*	*	*	*	*	*	*	*	*	*	*	*
=169	=169	=169	=169	=169	=169	=169	=169	=169	=169	=169	=169	=169	=169	=169	=169
8G/L	1E- 1EE-	4.g/	.	2E-\	-tam	.	2b-\	-tam]	.	2e-/	-tam]	.	2g/	-tam	.
8B-/	.	.	.	.	.	.	.	.	.	.	.	.	.	.	.
8e-/J	.	.	.	.	.	.	.	.	.	.	.	.	.	.	.
8r	.	8gg 8g/	.	.	.	.	.	.	.	.	.	.	.	.	.
(8B-/L	.	8ffL 8f/	.	4r	.	.	4r	.	.	4r	.	.	4r	.	.
8G/	.	8ee- 8e-/	.	.	.	.	.	.	.	.	.	.	.	.	.
8B-/	.	8dd 8d/	.	4E-\	et	.	4ee-\	et	.	4g/	et	.	8g/L	et	.
8E-/J)	.	8ccJ 8c/	.	.	.	.	.	.	.	.	.	.	8cc/J	.	.
=170	=170	=170	=170	=170	=170	=170	=170	=170	=170	=170	=170	=170	=170	=170	=170
*	*	*^	*	*	*	*	*	*	*	*	*	*	*	*	*
*	*	*	*^	*	*	*	*	*	*	*	*	*	*	*	*	*
2F/	2D 2DD\	4.cc	4.c\	8a-\L	.	4.D\	u-	.	4.ff\	[u-	.	4.a-/	[u-	.	4.cc\	u-	.
.	.	.	.	8f\	.	.	.	.	.	.	.	.	.	.	.	.	.
.	.	.	.	8a-\	.	.	.	.	.	.	.	.	.	.	.	.	.
.	.	8bn 8Bn/	8ryy	8f\J	.	8D\	-nam	.	8ff\	-nam	.	8a-/	-nam	.	8bn\	-nam	.
2En\	2EEn\	4.cc/	2ryy	8gL 8c\	.	2En\	Sanc-	.	2cc\	Sanc-	.	2g/	Sanc-	.	(4.cc\	Sanc-	.
.	.	.	.	8c\	.	.	.	.	.	.	.	.	.	.	.	.	.
.	.	.	.	8g\	.	.	.	.	.	.	.	.	.	.	.	.	.
.	.	8b-X/	.	8c\J	.	.	.	.	.	.	.	.	.	.	8b-X\)	.	.
*	*	*	*v	*v	*	*	*	*	*	*	*	*	*	*	*	*	*
=171	=171	=171	=171	=171	=171	=171	=171	=171	=171	=171	=171	=171	=171	=171	=171	=171
2ryy	1F 1FF	4a-/	(8A-</L	.	4F\	-tam]	.	4cc\	-tam]	.	8a-/	-tam]	.	4cc\	-tam	.
.	.	.	8c</J	.	.	.	.	.	.	.	8r	.	.	.	.	.
!	!	!	!LO:TX:t=P:problem:błędne wyświetlanie łuku	!	!	!	!	!	!	!	!	!	!	!	!	!
.	.	4cc/	(>8a-\L	f	4r	.	.	4r	.	.	4cc^\	ca-	.	4r	.	.
.	.	.	8f\J))	.	.	.	.	.	.	.	.	.	.	.	.	.
!	!	!	!LO:TX:t=P:problem:błędne wyświetlanie łuku	!	!	!	!	!	!	!	!	!	!	!	!	!
(<4F/	.	(8b-/L	(>8f\L	.	4r	.	.	2r	.	.	8b-/L	-tho-	.	2r	.	.
.	.	8a-/)	8c\J)	.	.	.	.	.	.	.	8a-/J	.	.	.	.	.
8G/L	.	8g/	4ryy	.	8r	.	.	.	.	.	8g/L	-li-	.	.	.	.
8A-/J)	.	8f/J	.	.	8F\	ca-	.	.	.	.	8f/J	.	.	.	.	.
=172	=172	=172	=172	=172	=172	=172	=172	=172	=172	=172	=172	=172	=172	=172	=172	=172
*	*^	*	*	*	*	*	*	*	*	*	*	*	*	*	*	*
8A-/L	4ryy	4BB-\	(>8.e-/L	4ryy	.	4BB-/	-tho-	.	4r	.	.	8.e-/	-cam	.	4r	.	.
8F/J	.	.	.	.	.	.	.	.	.	.	.	.	.	.	.	.	.
.	.	.	16d/Jk	.	.	.	.	.	.	.	.	16d/	ec-	.	.	.	.
2A-/	4D/	4BBn\	4ff/)	8r	.	4BBn/	-li-	.	4ff^\	ca-	.	8d/	-cle-	.	4ff^\	ca-	.
.	.	.	.	8f\	.	.	.	.	.	.	.	8d/	-si-	.	.	.	.
.	4E-/	4C\	8ee-L 8e-/	2ryy	.	4C/	-cam	.	8ee-\	-tho-	.	8e-/L	-am	.	8ee-\	-tho-	.
.	.	.	8dd 8f 8d/	.	.	.	.	.	8dd\	-li-	.	8f/J@	.	.	8dd\	-li-	.
8c/L 8F	4ryy	4D\	8cc 8f/	.	.	4D/	et	.	8cc\	-cam	.	8f/L	et	.	8cc\	-cam	.
8B-/J	.	.	8b-/J	.	.	.	.	.	8b-\	et	.	8b-/J	.	.	8b-\	et	.
*	*v	*v	*	*	*	*	*	*	*	*	*	*	*	*	*	*	*
!!LO:PB:g=original
=173	=173	=173	=173	=173	=173	=173	=173	=173	=173	=173	=173	=173	=173	=173	=173	=173
!	!	!	!	!	!	!	!LO:DY:a:color=dodgerblue	!	!	!LO:DY:a:color=dodgerblue	!	!	!LO:DY:a:color=dodgerblue	!	!	!LO:DY:a:color=dodgerblue
8B-L 8G/	2EE-\	4.gg 4.ee-/	8b-L 8g\	f	4.E-\	.	f	4.gg 4.ee-\	.	f	4.b-/	.	f	4.gg\	a-	f
16E-/L	.	.	16g\L	.	.	.	.	.	.	.	.	.	.	.	.	.
16G/JJ	.	.	16b-\JJ	.	.	.	.	.	.	.	.	.	.	.	.	.
8B-/L	.	.	8g\L	.	.	.	.	.	.	.	.	.	.	.	.	.
8e-J 8B- 8G 8E-/	.	8ee-/	8b-J 8g\	.	8E-\	.	.	8b-\	.	.	8g/	.	.	8ee-\	-po-	.
8e-L 8c 8A- 8E-/	2AA-\	4ee-/	8ccL 8a-\	.	4.A- 4.AA-\	.	.	4.cc\	.	.	4.a-/	.	.	4.ee-\	-sto-	.
16E-/L	.	.	16cc\L	.	.	.	.	.	.	.	.	.	.	.	.	.
16A-/JJ	.	.	16a-\JJ	.	.	.	.	.	.	.	.	.	.	.	.	.
8c/L	.	8ryy	8e-\L	.	.	.	.	.	.	.	.	.	.	.	.	.
8cJ 8A- 8E-/	.	8ee- 8cc/	8a-J 8e-\	.	8A- 8AA-\	.	.	8ee-\	.	.	8a-/	.	.	8cc\	-li-	.
=174	=174	=174	=174	=174	=174	=174	=174	=174	=174	=174	=174	=174	=174	=174	=174	=174
*	*	*	*	*	*^	*	*	*	*	*	*	*	*	*	*	*
8B-L 8G 8E-/	2BB-\	4.ee- 4.b-/	8gL 8e-\	.	4.B- 4.BB-\	4.ryy	.	.	4.ee-\	.	.	4.g/	.	.	4.ee-\	-cam	.
16G/L	.	.	16e-\L	.	.	.	.	.	.	.	.	.	.	.	.	.	.
16E-/JJ	.	.	16g\JJ	.	.	.	.	.	.	.	.	.	.	.	.	.	.
8BB-/L	.	.	8b-\	.	.	.	.	.	.	.	.	.	.	.	.	.	.
8GJ 8BB-/	.	8g 8e-/	8ryy	.	8BB-/	8BB-\	.	.	8b-/	.	.	8e-/	.	.	8g/	ec-	.
8B-/L	2BB-\	4.g/	4.d\	.	4.BB-/	4.BB-\	.	.	4.b-/	.	.	4.d/	.	.	4.g/	-cle-	.
16A-/L	.	.	.	.	.	.	.	.	.	.	.	.	.	.	.	.	.
16F/JJ	.	.	.	.	.	.	.	.	.	.	.	.	.	.	.	.	.
8B-/L	.	.	.	.	.	.	.	.	.	.	.	.	.	.	.	.	.
!	!	!	!	!LO:DY:b=2:t=Piano	!	!	!	!	!	!	!	!	!	!	!	!	!
8A-/J	.	8f/	8d\	p	8BB-/	8BB-\	.	.	8a-/	.	.	8d/	.	.	8f/	-si-	.
*v	*v	*	*	*	*	*	*	*	*	*	*	*	*	*	*	*	*
=175	=175	=175	=175	=175	=175	=175	=175	=175	=175	=175	=175	=175	=175	=175	=175	=175
[1G [>1BB- [1EE-	8e-/	8e-\	.	8E-/	8E-\	.	.	8g/	.	.	8e-/	.	.	8e-/	-am.	.
!	!	!	!LO:DY:t=forte.:note=podkreślone podwójną linią	!	!	!	!	!	!	!	!	!	!	!	!	!
.	8e-/L	8ryy	f	8r	8ryy	.	.	8r	.	.	8r	.	.	8r	.	.
!	!	!	!	!	!	!	!LO:DY:a	!	!	!LO:DY:a	!	!	!LO:DY:a	!	!	!LO:DY:a
.	8g/	4ryy	.	4E-\	4ryy	.	p	4e-/	.	p	4e-/	.	p	4e-/	Con-	p
.	8a-/J	.	.	.	.	.	.	.	.	.	.	.	.	.	.	.
.	8b-/L	2ryy	.	4.E-\	2ryy	.	.	4.e-/	.	.	4.e-/	.	.	4.e-/	-fi-	.
.	8ee-/	.	.	.	.	.	.	.	.	.	.	.	.	.	.	.
.	8gg/	.	.	.	.	.	.	.	.	.	.	.	.	.	.	.
.	8aa-/J	.	.	8E-\	.	.	.	8e-/	.	.	8e-/	.	.	8e-/	-te-	.
*	*v	*v	*	*	*	*	*	*	*	*	*	*	*	*	*	*
*	*	*	*v	*v	*	*	*	*	*	*	*	*	*	*	*
=176	=176	=176	=176	=176	=176	=176	=176	=176	=176	=176	=176	=176	=176	=176
1G] 1BB-] 1EE-_	8bb-/L	.	4E-\	.	.	4e-/	.	.	4e-/	.	.	4e-/	-or	.
.	8gg/	.	.	.	.	.	.	.	.	.	.	.	.	.
.	8ee-/	.	4E-\	.	.	4e-/	.	.	4e-/	.	.	4e-/	u-	.
.	8b-/J	.	.	.	.	.	.	.	.	.	.	.	.	.
.	8cc/L	.	4E-\	.	.	4e-/	.	.	4e-/	.	.	4e-/	-nam	.
.	8b-/	.	.	.	.	.	.	.	.	.	.	.	.	.
.	8g/	.	4E-\	.	.	4e-/	.	.	4e-/	.	.	4e-/	bap-	.
.	8e-/J	.	.	.	.	.	.	.	.	.	.	.	.	.
=177	=177	=177	=177	=177	=177	=177	=177	=177	=177	=177	=177	=177	=177	=177
*^	*	*	*	*	*	*	*	*	*	*	*	*	*	*
2G/	1E- 1EE-_	8c/L	.	4E-\	.	.	4e-/	.	.	4e-/	.	.	4e-/	-tis-	.
.	.	8e-/	.	.	.	.	.	.	.	.	.	.	.	.	.
.	.	8a-/	.	8E-\	.	.	8e-/	.	.	8e-/	.	.	8e-/	-ma,	.
.	.	8b-/J	.	8r	.	.	8r	.	.	8r	.	.	8r	.	.
2c/	.	8cc/L	.	4.E-\	.	.	4.e-/	.	.	4.e-/	.	.	4.e-/	in	.
.	.	8ee-/	.	.	.	.	.	.	.	.	.	.	.	.	.
.	.	8aa-/	.	.	.	.	.	.	.	.	.	.	.	.	.
.	.	8gg/J	.	8E-\	.	.	8e-/	.	.	8e-/	.	.	8e-/	re-	.
!!LO:LB:g=original
=178	=178	=178	=178	=178	=178	=178	=178	=178	=178	=178	=178	=178	=178	=178	=178
2A-/	1d 1F 1EE-_	8ff/L	.	4E-\	.	.	4a-/	.	.	4d/	.	.	4f/	-miſ-	.
.	.	8dd/	.	.	.	.	.	.	.	.	.	.	.	.	.
.	.	8b-/	.	4E-\	.	.	4f/	.	.	4B-/	.	.	4d/	-si-	.
.	.	8cc/J	.	.	.	.	.	.	.	.	.	.	.	.	.
2B-/	.	8b-/L	.	4E-\	.	.	4f/	.	.	4B-/	.	.	4d/	-o-	.
.	.	8a-/	.	.	.	.	.	.	.	.	.	.	.	.	.
.	.	8f/	.	4E-\	.	.	4f/	.	.	4B-/	.	.	4d/	-nem	.
.	.	8b-/J	.	.	.	.	.	.	.	.	.	.	.	.	.
=179	=179	=179	=179	=179	=179	=179	=179	=179	=179	=179	=179	=179	=179	=179	=179
2B- 2G/	1EE-_	8g/L	.	4E-\	.	.	4g/	.	.	4B-/	.	.	4e-/	pec-	.
.	.	8e-/	.	.	.	.	.	.	.	.	.	.	.	.	.
.	.	8g/	.	4E-\	.	.	4g/	.	.	4e-/	.	.	4e-/	-ca-	.
.	.	8a-/J	.	.	.	.	.	.	.	.	.	.	.	.	.
2e-/	.	8b-/L	.	4.E-\	.	.	4.g/	.	.	4.B-/	.	.	4.e-/	-to-	.
.	.	8ee-/	.	.	.	.	.	.	.	.	.	.	.	.	.
.	.	8gg/	.	.	.	.	.	.	.	.	.	.	.	.	.
.	.	8bb-/J	.	8E-\	.	.	8g/	.	.	8B-/	.	.	8e-/	-rum	.
=180	=180	=180	=180	=180	=180	=180	=180	=180	=180	=180	=180	=180	=180	=180	=180
2e-/	1B- 1G 1EE-]	8ccc/L	.	4E-\	.	.	4g/	.	.	4B-/	.	.	4e-/	et	.
.	.	8bb-/	.	.	.	.	.	.	.	.	.	.	.	.	.
.	.	8gg/	.	4E-\	.	.	4g/	.	.	4B-/	.	.	4e-/	ex-	.
.	.	8ee-/J	.	.	.	.	.	.	.	.	.	.	.	.	.
2B-/	.	8ff/L	.	4E-\	.	.	4g/	.	.	4B-/	.	.	4e-/	-pec-	.
.	.	8ee-/	.	.	.	.	.	.	.	.	.	.	.	.	.
.	.	8b-/	.	4E-\	.	.	4b-/	.	.	4e-/	.	.	4g/	-to	.
.	.	8dd-X/J	.	.	.	.	.	.	.	.	.	.	.	.	.
=181	=181	=181	=181	=181	=181	=181	=181	=181	=181	=181	=181	=181	=181	=181	=181
2G/	[1En [1EEn	8b-/L@	.	4.En\	.	.	4.b-/	.	.	4.d-X/	.	.	4.a-/	re-	.
.	.	8c/@	.	.	.	.	.	.	.	.	.	.	.	.	.
.	.	8g/@	.	.	.	.	.	.	.	.	.	.	.	.	.
.	.	8a-/J@	.	8E\	.	.	8b-/	.	.	8d-/	.	.	8g/	-su-	.
2c/	.	8b-\L@	.	4E\	.	.	4b-/	.	.	4d-/	.	.	4g/	-re-	.
.	.	8cc\@	.	.	.	.	.	.	.	.	.	.	.	.	.
.	.	8gg\@	.	4E\	.	.	4b-/	.	.	4d-/	.	.	4g/	-cti-	.
.	.	8aa-\J@	.	.	.	.	.	.	.	.	.	.	.	.	.
=182	=182	=182	=182	=182	=182	=182	=182	=182	=182	=182	=182	=182	=182	=182	=182
1c 1G	1EnX] 1EE]	8bb-\L@	.	4En\	.	.	4cc\	.	.	4c/	.	.	4g/	-o-	.
.	.	8gg\@	.	.	.	.	.	.	.	.	.	.	.	.	.
.	.	8cc\@	.	4E\	.	.	4cc\	.	.	4g/	.	.	4g/	-nem	.
.	.	8dd-X\J@	.	.	.	.	.	.	.	.	.	.	.	.	.
.	.	8cc\L@	.	4.E\	.	.	4.cc\	.	.	4.g/	.	.	4.cc\	mor-	.
.	.	8b-\@	.	.	.	.	.	.	.	.	.	.	.	.	.
.	.	8g\@	.	.	.	.	.	.	.	.	.	.	.	.	.
.	.	8cc\J@	.	8E\	.	.	8cc\	.	.	8g/	.	.	8b-\	-tu-	.
!!LO:PB:g=original
=183	=183	=183	=183	=183	=183	=183	=183	=183	=183	=183	=183	=183	=183	=183	=183
2A-/	1F 1FF	8a-/L@	.	2F\	.	.	2cc\	.	.	2f/	.	.	2a-/	-o-	.
.	.	8c/@	.	.	.	.	.	.	.	.	.	.	.	.	.
.	.	8f/@	.	.	.	.	.	.	.	.	.	.	.	.	.
.	.	8g/J@	.	.	.	.	.	.	.	.	.	.	.	.	.
2c/	.	8a-/L	.	8F\	.	.	8cc\	.	.	8f/	.	.	8a-/	-rum	.
.	.	8cc/	.	8r	.	.	8r	.	.	8r	.	.	8r	.	.
.	.	8ff/	.	4F\	.	.	4cc\	.	.	4a-/	.	.	4a-/	et	.
.	.	8aa-/J	.	.	.	.	.	.	.	.	.	.	.	.	.
*v	*v	*	*	*	*	*	*	*	*	*	*	*	*	*	*
=184	=184	=184	=184	=184	=184	=184	=184	=184	=184	=184	=184	=184	=184	=184
1c 1B-X@ 1E- 1GG	8gg/L	.	2G\	.	.	2g/	.	.	2g/	.	.	2g/	vi-	.
.	8ee-/	.	.	.	.	.	.	.	.	.	.	.	.	.
.	8cc/	.	.	.	.	.	.	.	.	.	.	.	.	.
.	8dd/J	.	.	.	.	.	.	.	.	.	.	.	.	.
!	!	!	!	!	!LO:DY:a	!	!	!LO:DY:a	!	!	!LO:DY:a	!	!	!LO:DY:a
.	8ff/L	.	4G\	.	<	4g/	.	<	4g/	.	<	4g/	-tam	<
.	8ee-/	.	.	.	.	.	.	.	.	.	.	.	.	.
.	8cc/	.	4G\	.	.	4g/	.	.	4g/	.	.	4g/	ven-	.
.	8g/J	.	.	.	.	.	.	.	.	.	.	.	.	.
=185	=185	=185	=185	=185	=185	=185	=185	=185	=185	=185	=185	=185	=185	=185
*^	*^	*	*	*	*	*	*	*	*	*	*	*	*	*
!	!LO:ACC:color=dodgerblue	!	!	!	!	!	!	!	!	!	!	!	!	!	!	!
!	!LO:TX:t=P:problem:niepewna interpretacja akcydencji	!	!	!	!	!	!	!	!	!	!	!	!	!	!	!
2B-/	1E-X 1GG	8b-/L@	2ryy	.	2B-\	.	.	2b-\	.	.	2b-\	.	.	2b-\	-tu-	.
.	.	8B-/@	.	.	.	.	.	.	.	.	.	.	.	.	.	.
.	.	8e-/@	.	.	.	.	.	.	.	.	.	.	.	.	.	.
.	.	16g/@	.	.	.	.	.	.	.	.	.	.	.	.	.	.
.	.	16a-/J@	.	.	.	.	.	.	.	.	.	.	.	.	.	.
2B- 2E-/	.	8ryy	2e-\	.	2B-\	.	[[	2b-\	.	[[	2b-\	.	[[	2b-\	-ri	[[
.	.	8ee-/L	.	.	.	.	.	.	.	.	.	.	.	.	.	.
.	.	8gg/	.	.	.	.	.	.	.	.	.	.	.	.	.	.
.	.	8bb-/J	.	.	.	.	.	.	.	.	.	.	.	.	.	.
*v	*v	*	*	*	*	*	*	*	*	*	*	*	*	*	*	*
=186	=186	=186	=186	=186	=186	=186	=186	=186	=186	=186	=186	=186	=186	=186	=186
!	!	!	!	!	!	!LO:DY:a	!	!	!LO:DY:a	!	!	!LO:DY:a	!	!	!LO:DY:a
!LO:ACC:color=dodgerblue	!	!	!	!	!	!LO:DY:a	!	!	!LO:DY:a	!	!	!LO:DY:a	!	!	!LO:DY:a
!LO:TX:t=P:problem:niepewna interpretacja akcydencji	!	!	!	!	!	!	!	!	!	!	!	!	!	!	!
1A-X 1C	8eee-/L@	2e-\	.	[2.c\	.	f >	[2.ee-\	.	f >	[2.a-/	.	f >	[2.ee-\	sae-	f >
.	8ccc/@	.	.	.	.	.	.	.	.	.	.	.	.	.	.
.	8aa-/@	.	.	.	.	.	.	.	.	.	.	.	.	.	.
.	8ee-/J@	.	.	.	.	.	.	.	.	.	.	.	.	.	.
.	8cc/L	2r	.	.	.	.	.	.	.	.	.	.	.	.	.
.	8a-/	.	.	.	.	.	.	.	.	.	.	.	.	.	.
.	8e-/@	.	.	8c\]	.	.	8ee-\]	.	.	8a-/]	.	.	8ee-\]	.	.
.	8c/J@	.	.	8AA-/	.	]]	8a-\	.	]]	8c/	.	]]	8f/	-cu-	]]
*	*v	*v	*	*	*	*	*	*	*	*	*	*	*	*	*
=187	=187	=187	=187	=187	=187	=187	=187	=187	=187	=187	=187	=187	=187	=187
1c 1E- 1FF	8e-/L	.	2AA-/	.	.	2a-\	.	.	2c/	.	.	2f/	-lis.	.
.	8f/	.	.	.	.	.	.	.	.	.	.	.	.	.
.	8a-/	.	.	.	.	.	.	.	.	.	.	.	.	.
.	8cc/J	.	.	.	.	.	.	.	.	.	.	.	.	.
.	8ee-/L	.	2r	.	.	2r@	.	.	2r	.	.	2r	.	.
.	8ff/	.	.	.	.	.	.	.	.	.	.	.	.	.
.	8aa-/	.	.	.	.	.	.	.	.	.	.	.	.	.
.	8gg/J	.	.	.	.	.	.	.	.	.	.	.	.	.
!!LO:LB:g=original
=188	=188	=188	=188	=188	=188	=188	=188	=188	=188	=188	=188	=188	=188	=188
!	!	!	!	!	!LO:DY:color=dodgerblue	!	!	!LO:DY:color=dodgerblue	!	!	!LO:DY:color=dodgerblue	!	!	!LO:DY:color=dodgerblue
1d 1A- 1BB-	8gg/L	.	1BB-	.	p	1a-	.	p	1d	.	p	1b-	A-	p
.	8ff/	.	.	.	.	.	.	.	.	.	.	.	.	.
.	8dd/	.	.	.	.	.	.	.	.	.	.	.	.	.
.	8b-/J	.	.	.	.	.	.	.	.	.	.	.	.	.
.	8a-/L	.	.	.	.	.	.	.	.	.	.	.	.	.
.	8f/	.	.	.	.	.	.	.	.	.	.	.	.	.
.	8d/	.	.	.	.	.	.	.	.	.	.	.	.	.
.	8b-/J	.	.	.	.	.	.	.	.	.	.	.	.	.
=189	=189	=189	=189	=189	=189	=189	=189	=189	=189	=189	=189	=189	=189	=189
*^	*^	*	*	*	*	*	*	*	*	*	*	*	*	*
!	!	!	!LO:TX:color=red:t=22	!	!	!	!	!	!	!	!	!	!	!	!	!
8EE-/L	4EE-\	4e-	(4G</	.	2E-\	.	.	2g/	.	.	2e-/	.	.	2e-/	-men.	.
8BB-/	.	.	.	.	.	.	.	.	.	.	.	.	.	.	.	.
8E-/	4r	4ryy	4ryy	.	.	.	.	.	.	.	.	.	.	.	.	.
8G/J	.	.	.	.	.	.	.	.	.	.	.	.	.	.	.	.
2ryy	2r	4g 4e- 4B-/)	2ryy	p	2r	.	.	2r	.	.	2r	.	.	2r	.	.
.	.	4e- 4B- 4G/	.	.	.	.	.	.	.	.	.	.	.	.	.	.
*	*	*v	*v	*	*	*	*	*	*	*	*	*	*	*	*	*
=190	=190	=190	=190	=190	=190	=190	=190	=190	=190	=190	=190	=190	=190	=190	=190
*	*	*^	*	*	*	*	*	*	*	*	*	*	*	*	*
2F/	2FF\	2a-/	2c 2A-\	.	1r	.	.	1r	.	.	1r	.	.	1r	.	.
2E-/	2AA-\	2a- 2e-/	2c-X\	.	.	.	.	.	.	.	.	.	.	.	.	.
*v	*v	*	*	*	*	*	*	*	*	*	*	*	*	*	*	*
*	*v	*v	*	*	*	*	*	*	*	*	*	*	*	*	*
=191	=191	=191	=191	=191	=191	=191	=191	=191	=191	=191	=191	=191	=191	=191
1E- 1EE-;	1g 1e- 1B-;	.	1r;	.	.	1r;	.	.	1r;	.	.	1r;	.	.
==	==	==	==	==	==	==	==	==	==	==	==	==	==	==
*-	*-	*-	*-	*-	*-	*-	*-	*-	*-	*-	*-	*-	*-	*-
!!!system-decoration: ([g1]{s5,s6})
!!!RDF**kern: > = above
!!!RDF**kern: < = below
!!!RDF**kern: @ = marked note, color=dodgerblue
!!!RDF**kern: N = link
!!!AIN: 1 alto 1 empty 1 organ 1 soprn 1 tenor
!!!ENC: Kamil Watkowski
!!!END: 2021-07-11
